; generated by Slic3r Prusa Edition 1.41.1 on 2018-11-10 at 11:21:36

; 

; external perimeters extrusion width = 0.45mm
; perimeters extrusion width = 0.45mm
; infill extrusion width = 0.45mm
; solid infill extrusion width = 0.45mm
; top infill extrusion width = 0.40mm
; first layer extrusion width = 0.42mm

M73 P0 R59
M73 Q0 S59
M201 X1000 Y1000 Z1000 E5000 ; sets maximum accelerations, mm/sec^2
M203 X200 Y200 Z12 E120 ; sets maximum feedrates, mm/sec
M204 P1250 R1250 T1250 ; sets acceleration (P, T) and retract acceleration (R), mm/sec^2
M205 X8.00 Y8.00 Z0.40 E1.50 ; sets the jerk limits, mm/sec
M205 S0 T0 ; sets the minimum extruding and travel feed rate, mm/sec
M107
M115 U3.4.0 ; tell printer latest fw version
M83  ; extruder relative mode
M104 S140 ; set extruder to warm-up temp
M140 S80 ; set bed temp
M190 S80 ; wait for bed temp
G28 W ; home all without mesh bed level
G80 ; mesh bed leveling
M104 S245 ; set extruder temp
M109 S245 ; wait for extruder temp
G1 Y-3.0 F1000.0 ; go outside print area
G92 E0.0
G1 X60.0 E9.0  F1000.0 ; intro line
M73 Q0 S59
M73 P0 R59
G1 X100.0 E12.5  F1000.0 ; intro line
G92 E0.0
M221 S95
M900 K45; Filament gcode
G21 ; set units to millimeters
G90 ; use absolute coordinates
M83 ; use relative distances for extrusion
;BEFORE_LAYER_CHANGE
G92 E0.0
;0.2


G1 E-0.80000 F2100.00000
G1 Z0.600 F10800.000
;AFTER_LAYER_CHANGE
;0.2
G1 X90.278 Y76.272
G1 Z0.200
G1 E0.80000 F2100.00000
M204 S20
G1 F1800
G1 X93.135 Y73.132 E0.13313
G1 X96.276 Y70.275 E0.13311
G1 X99.724 Y67.691 E0.13511
G1 X103.352 Y65.475 E0.13331
G1 X105.814 Y64.222 E0.08659
G1 X108.344 Y63.126 E0.08646
G1 X112.424 Y61.725 E0.13526
G1 X116.553 Y60.733 E0.13312
G1 X120.761 Y60.134 E0.13328
G1 X125.007 Y59.934 E0.13330
G1 X129.243 Y60.135 E0.13296
G1 X133.515 Y60.747 E0.13530
G1 X136.204 Y61.349 E0.08642
G1 X138.858 Y62.118 E0.08661
G1 X142.831 Y63.613 E0.13311
G1 X146.708 Y65.507 E0.13529
G1 X150.328 Y67.725 E0.13311
G1 X153.728 Y70.278 E0.13329
G1 X156.868 Y73.135 E0.13313
G1 X159.725 Y76.276 E0.13311
G1 X162.274 Y79.671 E0.13312
G1 X164.492 Y83.292 E0.13314
G1 X166.387 Y87.169 E0.13530
G1 X167.402 Y89.736 E0.08657
G1 X168.256 Y92.359 E0.08647
G1 X169.254 Y96.490 E0.13328
G1 X169.865 Y100.756 E0.13510
G1 X170.066 Y105.002 E0.13329
G1 X169.865 Y109.243 E0.13312
G1 X169.255 Y113.509 E0.13512
G1 X168.256 Y117.641 E0.13330
G1 X167.402 Y120.262 E0.08642
G1 X166.387 Y122.831 E0.08661
G1 X164.493 Y126.708 E0.13529
G1 X162.275 Y130.328 E0.13312
G1 X159.722 Y133.728 E0.13329
G1 X156.865 Y136.868 E0.13313
G1 X153.728 Y139.722 E0.13295
G1 X150.329 Y142.274 E0.13329
G1 X146.708 Y144.492 E0.13314
G1 X142.831 Y146.387 E0.13530
G1 X140.269 Y147.400 E0.08640
G1 X137.641 Y148.256 E0.08663
G1 X133.510 Y149.254 E0.13328
G1 X129.244 Y149.865 E0.13510
G1 X124.998 Y150.066 E0.13329
G1 X120.757 Y149.865 E0.13312
G1 X116.491 Y149.255 E0.13512
G1 X112.359 Y148.256 E0.13330
G1 X109.738 Y147.402 E0.08643
G1 X107.169 Y146.387 E0.08661
G1 X103.292 Y144.493 E0.13529
G1 X99.672 Y142.275 E0.13312
G1 X96.277 Y139.726 E0.13312
G1 X93.132 Y136.865 E0.13330
G1 X90.275 Y133.724 E0.13311
G1 X87.726 Y130.329 E0.13313
G1 X85.508 Y126.708 E0.13314
G1 X83.613 Y122.831 E0.13530
G1 X82.600 Y120.269 E0.08640
G1 X81.744 Y117.642 E0.08663
G1 X80.746 Y113.510 E0.13328
G1 X80.135 Y109.244 E0.13510
G1 X79.934 Y104.998 E0.13330
G1 X80.135 Y100.757 E0.13312
G1 X80.745 Y96.491 E0.13512
G1 X81.744 Y92.358 E0.13330
G1 X82.598 Y89.738 E0.08642
G1 X83.613 Y87.169 E0.08661
G1 X85.507 Y83.292 E0.13529
G1 X87.725 Y79.672 E0.13311
G1 X90.242 Y76.320 E0.13141
M204 S1000
G1 X90.543 Y76.547 F10800.000
M204 S20
G1 F1800
G1 X93.401 Y73.400 E0.13326
G1 X96.514 Y70.567 E0.13200
G1 X99.881 Y68.039 E0.13201
G1 X103.476 Y65.837 E0.13218
G1 X107.313 Y63.961 E0.13391
G1 X109.862 Y62.954 E0.08594
G1 X112.469 Y62.105 E0.08598
G1 X116.567 Y61.115 E0.13216
G1 X120.789 Y60.510 E0.13374
G1 X125.005 Y60.311 E0.13233
G1 X129.210 Y60.510 E0.13201
G1 X133.438 Y61.116 E0.13391
G1 X136.113 Y61.715 E0.08596
G1 X138.747 Y62.479 E0.08596
G1 X142.687 Y63.961 E0.13200
G1 X146.525 Y65.837 E0.13392
G1 X150.114 Y68.036 E0.13200
G1 X153.485 Y70.567 E0.13217
G1 X156.600 Y73.401 E0.13202
G1 X159.433 Y76.514 E0.13200
G1 X161.964 Y79.885 E0.13217
G1 X164.161 Y83.471 E0.13186
G1 X166.039 Y87.313 E0.13407
G1 X167.046 Y89.862 E0.08594
G1 X167.895 Y92.469 E0.08598
G1 X168.885 Y96.567 E0.13216
G1 X169.490 Y100.789 E0.13374
G1 X169.689 Y105.000 E0.13217
G1 X169.490 Y109.210 E0.13217
G1 X168.885 Y113.433 E0.13376
G1 X167.895 Y117.531 E0.13216
G1 X167.047 Y120.138 E0.08596
G1 X166.039 Y122.687 E0.08595
G1 X164.163 Y126.525 E0.13392
G1 X161.964 Y130.114 E0.13200
G1 X159.433 Y133.485 E0.13217
G1 X156.599 Y136.600 E0.13202
G1 X153.486 Y139.433 E0.13200
G1 X150.115 Y141.964 E0.13217
G1 X146.524 Y144.163 E0.13202
G1 X142.687 Y146.039 E0.13391
G1 X140.138 Y147.046 E0.08594
G1 X137.531 Y147.895 E0.08598
G1 X133.433 Y148.885 E0.13216
G1 X129.211 Y149.490 E0.13374
G1 X125.000 Y149.689 E0.13217
G1 X120.790 Y149.490 E0.13217
G1 X116.567 Y148.885 E0.13376
G1 X112.469 Y147.895 E0.13216
G1 X109.862 Y147.047 E0.08596
G1 X107.313 Y146.039 E0.08595
G1 X103.475 Y144.163 E0.13392
G1 X99.886 Y141.964 E0.13200
G1 X96.515 Y139.433 E0.13217
G1 X93.400 Y136.599 E0.13202
G1 X90.567 Y133.486 E0.13200
G1 X88.036 Y130.115 E0.13217
G1 X85.837 Y126.524 E0.13202
G1 X83.961 Y122.687 E0.13391
G1 X82.954 Y120.138 E0.08594
G1 X82.105 Y117.531 E0.08598
G1 X81.115 Y113.433 E0.13216
G1 X80.510 Y109.211 E0.13374
G1 X80.311 Y105.000 E0.13217
G1 X80.510 Y100.790 E0.13217
G1 X81.115 Y96.567 E0.13376
G1 X82.105 Y92.469 E0.13216
G1 X82.953 Y89.862 E0.08596
G1 X83.961 Y87.313 E0.08595
G1 X85.837 Y83.475 E0.13393
G1 X88.036 Y79.886 E0.13200
G1 X90.507 Y76.595 E0.12903
M204 S1000
; PURGING FINISHED
G1 F8640
G1 X92.717 Y74.155 E-0.76000
G1 E-0.04000 F2100.00000
G1 Z0.800 F10800.000
G1 X94.309 Y79.641
G1 Z0.200
G1 E0.80000 F2100.00000
M204 S20
G1 F1800
G1 X95.136 Y78.671 E0.03995
G1 X95.978 Y77.746 E0.03922
G1 X96.848 Y76.848 E0.03921
G1 X97.746 Y75.978 E0.03921
G1 X98.671 Y75.136 E0.03922
G1 X99.622 Y74.324 E0.03921
G1 X100.598 Y73.542 E0.03922
G1 X101.599 Y72.791 E0.03921
G1 X102.622 Y72.072 E0.03921
G1 X103.667 Y71.385 E0.03921
G1 X104.734 Y70.731 E0.03921
G1 X105.820 Y70.112 E0.03922
G1 X106.925 Y69.526 E0.03922
G1 X108.048 Y68.976 E0.03921
G1 X109.188 Y68.462 E0.03922
G1 X110.344 Y67.983 E0.03922
G1 X111.514 Y67.541 E0.03921
G1 X112.697 Y67.136 E0.03921
G1 X113.893 Y66.768 E0.03922
G1 X115.099 Y66.438 E0.03921
G1 X116.315 Y66.146 E0.03921
G1 X117.540 Y65.892 E0.03922
G1 X118.772 Y65.677 E0.03921
G1 X120.010 Y65.501 E0.03921
G1 X121.253 Y65.364 E0.03922
G1 X122.500 Y65.266 E0.03921
G1 X123.749 Y65.207 E0.03921
G1 X125.041 Y65.188 E0.04050
G1 X126.251 Y65.207 E0.03794
G1 X127.500 Y65.266 E0.03922
G1 X128.747 Y65.364 E0.03921
G1 X129.990 Y65.501 E0.03922
G1 X131.228 Y65.677 E0.03921
G1 X132.460 Y65.892 E0.03921
G1 X133.685 Y66.146 E0.03922
G1 X134.901 Y66.438 E0.03921
G1 X136.107 Y66.768 E0.03921
G1 X137.303 Y67.136 E0.03922
G1 X138.486 Y67.541 E0.03921
G1 X139.656 Y67.983 E0.03921
G1 X140.812 Y68.462 E0.03922
G1 X141.952 Y68.976 E0.03922
G1 X143.075 Y69.526 E0.03921
G1 X144.180 Y70.112 E0.03922
G1 X145.266 Y70.731 E0.03922
G1 X146.333 Y71.385 E0.03921
G1 X147.378 Y72.072 E0.03921
G1 X148.401 Y72.791 E0.03921
G1 X149.402 Y73.542 E0.03921
G1 X150.378 Y74.324 E0.03922
G1 X151.329 Y75.136 E0.03921
G1 X152.254 Y75.978 E0.03922
G1 X153.152 Y76.848 E0.03921
G1 X154.022 Y77.746 E0.03921
G1 X154.864 Y78.671 E0.03922
G1 X155.676 Y79.622 E0.03921
G1 X156.458 Y80.598 E0.03922
G1 X157.185 Y81.566 E0.03794
G1 X157.929 Y82.622 E0.04049
G1 X158.615 Y83.667 E0.03921
G1 X159.269 Y84.734 E0.03921
G1 X159.888 Y85.820 E0.03922
G1 X160.474 Y86.925 E0.03922
G1 X161.024 Y88.048 E0.03921
G1 X161.538 Y89.188 E0.03922
G1 X162.017 Y90.344 E0.03922
G1 X162.459 Y91.514 E0.03921
G1 X162.864 Y92.697 E0.03921
G1 X163.232 Y93.893 E0.03922
G1 X163.562 Y95.099 E0.03921
G1 X163.854 Y96.315 E0.03921
G1 X164.108 Y97.540 E0.03922
G1 X164.323 Y98.772 E0.03921
G1 X164.499 Y100.010 E0.03921
G1 X164.636 Y101.253 E0.03922
G1 X164.734 Y102.500 E0.03921
G1 X164.793 Y103.749 E0.03922
G1 X164.813 Y105.000 E0.03922
G1 X164.793 Y106.251 E0.03922
G1 X164.734 Y107.500 E0.03922
G1 X164.636 Y108.747 E0.03921
G1 X164.499 Y109.990 E0.03922
G1 X164.323 Y111.228 E0.03921
G1 X164.108 Y112.460 E0.03921
G1 X163.862 Y113.645 E0.03794
G1 X163.562 Y114.901 E0.04049
G1 X163.232 Y116.107 E0.03921
G1 X162.864 Y117.303 E0.03922
G1 X162.459 Y118.486 E0.03921
G1 X162.017 Y119.656 E0.03921
G1 X161.538 Y120.812 E0.03922
G1 X161.024 Y121.952 E0.03922
G1 X160.491 Y123.038 E0.03794
G1 X159.888 Y124.180 E0.04050
G1 X159.269 Y125.266 E0.03921
G1 X158.615 Y126.333 E0.03921
G1 X157.928 Y127.378 E0.03921
G1 X157.209 Y128.401 E0.03921
G1 X156.458 Y129.402 E0.03921
G1 X155.676 Y130.378 E0.03922
G1 X154.864 Y131.329 E0.03921
G1 X154.022 Y132.254 E0.03922
G1 X153.152 Y133.152 E0.03921
G1 X152.254 Y134.022 E0.03921
G1 X151.329 Y134.864 E0.03922
G1 X150.378 Y135.676 E0.03921
G1 X149.402 Y136.458 E0.03922
G1 X148.401 Y137.209 E0.03921
G1 X147.378 Y137.928 E0.03921
G1 X146.333 Y138.615 E0.03921
G1 X145.266 Y139.269 E0.03921
G1 X144.180 Y139.888 E0.03922
G1 X143.075 Y140.474 E0.03922
G1 X141.952 Y141.024 E0.03921
G1 X140.812 Y141.538 E0.03922
G1 X139.656 Y142.017 E0.03922
G1 X138.486 Y142.459 E0.03921
G1 X137.303 Y142.864 E0.03921
G1 X136.107 Y143.232 E0.03922
G1 X134.901 Y143.562 E0.03921
G1 X133.645 Y143.862 E0.04049
G1 X132.460 Y144.108 E0.03794
G1 X131.228 Y144.323 E0.03921
G1 X129.990 Y144.499 E0.03921
G1 X128.747 Y144.636 E0.03922
G1 X127.500 Y144.734 E0.03921
G1 X126.251 Y144.793 E0.03922
G1 X125.000 Y144.813 E0.03922
G1 X123.749 Y144.793 E0.03922
G1 X122.500 Y144.734 E0.03922
G1 X121.253 Y144.636 E0.03921
G1 X120.010 Y144.499 E0.03922
G1 X118.772 Y144.323 E0.03921
G1 X117.540 Y144.108 E0.03921
G1 X116.315 Y143.854 E0.03922
G1 X115.099 Y143.562 E0.03921
G1 X113.893 Y143.232 E0.03921
G1 X112.697 Y142.864 E0.03922
G1 X111.514 Y142.459 E0.03921
G1 X110.344 Y142.017 E0.03921
G1 X109.188 Y141.538 E0.03922
G1 X108.048 Y141.024 E0.03922
G1 X106.925 Y140.474 E0.03921
G1 X105.820 Y139.888 E0.03922
G1 X104.734 Y139.269 E0.03922
G1 X103.667 Y138.615 E0.03921
G1 X102.622 Y137.928 E0.03921
G1 X101.599 Y137.209 E0.03921
G1 X100.598 Y136.458 E0.03921
G1 X99.622 Y135.676 E0.03922
G1 X98.671 Y134.864 E0.03921
G1 X97.746 Y134.022 E0.03922
G1 X96.848 Y133.152 E0.03921
G1 X95.978 Y132.254 E0.03921
G1 X95.136 Y131.329 E0.03922
G1 X94.324 Y130.378 E0.03921
G1 X93.542 Y129.402 E0.03922
G1 X92.815 Y128.434 E0.03794
G1 X92.071 Y127.378 E0.04049
G1 X91.385 Y126.333 E0.03921
G1 X90.731 Y125.266 E0.03921
G1 X90.112 Y124.180 E0.03922
G1 X89.526 Y123.075 E0.03922
G1 X88.976 Y121.952 E0.03921
G1 X88.462 Y120.812 E0.03922
G1 X87.983 Y119.656 E0.03922
G1 X87.541 Y118.486 E0.03921
G1 X87.136 Y117.303 E0.03921
G1 X86.768 Y116.107 E0.03922
G1 X86.438 Y114.901 E0.03921
G1 X86.146 Y113.685 E0.03921
G1 X85.892 Y112.460 E0.03922
G1 X85.677 Y111.228 E0.03921
G1 X85.501 Y109.990 E0.03921
G1 X85.364 Y108.747 E0.03922
G1 X85.266 Y107.500 E0.03921
G1 X85.207 Y106.251 E0.03922
G1 X85.187 Y105.000 E0.03922
G1 X85.207 Y103.749 E0.03922
G1 X85.266 Y102.500 E0.03922
G1 X85.364 Y101.253 E0.03921
G1 X85.501 Y100.010 E0.03922
G1 X85.677 Y98.772 E0.03921
G1 X85.892 Y97.540 E0.03921
G1 X86.138 Y96.355 E0.03794
G1 X86.438 Y95.099 E0.04049
G1 X86.768 Y93.893 E0.03921
G1 X87.136 Y92.697 E0.03922
G1 X87.541 Y91.514 E0.03921
G1 X87.983 Y90.344 E0.03921
G1 X88.462 Y89.188 E0.03922
G1 X88.976 Y88.048 E0.03922
G1 X89.509 Y86.962 E0.03794
G1 X90.112 Y85.820 E0.04050
G1 X90.731 Y84.734 E0.03921
G1 X91.385 Y83.667 E0.03921
G1 X92.072 Y82.622 E0.03921
G1 X92.791 Y81.599 E0.03921
G1 X93.542 Y80.598 E0.03921
G1 X94.272 Y79.687 E0.03660
M204 S1000
G1 X93.977 Y79.452 F10800.000
M204 S20
G1 F1800
G1 X94.853 Y78.422 E0.04238
G1 X95.703 Y77.488 E0.03959
G1 X96.581 Y76.581 E0.03958
G1 X97.488 Y75.703 E0.03958
G1 X98.422 Y74.853 E0.03959
G1 X99.382 Y74.033 E0.03959
G1 X100.367 Y73.244 E0.03959
G1 X101.377 Y72.486 E0.03959
G1 X102.410 Y71.760 E0.03959
G1 X103.465 Y71.066 E0.03959
G1 X104.542 Y70.407 E0.03959
G1 X105.638 Y69.781 E0.03959
G1 X106.754 Y69.190 E0.03959
G1 X107.888 Y68.635 E0.03958
G1 X109.039 Y68.115 E0.03959
G1 X110.205 Y67.632 E0.03959
G1 X111.386 Y67.186 E0.03959
G1 X112.581 Y66.777 E0.03959
G1 X113.787 Y66.406 E0.03959
G1 X115.005 Y66.073 E0.03959
G1 X116.233 Y65.778 E0.03959
G1 X117.469 Y65.522 E0.03959
G1 X118.713 Y65.305 E0.03959
G1 X119.963 Y65.127 E0.03959
G1 X121.218 Y64.988 E0.03959
G1 X122.476 Y64.889 E0.03959
G1 X123.737 Y64.830 E0.03958
G1 X125.041 Y64.811 E0.04087
G1 X126.262 Y64.830 E0.03831
G1 X127.524 Y64.889 E0.03959
G1 X128.782 Y64.988 E0.03959
G1 X130.037 Y65.127 E0.03959
G1 X131.287 Y65.305 E0.03959
G1 X132.531 Y65.522 E0.03959
G1 X133.767 Y65.778 E0.03959
G1 X134.995 Y66.073 E0.03959
G1 X136.213 Y66.406 E0.03959
G1 X137.419 Y66.777 E0.03959
G1 X138.614 Y67.186 E0.03959
G1 X139.795 Y67.632 E0.03959
G1 X140.961 Y68.115 E0.03959
G1 X142.112 Y68.635 E0.03959
G1 X143.246 Y69.190 E0.03958
G1 X144.362 Y69.781 E0.03959
G1 X145.458 Y70.407 E0.03959
G1 X146.535 Y71.066 E0.03959
G1 X147.590 Y71.760 E0.03959
G1 X148.623 Y72.486 E0.03959
G1 X149.633 Y73.244 E0.03959
G1 X150.618 Y74.033 E0.03959
G1 X151.578 Y74.853 E0.03959
G1 X152.512 Y75.703 E0.03959
G1 X153.419 Y76.581 E0.03958
G1 X154.297 Y77.488 E0.03958
G1 X155.147 Y78.422 E0.03959
G1 X155.967 Y79.382 E0.03959
G1 X156.756 Y80.367 E0.03959
G1 X157.490 Y81.344 E0.03831
G1 X158.240 Y82.410 E0.04087
G1 X158.934 Y83.465 E0.03958
G1 X159.593 Y84.542 E0.03959
G1 X160.219 Y85.638 E0.03959
G1 X160.810 Y86.754 E0.03959
G1 X161.365 Y87.888 E0.03958
G1 X161.885 Y89.039 E0.03959
G1 X162.368 Y90.205 E0.03959
G1 X162.814 Y91.386 E0.03959
G1 X163.223 Y92.581 E0.03959
G1 X163.594 Y93.787 E0.03959
G1 X163.927 Y95.005 E0.03959
G1 X164.222 Y96.233 E0.03959
G1 X164.478 Y97.469 E0.03959
G1 X164.695 Y98.713 E0.03959
G1 X164.873 Y99.963 E0.03959
G1 X165.012 Y101.218 E0.03959
G1 X165.111 Y102.476 E0.03959
G1 X165.170 Y103.738 E0.03959
G1 X165.190 Y105.000 E0.03959
G1 X165.170 Y106.262 E0.03959
G1 X165.111 Y107.524 E0.03959
G1 X165.012 Y108.782 E0.03959
G1 X164.873 Y110.037 E0.03959
G1 X164.695 Y111.287 E0.03959
G1 X164.478 Y112.531 E0.03959
G1 X164.230 Y113.727 E0.03831
G1 X163.927 Y114.995 E0.04087
G1 X163.594 Y116.213 E0.03958
G1 X163.223 Y117.419 E0.03959
G1 X162.814 Y118.614 E0.03959
G1 X162.368 Y119.795 E0.03959
G1 X161.885 Y120.961 E0.03959
G1 X161.365 Y122.112 E0.03959
G1 X160.827 Y123.209 E0.03831
G1 X160.219 Y124.362 E0.04087
G1 X159.593 Y125.458 E0.03958
G1 X158.934 Y126.535 E0.03959
G1 X158.240 Y127.590 E0.03959
G1 X157.514 Y128.623 E0.03959
G1 X156.756 Y129.633 E0.03959
G1 X155.967 Y130.618 E0.03959
G1 X155.147 Y131.578 E0.03958
G1 X154.297 Y132.512 E0.03959
G1 X153.419 Y133.419 E0.03958
G1 X152.512 Y134.297 E0.03958
G1 X151.578 Y135.147 E0.03959
G1 X150.618 Y135.967 E0.03958
G1 X149.633 Y136.756 E0.03959
G1 X148.623 Y137.514 E0.03959
G1 X147.590 Y138.240 E0.03959
G1 X146.535 Y138.934 E0.03959
G1 X145.458 Y139.593 E0.03959
G1 X144.362 Y140.219 E0.03959
G1 X143.246 Y140.810 E0.03959
G1 X142.112 Y141.365 E0.03958
G1 X140.961 Y141.885 E0.03959
G1 X139.795 Y142.368 E0.03959
G1 X138.614 Y142.814 E0.03959
G1 X137.419 Y143.223 E0.03959
G1 X136.213 Y143.594 E0.03959
G1 X134.995 Y143.927 E0.03958
G1 X133.727 Y144.230 E0.04087
G1 X132.531 Y144.478 E0.03831
G1 X131.287 Y144.695 E0.03959
G1 X130.037 Y144.873 E0.03959
G1 X128.782 Y145.012 E0.03959
G1 X127.524 Y145.111 E0.03959
G1 X126.262 Y145.170 E0.03959
G1 X125.000 Y145.190 E0.03959
G1 X123.738 Y145.170 E0.03959
G1 X122.476 Y145.111 E0.03959
G1 X121.218 Y145.012 E0.03959
G1 X119.963 Y144.873 E0.03959
G1 X118.713 Y144.695 E0.03959
G1 X117.469 Y144.478 E0.03959
G1 X116.233 Y144.222 E0.03959
G1 X115.005 Y143.927 E0.03959
G1 X113.787 Y143.594 E0.03959
G1 X112.581 Y143.223 E0.03959
G1 X111.386 Y142.814 E0.03959
G1 X110.205 Y142.368 E0.03959
G1 X109.039 Y141.885 E0.03959
G1 X107.888 Y141.365 E0.03959
