; generated by PrusaSlicer 2.0.0 on 2019-08-04 at 21:26:24

; 

; external perimeters extrusion width = 0.45mm
; perimeters extrusion width = 0.45mm
; infill extrusion width = 0.45mm
; solid infill extrusion width = 0.45mm
; top infill extrusion width = 0.40mm
; first layer extrusion width = 0.42mm

M73 P0 R75
M73 Q0 S75
M201 X1000 Y1000 Z1000 E5000 ; sets maximum accelerations, mm/sec^2
M203 X200 Y200 Z12 E120 ; sets maximum feedrates, mm/sec
M204 P1250 R1250 T1250 ; sets acceleration (P, T) and retract acceleration (R), mm/sec^2
M205 X8.00 Y8.00 Z0.40 E1.50 ; sets the jerk limits, mm/sec
M205 S0 T0 ; sets the minimum extruding and travel feed rate, mm/sec
M107
M115 U3.4.0 ; tell printer latest fw version
M83  ; extruder relative mode
M104 S140 ; set extruder to warm-up temp
M140 S80 ; set bed temp
M190 S80 ; wait for bed temp
G28 W ; home all without mesh bed level
G80 ; mesh bed leveling
M104 S250 ; set extruder temp
M109 S250 ; wait for extruder temp
G1 Y-3.0 F1000.0 ; go outside print area
G92 E0.0
G1 X60.0 E9.0  F1000.0 ; intro line
M73 Q0 S75
M73 P0 R75
G1 X100.0 E12.5  F1000.0 ; intro line
G92 E0.0
M221 S95
M900 K45; Filament gcode
G21 ; set units to millimeters
G90 ; use absolute coordinates
M83 ; use relative distances for extrusion
;BEFORE_LAYER_CHANGE
G92 E0.0
;0.2


G1 E-0.80000 F2100.00000
G1 Z0.600 F10800.000
;AFTER_LAYER_CHANGE
;0.2
G1 X122.543 Y87.542
G1 Z0.200
G1 E0.80000 F2100.00000
M204 S20
G1 F1800
G1 X125.180 Y84.030 E0.13772
G1 X128.133 Y80.785 E0.13756
G1 X131.378 Y77.833 E0.13755
G1 X134.939 Y75.164 E0.13953
G1 X138.688 Y72.874 E0.13775
G1 X141.234 Y71.579 E0.08955
G1 X143.850 Y70.445 E0.08940
G1 X148.064 Y68.998 E0.13971
G1 X152.330 Y67.973 E0.13754
G1 X156.678 Y67.354 E0.13772
G1 X161.066 Y67.148 E0.13772
G1 X165.443 Y67.355 E0.13738
G1 X169.854 Y67.987 E0.13974
G1 X172.641 Y68.611 E0.08954
G1 X175.379 Y69.405 E0.08940
G1 X179.486 Y70.950 E0.13756
G1 X183.489 Y72.906 E0.13970
G1 X187.230 Y75.198 E0.13755
G1 X190.742 Y77.835 E0.13772
G1 X193.987 Y80.788 E0.13756
G1 X196.939 Y84.033 E0.13756
G1 X199.608 Y87.594 E0.13953
G1 X201.898 Y91.344 E0.13775
G1 X203.191 Y93.884 E0.08938
G1 X204.320 Y96.488 E0.08900
G1 X205.774 Y100.719 E0.14028
G1 X206.799 Y104.985 E0.13754
G1 X207.418 Y109.333 E0.13772
G1 X207.624 Y113.716 E0.13756
G1 X207.417 Y118.098 E0.13755
G1 X206.787 Y122.503 E0.13953
G1 X206.162 Y125.291 E0.08958
G1 X205.406 Y127.908 E0.08542
G1 X204.852 Y129.539 E0.05398
G1 X203.822 Y132.141 E0.08775
G1 X201.866 Y136.144 E0.13970
G1 X199.582 Y139.872 E0.13708
G1 X196.940 Y143.393 E0.13802
G1 X193.984 Y146.642 E0.13772
G1 X190.739 Y149.594 E0.13755
G1 X187.178 Y152.264 E0.13953
G1 X183.429 Y154.553 E0.13775
G1 X180.883 Y155.848 E0.08955
G1 X178.267 Y156.982 E0.08940
G1 X174.053 Y158.429 E0.13971
G1 X169.787 Y159.454 E0.13754
G1 X165.439 Y160.073 E0.13772
G1 X161.056 Y160.279 E0.13756
G1 X156.674 Y160.072 E0.13755
G1 X152.262 Y159.440 E0.13974
G1 X149.476 Y158.816 E0.08954
G1 X146.738 Y158.022 E0.08940
G1 X142.631 Y156.477 E0.13756
G1 X138.628 Y154.521 E0.13970
G1 X134.887 Y152.229 E0.13755
G1 X131.375 Y149.592 E0.13772
G1 X128.130 Y146.639 E0.13756
G1 X125.178 Y143.394 E0.13756
G1 X122.509 Y139.833 E0.13953
G1 X120.219 Y136.084 E0.13775
G1 X118.924 Y133.538 E0.08955
G1 X117.790 Y130.922 E0.08940
G1 X116.343 Y126.708 E0.13971
G1 X115.318 Y122.442 E0.13754
G1 X114.699 Y118.094 E0.13772
G1 X114.493 Y113.711 E0.13756
G1 X114.700 Y109.329 E0.13755
G1 X115.332 Y104.918 E0.13974
G1 X115.956 Y102.131 E0.08954
G1 X116.750 Y99.393 E0.08940
G1 X118.295 Y95.286 E0.13756
G1 X120.251 Y91.283 E0.13970
G1 X122.512 Y87.594 E0.13567
M204 S1000
G1 X122.833 Y87.790 F10800.000
M204 S20
G1 F1800
G1 X125.469 Y84.272 E0.13785
G1 X128.398 Y81.053 E0.13645
G1 X131.617 Y78.125 E0.13644
G1 X135.147 Y75.478 E0.13834
G1 X138.865 Y73.207 E0.13660
G1 X141.393 Y71.921 E0.08892
G1 X143.994 Y70.793 E0.08891
G1 X148.168 Y69.360 E0.13834
G1 X152.403 Y68.343 E0.13659
G1 X156.712 Y67.730 E0.13644
G1 X161.064 Y67.525 E0.13660
G1 X165.410 Y67.730 E0.13644
G1 X169.778 Y68.356 E0.13835
G1 X172.545 Y68.976 E0.08891
G1 X175.269 Y69.766 E0.08891
G1 X179.341 Y71.298 E0.13644
G1 X183.305 Y73.236 E0.13834
G1 X187.016 Y75.509 E0.13644
G1 X190.500 Y78.125 E0.13659
G1 X193.719 Y81.053 E0.13645
G1 X196.647 Y84.272 E0.13644
G1 X199.263 Y87.756 E0.13660
G1 X201.536 Y91.466 E0.13644
G1 X203.474 Y95.431 E0.13835
G1 X205.006 Y99.503 E0.13644
G1 X205.796 Y102.227 E0.08890
G1 X206.417 Y104.999 E0.08908
G1 X207.042 Y109.362 E0.13818
G1 X207.247 Y113.714 E0.13660
G1 X207.042 Y118.065 E0.13659
G1 X206.417 Y122.428 E0.13818
G1 X205.796 Y125.200 E0.08908
G1 X205.006 Y127.924 E0.08891
G1 X203.474 Y131.997 E0.13644
G1 X201.536 Y135.961 E0.13834
G1 X199.271 Y139.659 E0.13597
G1 X196.648 Y143.155 E0.13707
G1 X193.719 Y146.374 E0.13644
G1 X190.500 Y149.302 E0.13644
G1 X187.016 Y151.918 E0.13660
G1 X183.306 Y154.191 E0.13644
G1 X179.341 Y156.129 E0.13835
G1 X176.752 Y157.154 E0.08732
G1 X175.142 Y157.700 E0.05329
G1 X172.540 Y158.452 E0.08492
G1 X169.773 Y159.072 E0.08892
G1 X165.410 Y159.697 E0.13818
G1 X161.058 Y159.902 E0.13660
G1 X156.707 Y159.697 E0.13659
G1 X152.344 Y159.072 E0.13818
G1 X149.572 Y158.451 E0.08908
G1 X146.848 Y157.661 E0.08891
G1 X142.775 Y156.129 E0.13644
G1 X138.811 Y154.191 E0.13834
G1 X135.101 Y151.918 E0.13644
G1 X131.617 Y149.303 E0.13659
G1 X128.398 Y146.374 E0.13644
G1 X125.470 Y143.155 E0.13644
G1 X122.854 Y139.671 E0.13660
G1 X120.581 Y135.961 E0.13644
G1 X118.643 Y131.997 E0.13835
G1 X117.111 Y127.924 E0.13644
G1 X116.321 Y125.200 E0.08890
G1 X115.700 Y122.428 E0.08908
G1 X115.075 Y118.065 E0.13818
G1 X114.870 Y113.714 E0.13660
G1 X115.075 Y109.362 E0.13659
G1 X115.700 Y104.999 E0.13818
G1 X116.321 Y102.227 E0.08908
G1 X117.111 Y99.503 E0.08891
G1 X118.643 Y95.431 E0.13644
G1 X120.581 Y91.467 E0.13834
G1 X122.802 Y87.841 E0.13330
M204 S1000
G1 F8640
G1 X124.772 Y85.205 E-0.76000
G1 E-0.04000 F2100.00000
G1 Z0.800 F10800.000
G1 X126.874 Y90.516
G1 Z0.200
G1 E0.80000 F2100.00000
M204 S20
G1 F1800
G1 X127.636 Y89.430 E0.04159
G1 X128.415 Y88.393 E0.04069
G1 X129.226 Y87.380 E0.04069
G1 X130.069 Y86.393 E0.04069
G1 X130.943 Y85.433 E0.04069
G1 X131.846 Y84.501 E0.04069
G1 X132.778 Y83.598 E0.04069
G1 X133.738 Y82.724 E0.04069
G1 X134.725 Y81.881 E0.04069
G1 X135.738 Y81.070 E0.04069
G1 X136.775 Y80.291 E0.04068
G1 X137.872 Y79.521 E0.04202
G1 X138.922 Y78.832 E0.03937
G1 X140.029 Y78.154 E0.04069
G1 X141.156 Y77.511 E0.04069
G1 X142.303 Y76.904 E0.04069
G1 X143.468 Y76.333 E0.04069
G1 X144.651 Y75.799 E0.04069
G1 X145.850 Y75.302 E0.04069
G1 X147.064 Y74.843 E0.04069
G1 X148.292 Y74.423 E0.04069
G1 X149.532 Y74.041 E0.04068
G1 X150.825 Y73.689 E0.04202
G1 X152.046 Y73.396 E0.03937
G1 X153.317 Y73.132 E0.04069
G1 X154.596 Y72.909 E0.04069
G1 X155.881 Y72.727 E0.04069
G1 X157.171 Y72.584 E0.04069
G1 X158.464 Y72.482 E0.04069
G1 X159.761 Y72.421 E0.04068
G1 X161.101 Y72.401 E0.04202
G1 X162.356 Y72.421 E0.03937
G1 X163.653 Y72.482 E0.04069
G1 X164.946 Y72.584 E0.04069
G1 X166.236 Y72.727 E0.04069
G1 X167.521 Y72.909 E0.04069
G1 X168.800 Y73.132 E0.04069
G1 X170.071 Y73.396 E0.04069
G1 X171.333 Y73.699 E0.04069
G1 X172.584 Y74.041 E0.04069
G1 X173.825 Y74.423 E0.04069
G1 X175.053 Y74.843 E0.04069
G1 X176.267 Y75.302 E0.04069
G1 X177.466 Y75.799 E0.04069
G1 X178.649 Y76.333 E0.04069
G1 X179.814 Y76.904 E0.04069
G1 X180.961 Y77.511 E0.04069
G1 X182.088 Y78.154 E0.04069
G1 X183.195 Y78.832 E0.04069
G1 X184.279 Y79.544 E0.04068
G1 X185.375 Y80.316 E0.04202
G1 X186.379 Y81.070 E0.03937
G1 X187.392 Y81.881 E0.04069
G1 X188.379 Y82.724 E0.04069
G1 X189.339 Y83.598 E0.04069
G1 X190.271 Y84.501 E0.04069
G1 X191.174 Y85.433 E0.04069
G1 X192.048 Y86.393 E0.04069
G1 X192.891 Y87.380 E0.04069
G1 X193.702 Y88.393 E0.04069
G1 X194.456 Y89.397 E0.03937
G1 X195.228 Y90.493 E0.04202
G1 X195.940 Y91.577 E0.04068
G1 X196.618 Y92.684 E0.04069
G1 X197.261 Y93.811 E0.04069
G1 X197.869 Y94.958 E0.04069
G1 X198.439 Y96.123 E0.04069
G1 X198.974 Y97.306 E0.04069
G1 X199.470 Y98.505 E0.04069
G1 X199.929 Y99.719 E0.04069
G1 X200.349 Y100.947 E0.04069
G1 X200.731 Y102.188 E0.04069
G1 X201.073 Y103.439 E0.04069
G1 X201.376 Y104.701 E0.04069
G1 X201.640 Y105.972 E0.04069
G1 X201.863 Y107.251 E0.04069
G1 X202.046 Y108.536 E0.04069
G1 X202.188 Y109.826 E0.04069
G1 X202.290 Y111.120 E0.04069
G1 X202.351 Y112.416 E0.04069
G1 X202.371 Y113.714 E0.04069
G1 X202.351 Y115.011 E0.04069
G1 X202.290 Y116.308 E0.04069
G1 X202.188 Y117.601 E0.04069
G1 X202.046 Y118.891 E0.04069
G1 X201.863 Y120.176 E0.04069
G1 X201.640 Y121.455 E0.04069
G1 X201.376 Y122.726 E0.04069
G1 X201.073 Y123.988 E0.04069
G1 X200.731 Y125.239 E0.04069
G1 X200.349 Y126.480 E0.04069
G1 X199.929 Y127.708 E0.04069
G1 X199.470 Y128.922 E0.04069
G1 X198.974 Y130.121 E0.04069
G1 X198.439 Y131.304 E0.04069
G1 X197.869 Y132.469 E0.04069
G1 X197.261 Y133.616 E0.04069
G1 X196.618 Y134.743 E0.04069
G1 X195.940 Y135.850 E0.04069
G1 X195.228 Y136.935 E0.04069
G1 X194.481 Y137.997 E0.04069
G1 X193.702 Y139.034 E0.04069
G1 X192.891 Y140.047 E0.04069
G1 X192.048 Y141.034 E0.04069
G1 X191.174 Y141.994 E0.04069
G1 X190.271 Y142.926 E0.04069
G1 X189.339 Y143.829 E0.04069
G1 X188.379 Y144.703 E0.04069
G1 X187.392 Y145.546 E0.04069
G1 X186.379 Y146.357 E0.04069
G1 X185.342 Y147.136 E0.04069
G1 X184.280 Y147.883 E0.04069
G1 X183.195 Y148.595 E0.04069
G1 X182.088 Y149.273 E0.04069
G1 X180.961 Y149.916 E0.04069
G1 X179.814 Y150.524 E0.04069
G1 X178.649 Y151.094 E0.04069
G1 X177.466 Y151.629 E0.04069
G1 X176.267 Y152.125 E0.04069
G1 X175.053 Y152.584 E0.04069
G1 X173.825 Y153.004 E0.04069
G1 X172.584 Y153.386 E0.04069
G1 X171.333 Y153.728 E0.04069
G1 X170.071 Y154.031 E0.04069
G1 X168.800 Y154.295 E0.04069
G1 X167.521 Y154.518 E0.04069
G1 X166.236 Y154.701 E0.04069
G1 X164.946 Y154.843 E0.04069
G1 X163.653 Y154.945 E0.04069
G1 X162.356 Y155.006 E0.04069
G1 X161.058 Y155.026 E0.04069
G1 X159.761 Y155.006 E0.04069
G1 X158.464 Y154.945 E0.04069
G1 X157.171 Y154.843 E0.04069
G1 X155.881 Y154.701 E0.04069
G1 X154.596 Y154.518 E0.04069
G1 X153.317 Y154.295 E0.04069
G1 X152.046 Y154.031 E0.04069
G1 X150.784 Y153.728 E0.04069
G1 X149.533 Y153.386 E0.04069
G1 X148.292 Y153.004 E0.04069
G1 X147.064 Y152.584 E0.04069
G1 X145.850 Y152.125 E0.04069
G1 X144.651 Y151.629 E0.04069
G1 X143.468 Y151.094 E0.04069
G1 X142.303 Y150.524 E0.04069
G1 X141.156 Y149.916 E0.04069
G1 X140.029 Y149.273 E0.04069
G1 X138.922 Y148.595 E0.04069
G1 X137.837 Y147.883 E0.04068
G1 X136.742 Y147.111 E0.04202
G1 X135.738 Y146.357 E0.03937
G1 X134.725 Y145.546 E0.04069
G1 X133.738 Y144.703 E0.04069
G1 X132.778 Y143.829 E0.04069
G1 X131.846 Y142.926 E0.04069
G1 X130.943 Y141.994 E0.04069
G1 X130.069 Y141.034 E0.04069
G1 X129.226 Y140.047 E0.04069
G1 X128.415 Y139.034 E0.04069
G1 X127.661 Y138.030 E0.03937
G1 X126.889 Y136.935 E0.04202
G1 X126.177 Y135.850 E0.04068
G1 X125.499 Y134.743 E0.04069
G1 X124.856 Y133.616 E0.04069
G1 X124.248 Y132.469 E0.04069
G1 X123.678 Y131.304 E0.04069
G1 X123.143 Y130.121 E0.04069
G1 X122.647 Y128.922 E0.04069
G1 X122.188 Y127.708 E0.04069
G1 X121.768 Y126.480 E0.04069
G1 X121.386 Y125.239 E0.04069
G1 X121.044 Y123.988 E0.04069
G1 X120.741 Y122.726 E0.04069
G1 X120.477 Y121.455 E0.04069
G1 X120.254 Y120.176 E0.04069
G1 X120.077 Y118.933 E0.03937
G1 X119.929 Y117.601 E0.04202
G1 X119.827 Y116.308 E0.04068
G1 X119.766 Y115.011 E0.04069
G1 X119.746 Y113.714 E0.04069
G1 X119.766 Y112.416 E0.04069
G1 X119.827 Y111.120 E0.04069
G1 X119.929 Y109.826 E0.04069
G1 X120.071 Y108.536 E0.04069
G1 X120.254 Y107.251 E0.04069
G1 X120.477 Y105.972 E0.04069
G1 X120.741 Y104.701 E0.04069
G1 X121.044 Y103.439 E0.04069
G1 X121.386 Y102.188 E0.04069
G1 X121.768 Y100.947 E0.04069
G1 X122.188 Y99.719 E0.04069
G1 X122.647 Y98.505 E0.04069
G1 X123.143 Y97.306 E0.04069
G1 X123.678 Y96.123 E0.04069
G1 X124.248 Y94.958 E0.04069
G1 X124.856 Y93.811 E0.04069
G1 X125.499 Y92.684 E0.04069
G1 X126.177 Y91.577 E0.04069
G1 X126.841 Y90.566 E0.03791
M204 S1000
G1 X126.526 Y90.359 F10800.000
M204 S20
G1 F1800
G1 X127.331 Y89.209 E0.04403
G1 X128.117 Y88.161 E0.04106
G1 X128.936 Y87.139 E0.04106
G1 X129.786 Y86.143 E0.04106
G1 X130.668 Y85.175 E0.04106
G1 X131.579 Y84.234 E0.04106
G1 X132.520 Y83.323 E0.04106
G1 X133.488 Y82.441 E0.04106
G1 X134.484 Y81.591 E0.04106
G1 X135.506 Y80.772 E0.04106
G1 X136.554 Y79.986 E0.04106
G1 X137.661 Y79.209 E0.04239
G1 X138.720 Y78.514 E0.03974
G1 X139.837 Y77.829 E0.04106
G1 X140.974 Y77.180 E0.04106
G1 X142.132 Y76.568 E0.04106
G1 X143.308 Y75.991 E0.04106
G1 X144.501 Y75.452 E0.04106
G1 X145.711 Y74.951 E0.04106
G1 X146.937 Y74.488 E0.04106
G1 X148.176 Y74.064 E0.04106
G1 X149.427 Y73.679 E0.04106
G1 X150.732 Y73.323 E0.04239
G1 X151.964 Y73.028 E0.03974
G1 X153.247 Y72.762 E0.04106
G1 X154.537 Y72.537 E0.04106
G1 X155.833 Y72.352 E0.04106
G1 X157.135 Y72.209 E0.04106
G1 X158.441 Y72.106 E0.04106
G1 X159.749 Y72.044 E0.04106
G1 X161.101 Y72.024 E0.04239
G1 X162.368 Y72.044 E0.03974
G1 X163.676 Y72.106 E0.04106
G1 X164.982 Y72.209 E0.04106
G1 X166.284 Y72.352 E0.04106
G1 X167.580 Y72.537 E0.04106
G1 X168.870 Y72.762 E0.04106
G1 X170.153 Y73.028 E0.04106
G1 X171.426 Y73.333 E0.04106
G1 X172.690 Y73.679 E0.04106
G1 X173.941 Y74.064 E0.04106
G1 X175.180 Y74.488 E0.04106
G1 X176.406 Y74.951 E0.04106
G1 X177.616 Y75.452 E0.04106
G1 X178.809 Y75.991 E0.04106
G1 X179.985 Y76.568 E0.04106
G1 X181.143 Y77.180 E0.04106
G1 X182.280 Y77.829 E0.04106
G1 X183.397 Y78.514 E0.04106
G1 X184.492 Y79.233 E0.04106
G1 X185.597 Y80.011 E0.04239
G1 X186.611 Y80.772 E0.03974
G1 X187.633 Y81.591 E0.04106
G1 X188.629 Y82.441 E0.04106
G1 X189.597 Y83.323 E0.04106
G1 X190.538 Y84.234 E0.04106
G1 X191.449 Y85.175 E0.04106
G1 X192.331 Y86.143 E0.04106
G1 X193.181 Y87.139 E0.04106
G1 X194.000 Y88.161 E0.04106
G1 X194.761 Y89.175 E0.03974
G1 X195.540 Y90.280 E0.04239
G1 X196.259 Y91.375 E0.04106
G1 X196.943 Y92.492 E0.04106
G1 X197.592 Y93.629 E0.04106
G1 X198.205 Y94.787 E0.04107
G1 X198.781 Y95.963 E0.04106
G1 X199.320 Y97.156 E0.04106
G1 X199.821 Y98.366 E0.04106
G1 X200.284 Y99.592 E0.04106
G1 X200.708 Y100.831 E0.04106
G1 X201.093 Y102.082 E0.04106
G1 X201.439 Y103.346 E0.04106
G1 X201.744 Y104.619 E0.04106
G1 X202.010 Y105.902 E0.04106
G1 X202.235 Y107.192 E0.04106
G1 X202.420 Y108.488 E0.04106
G1 X202.563 Y109.790 E0.04106
G1 X202.666 Y111.096 E0.04106
G1 X202.728 Y112.404 E0.04106
G1 X202.748 Y113.714 E0.04106
G1 X202.728 Y115.023 E0.04106
G1 X202.666 Y116.331 E0.04106
G1 X202.563 Y117.637 E0.04106
G1 X202.420 Y118.939 E0.04106
G1 X202.235 Y120.235 E0.04106
G1 X202.010 Y121.525 E0.04106
G1 X201.744 Y122.808 E0.04106
G1 X201.439 Y124.081 E0.04106
G1 X201.093 Y125.345 E0.04106
G1 X200.708 Y126.596 E0.04106
G1 X200.284 Y127.836 E0.04106
G1 X199.821 Y129.061 E0.04106
G1 X199.320 Y130.271 E0.04106
G1 X198.781 Y131.464 E0.04106
G1 X198.205 Y132.640 E0.04106
G1 X197.592 Y133.798 E0.04106
G1 X196.943 Y134.935 E0.04106
G1 X196.259 Y136.052 E0.04106
G1 X195.539 Y137.147 E0.04106
G1 X194.786 Y138.218 E0.04107
G1 X194.000 Y139.266 E0.04106
G1 X193.181 Y140.288 E0.04106
G1 X192.331 Y141.284 E0.04106
G1 X191.449 Y142.252 E0.04106
G1 X190.538 Y143.193 E0.04106
G1 X189.597 Y144.104 E0.04106
G1 X188.629 Y144.986 E0.04106
G1 X187.633 Y145.836 E0.04106
G1 X186.611 Y146.655 E0.04106
G1 X185.563 Y147.441 E0.04106
G1 X184.492 Y148.195 E0.04107
G1 X183.397 Y148.914 E0.04106
G1 X182.280 Y149.598 E0.04106
G1 X181.143 Y150.247 E0.04106
G1 X179.985 Y150.860 E0.04106
G1 X178.809 Y151.436 E0.04106
G1 X177.616 Y151.975 E0.04106
G1 X176.406 Y152.476 E0.04106
G1 X175.180 Y152.939 E0.04106
G1 X173.941 Y153.363 E0.04106
G1 X172.690 Y153.748 E0.04106
G1 X171.426 Y154.094 E0.04106
G1 X170.153 Y154.399 E0.04106
G1 X168.870 Y154.665 E0.04106
G1 X167.580 Y154.890 E0.04106
G1 X166.284 Y155.075 E0.04106
G1 X164.982 Y155.218 E0.04106
G1 X163.676 Y155.321 E0.04106
G1 X162.368 Y155.383 E0.04106
G1 X161.058 Y155.404 E0.04106
G1 X159.749 Y155.383 E0.04106
G1 X158.441 Y155.321 E0.04106
G1 X157.135 Y155.218 E0.04106
G1 X155.833 Y155.075 E0.04106
G1 X154.537 Y154.890 E0.04106
