; generated by Slic3r Prusa Edition 1.41.3 on 2019-04-06 at 21:19:45

; 

; external perimeters extrusion width = 0.45mm
; perimeters extrusion width = 0.45mm
; infill extrusion width = 0.45mm
; solid infill extrusion width = 0.45mm
; top infill extrusion width = 0.40mm
; first layer extrusion width = 0.42mm

M73 P0 R297
M73 Q0 S299
M201 X1000 Y1000 Z1000 E5000 ; sets maximum accelerations, mm/sec^2
M203 X200 Y200 Z12 E120 ; sets maximum feedrates, mm/sec
M204 P1250 R1250 T1250 ; sets acceleration (P, T) and retract acceleration (R), mm/sec^2
M205 X8.00 Y8.00 Z0.40 E1.50 ; sets the jerk limits, mm/sec
M205 S0 T0 ; sets the minimum extruding and travel feed rate, mm/sec
M107
M115 U3.4.0 ; tell printer latest fw version
M83  ; extruder relative mode
M104 S140 ; set extruder to warm-up temp
M140 S80 ; set bed temp
M190 S80 ; wait for bed temp
G28 W ; home all without mesh bed level
G80 ; mesh bed leveling
M104 S250 ; set extruder temp
M109 S250 ; wait for extruder temp
G1 Y-3.0 F1000.0 ; go outside print area
G92 E0.0
G1 X60.0 E9.0  F1000.0 ; intro line
M73 Q0 S299
M73 P0 R297
G1 X100.0 E12.5  F1000.0 ; intro line
G92 E0.0
M221 S95
M900 K45; Filament gcode
G21 ; set units to millimeters
G90 ; use absolute coordinates
M83 ; use relative distances for extrusion
;BEFORE_LAYER_CHANGE
G92 E0.0
;0.2


G1 E-0.80000 F2100.00000
G1 Z0.600 F10800.000
;AFTER_LAYER_CHANGE
;0.2
G1 X60.877 Y77.951
G1 Z0.200
G1 E0.80000 F2100.00000
M204 S20
G1 F1800
G1 X61.979 Y77.292 E0.04025
G1 X62.840 Y77.026 E0.02826
G1 X63.736 Y76.934 E0.02826
G1 X186.255 Y76.934 E3.84149
G1 X187.126 Y77.019 E0.02743
G1 X187.965 Y77.269 E0.02743
G1 X188.740 Y77.673 E0.02743
G1 X189.428 Y78.222 E0.02760
G1 X189.995 Y78.889 E0.02743
G1 X190.427 Y79.656 E0.02760
G1 X190.702 Y80.487 E0.02743
G1 X190.813 Y81.355 E0.02743
G1 X190.809 Y128.748 E1.48599
G1 X190.563 Y129.997 E0.03992
G1 X189.982 Y131.130 E0.03992
G1 X189.110 Y132.059 E0.03992
G1 X188.021 Y132.708 E0.03976
G1 X187.160 Y132.974 E0.02826
G1 X186.264 Y133.066 E0.02826
G1 X63.666 Y133.065 E3.84397
G1 X62.373 Y132.853 E0.04107
G1 X61.189 Y132.280 E0.04123
G1 X60.218 Y131.393 E0.04123
G1 X59.542 Y130.271 E0.04107
G1 X59.278 Y129.420 E0.02793
G1 X59.185 Y128.535 E0.02793
G1 X59.189 Y81.289 E1.48136
G1 X59.427 Y80.033 E0.04009
G1 X60.006 Y78.887 E0.04025
G1 X60.836 Y77.995 E0.03821
M204 S1000
G1 X61.110 Y78.251 F10800.000
M204 S20
G1 F1800
G1 X62.133 Y77.636 E0.03742
G1 X62.920 Y77.395 E0.02580
G1 X63.739 Y77.311 E0.02580
G1 X186.255 Y77.311 E3.84142
G1 X187.054 Y77.389 E0.02517
G1 X187.828 Y77.620 E0.02533
G1 X188.539 Y77.992 E0.02517
G1 X189.170 Y78.497 E0.02533
G1 X189.689 Y79.109 E0.02517
G1 X190.084 Y79.814 E0.02533
G1 X190.335 Y80.576 E0.02517
G1 X190.437 Y81.377 E0.02533
G1 X190.433 Y128.712 E1.48415
G1 X190.210 Y129.865 E0.03682
G1 X189.675 Y130.911 E0.03682
G1 X188.876 Y131.763 E0.03666
G1 X187.867 Y132.364 E0.03682
G1 X187.080 Y132.605 E0.02580
G1 X186.261 Y132.689 E0.02580
G1 X63.679 Y132.688 E3.84348
G1 X62.491 Y132.495 E0.03776
G1 X61.402 Y131.968 E0.03791
G1 X60.509 Y131.153 E0.03791
G1 X59.886 Y130.117 E0.03791
G1 X59.647 Y129.340 E0.02548
G1 X59.562 Y128.527 E0.02564
G1 X59.565 Y81.323 E1.48003
G1 X59.780 Y80.164 E0.03697
G1 X60.313 Y79.106 E0.03713
G1 X61.069 Y78.294 E0.03479
M204 S1000
; PURGING FINISHED
G1 F8640
G1 X62.133 Y77.636 E-0.28890
G1 X62.920 Y77.395 E-0.18999
G1 X63.739 Y77.311 E-0.18999
G1 X64.133 Y77.311 E-0.09111
G1 E-0.04000 F2100.00000
G1 Z0.800 F10800.000
G1 X93.688 Y87.813
G1 Z0.200
G1 E0.80000 F2100.00000
M204 S20
G1 F1800
G1 X156.312 Y87.813 E1.96354
G1 X156.312 Y127.187 E1.23455
G1 X93.688 Y127.187 E1.96354
G1 X93.688 Y87.873 E1.23267
M204 S1000
G1 X94.065 Y88.190 F10800.000
M204 S20
G1 F1800
G1 X155.935 Y88.190 E1.93989
G1 X155.935 Y126.810 E1.21090
G1 X94.065 Y126.810 E1.93989
G1 X94.065 Y88.250 E1.20902
M204 S1000
G1 X93.933 Y87.813 F10800.000
G1 F8640
G1 X97.356 Y88.247 E-0.76000
G1 E-0.04000 F2100.00000
G1 Z0.800 F10800.000
G1 X64.437 Y82.187
G1 Z0.200
G1 E0.80000 F2100.00000
M204 S20
G1 F1800
G1 X185.563 Y82.187 E3.79782
G1 X185.563 Y127.813 E1.43057
G1 X64.437 Y127.813 E3.79782
M73 Q0 S298
M73 P0 R296
G1 X64.437 Y82.247 E1.42869
M204 S1000
G1 X64.060 Y81.810 F10800.000
M204 S20
G1 F1800
G1 X185.940 Y81.810 E3.82146
G1 X185.940 Y128.190 E1.45421
G1 X64.060 Y128.190 E3.82146
G1 X64.060 Y81.870 E1.45233
M204 S1000
G1 X64.457 Y81.858 F10800.000
G1 F8640
G1 X67.351 Y81.868 E-0.76000
G1 E-0.04000 F2100.00000
G1 Z0.800 F10800.000
G1 X64.550 Y126.935
G1 Z0.200
G1 E0.80000 F2100.00000
M204 S20
G1 F1800
G1 X65.145 Y127.530 E0.02648
G1 X65.680 Y127.530 E0.01683
G1 X64.720 Y126.570 E0.04273
G1 X64.720 Y126.035 E0.01683
G1 X66.215 Y127.530 E0.06653
G1 X66.750 Y127.530 E0.01683
G1 X64.720 Y125.500 E0.09032
G1 X64.720 Y124.965 E0.01683
G1 X67.285 Y127.530 E0.11412
G1 X67.820 Y127.530 E0.01683
G1 X64.720 Y124.430 E0.13792
G1 X64.720 Y123.895 E0.01683
G1 X68.355 Y127.530 E0.16171
G1 X68.890 Y127.530 E0.01683
G1 X64.720 Y123.360 E0.18551
G1 X64.720 Y122.825 E0.01683
G1 X69.425 Y127.530 E0.20931
G1 X69.960 Y127.530 E0.01683
G1 X64.720 Y122.290 E0.23310
G1 X64.720 Y121.755 E0.01683
G1 X70.495 Y127.530 E0.25690
G1 X71.030 Y127.530 E0.01683
G1 X64.720 Y121.220 E0.28070
G1 X64.720 Y120.685 E0.01683
G1 X71.565 Y127.530 E0.30449
G1 X72.100 Y127.530 E0.01683
G1 X64.720 Y120.150 E0.32829
G1 X64.720 Y119.615 E0.01683
G1 X72.635 Y127.530 E0.35209
G1 X73.170 Y127.530 E0.01683
G1 X64.720 Y119.080 E0.37588
G1 X64.720 Y118.545 E0.01683
G1 X73.705 Y127.530 E0.39968
G1 X74.240 Y127.530 E0.01683
G1 X64.720 Y118.010 E0.42348
G1 X64.720 Y117.475 E0.01683
G1 X74.775 Y127.530 E0.44727
G1 X75.310 Y127.530 E0.01683
G1 X64.720 Y116.940 E0.47107
G1 X64.720 Y116.405 E0.01683
G1 X75.845 Y127.530 E0.49487
G1 X76.380 Y127.530 E0.01683
G1 X64.720 Y115.870 E0.51866
G1 X64.720 Y115.335 E0.01683
G1 X76.915 Y127.530 E0.54246
G1 X77.450 Y127.530 E0.01683
G1 X64.720 Y114.800 E0.56626
G1 X64.720 Y114.265 E0.01683
G1 X77.985 Y127.530 E0.59005
G1 X78.520 Y127.530 E0.01683
G1 X64.720 Y113.730 E0.61385
G1 X64.720 Y113.195 E0.01683
G1 X79.055 Y127.530 E0.63765
G1 X79.590 Y127.530 E0.01683
G1 X64.720 Y112.660 E0.66144
G1 X64.720 Y112.125 E0.01683
G1 X80.125 Y127.530 E0.68524
G1 X80.659 Y127.530 E0.01683
G1 X64.720 Y111.591 E0.70904
G1 X64.720 Y111.056 E0.01683
G1 X81.194 Y127.530 E0.73283
G1 X81.729 Y127.530 E0.01683
G1 X64.720 Y110.521 E0.75663
G1 X64.720 Y109.986 E0.01683
G1 X82.264 Y127.530 E0.78043
G1 X82.799 Y127.530 E0.01683
G1 X64.720 Y109.451 E0.80422
G1 X64.720 Y108.916 E0.01683
G1 X83.334 Y127.530 E0.82802
G1 X83.869 Y127.530 E0.01683
G1 X64.720 Y108.381 E0.85182
G1 X64.720 Y107.846 E0.01683
G1 X84.404 Y127.530 E0.87561
G1 X84.939 Y127.530 E0.01683
G1 X64.720 Y107.311 E0.89941
G1 X64.720 Y106.776 E0.01683
G1 X85.474 Y127.530 E0.92321
G1 X86.009 Y127.530 E0.01683
G1 X64.720 Y106.241 E0.94700
M73 Q0 S297
M73 P0 R295
G1 X64.720 Y105.706 E0.01683
G1 X86.544 Y127.530 E0.97080
G1 X87.079 Y127.530 E0.01683
G1 X64.720 Y105.171 E0.99460
G1 X64.720 Y104.636 E0.01683
G1 X87.614 Y127.530 E1.01839
G1 X88.149 Y127.530 E0.01683
G1 X64.720 Y104.101 E1.04219
G1 X64.720 Y103.566 E0.01683
G1 X88.684 Y127.530 E1.06599
G1 X89.219 Y127.530 E0.01683
G1 X64.720 Y103.031 E1.08978
G1 X64.720 Y102.496 E0.01683
G1 X89.754 Y127.530 E1.11358
G1 X90.289 Y127.530 E0.01683
G1 X64.720 Y101.961 E1.13738
G1 X64.720 Y101.426 E0.01683
G1 X90.824 Y127.530 E1.16117
G1 X91.359 Y127.530 E0.01683
G1 X64.720 Y100.891 E1.18497
G1 X64.720 Y100.356 E0.01683
G1 X91.894 Y127.530 E1.20877
G1 X92.429 Y127.530 E0.01683
G1 X64.720 Y99.821 E1.23256
G1 X64.720 Y99.286 E0.01683
G1 X92.964 Y127.530 E1.25636
G1 X93.217 Y127.530 E0.00795
G1 X93.217 Y127.248 E0.00887
G1 X64.720 Y98.751 E1.26761
G1 X64.720 Y98.216 E0.01683
G1 X93.405 Y126.902 E1.27600
G1 X93.405 Y126.367 E0.01683
G1 X64.720 Y97.681 E1.27600
G1 X64.720 Y97.146 E0.01683
G1 X93.405 Y125.832 E1.27600
G1 X93.405 Y125.297 E0.01683
G1 X64.720 Y96.611 E1.27600
G1 X64.720 Y96.077 E0.01683
G1 X93.405 Y124.762 E1.27600
G1 X93.405 Y124.227 E0.01683
G1 X64.720 Y95.542 E1.27600
G1 X64.720 Y95.007 E0.01683
G1 X93.405 Y123.692 E1.27600
G1 X93.405 Y123.157 E0.01683
G1 X64.720 Y94.472 E1.27600
G1 X64.720 Y93.937 E0.01683
G1 X93.405 Y122.622 E1.27600
G1 X93.405 Y122.087 E0.01683
G1 X64.720 Y93.402 E1.27600
G1 X64.720 Y92.867 E0.01683
G1 X93.405 Y121.552 E1.27600
G1 X93.405 Y121.017 E0.01683
G1 X64.720 Y92.332 E1.27600
G1 X64.720 Y91.797 E0.01683
G1 X93.405 Y120.482 E1.27600
G1 X93.405 Y119.947 E0.01683
G1 X64.720 Y91.262 E1.27600
G1 X64.720 Y90.727 E0.01683
G1 X93.405 Y119.412 E1.27600
M73 Q1 S296
M73 P1 R294
G1 X93.405 Y118.877 E0.01683
G1 X64.720 Y90.192 E1.27600
G1 X64.720 Y89.657 E0.01683
G1 X93.405 Y118.342 E1.27600
G1 X93.405 Y117.807 E0.01683
G1 X64.720 Y89.122 E1.27600
G1 X64.720 Y88.587 E0.01683
G1 X93.405 Y117.272 E1.27600
G1 X93.405 Y116.737 E0.01683
G1 X64.720 Y88.052 E1.27600
G1 X64.720 Y87.517 E0.01683
G1 X93.405 Y116.202 E1.27600
G1 X93.405 Y115.667 E0.01683
G1 X64.720 Y86.982 E1.27600
G1 X64.720 Y86.447 E0.01683
G1 X93.405 Y115.132 E1.27600
G1 X93.405 Y114.597 E0.01683
G1 X64.720 Y85.912 E1.27600
G1 X64.720 Y85.377 E0.01683
G1 X93.405 Y114.062 E1.27600
G1 X93.405 Y113.527 E0.01683
G1 X64.720 Y84.842 E1.27600
G1 X64.720 Y84.307 E0.01683
G1 X93.405 Y112.993 E1.27600
G1 X93.405 Y112.458 E0.01683
G1 X64.720 Y83.772 E1.27600
G1 X64.720 Y83.237 E0.01683
G1 X93.405 Y111.923 E1.27600
G1 X93.405 Y111.388 E0.01683
G1 X64.720 Y82.702 E1.27600
G1 X64.720 Y82.470 E0.00731
G1 X65.022 Y82.470 E0.00951
G1 X93.405 Y110.853 E1.26254
G1 X93.405 Y110.318 E0.01683
G1 X65.557 Y82.470 E1.23874
G1 X66.092 Y82.470 E0.01683
G1 X93.405 Y109.783 E1.21495
G1 X93.405 Y109.248 E0.01683
G1 X66.627 Y82.470 E1.19115
G1 X67.162 Y82.470 E0.01683
G1 X93.405 Y108.713 E1.16735
G1 X93.405 Y108.178 E0.01683
G1 X67.697 Y82.470 E1.14356
G1 X68.232 Y82.470 E0.01683
G1 X93.405 Y107.643 E1.11976
G1 X93.405 Y107.108 E0.01683
G1 X68.767 Y82.470 E1.09596
G1 X69.302 Y82.470 E0.01683
G1 X93.405 Y106.573 E1.07217
G1 X93.405 Y106.038 E0.01683
G1 X69.837 Y82.470 E1.04837
G1 X70.372 Y82.470 E0.01683
G1 X93.405 Y105.503 E1.02457
G1 X93.405 Y104.968 E0.01683
G1 X70.907 Y82.470 E1.00078
G1 X71.442 Y82.470 E0.01683
G1 X93.405 Y104.433 E0.97698
G1 X93.405 Y103.898 E0.01683
G1 X71.977 Y82.470 E0.95318
G1 X72.512 Y82.470 E0.01683
G1 X93.405 Y103.363 E0.92939
M73 Q1 S295
M73 P1 R293
G1 X93.405 Y102.828 E0.01683
G1 X73.047 Y82.470 E0.90559
G1 X73.582 Y82.470 E0.01683
G1 X93.405 Y102.293 E0.88179
G1 X93.405 Y101.758 E0.01683
G1 X74.117 Y82.470 E0.85800
G1 X74.652 Y82.470 E0.01683
G1 X93.405 Y101.223 E0.83420
G1 X93.405 Y100.688 E0.01683
G1 X75.187 Y82.470 E0.81040
G1 X75.722 Y82.470 E0.01683
G1 X93.405 Y100.153 E0.78661
G1 X93.405 Y99.618 E0.01683
G1 X76.257 Y82.470 E0.76281
G1 X76.792 Y82.470 E0.01683
G1 X93.405 Y99.083 E0.73901
G1 X93.405 Y98.548 E0.01683
G1 X77.327 Y82.470 E0.71522
G1 X77.862 Y82.470 E0.01683
G1 X93.405 Y98.013 E0.69142
G1 X93.405 Y97.479 E0.01683
G1 X78.396 Y82.470 E0.66762
G1 X78.931 Y82.470 E0.01683
G1 X93.405 Y96.944 E0.64383
G1 X93.405 Y96.409 E0.01683
G1 X79.466 Y82.470 E0.62003
G1 X80.001 Y82.470 E0.01683
G1 X93.405 Y95.874 E0.59623
G1 X93.405 Y95.339 E0.01683
G1 X80.536 Y82.470 E0.57244
G1 X81.071 Y82.470 E0.01683
G1 X93.405 Y94.804 E0.54864
G1 X93.405 Y94.269 E0.01683
G1 X81.606 Y82.470 E0.52484
G1 X82.141 Y82.470 E0.01683
G1 X93.405 Y93.734 E0.50105
G1 X93.405 Y93.199 E0.01683
G1 X82.676 Y82.470 E0.47725
G1 X83.211 Y82.470 E0.01683
G1 X93.405 Y92.664 E0.45345
G1 X93.405 Y92.129 E0.01683
G1 X83.746 Y82.470 E0.42966
G1 X84.281 Y82.470 E0.01683
G1 X93.405 Y91.594 E0.40586
G1 X93.405 Y91.059 E0.01683
G1 X84.816 Y82.470 E0.38206
G1 X85.351 Y82.470 E0.01683
G1 X93.405 Y90.524 E0.35827
G1 X93.405 Y89.989 E0.01683
G1 X85.886 Y82.470 E0.33447
G1 X86.421 Y82.470 E0.01683
G1 X93.405 Y89.454 E0.31067
G1 X93.405 Y88.919 E0.01683
G1 X86.956 Y82.470 E0.28688
G1 X87.491 Y82.470 E0.01683
G1 X93.405 Y88.384 E0.26308
G1 X93.405 Y87.849 E0.01683
G1 X88.026 Y82.470 E0.23928
G1 X88.561 Y82.470 E0.01683
G1 X93.621 Y87.530 E0.22509
G1 X94.156 Y87.530 E0.01683
G1 X89.096 Y82.470 E0.22509
G1 X89.631 Y82.470 E0.01683
G1 X94.691 Y87.530 E0.22509
G1 X95.226 Y87.530 E0.01683
G1 X90.166 Y82.470 E0.22509
G1 X90.701 Y82.470 E0.01683
G1 X95.761 Y87.530 E0.22509
G1 X96.296 Y87.530 E0.01683
G1 X91.236 Y82.470 E0.22509
G1 X91.771 Y82.470 E0.01683
G1 X96.831 Y87.530 E0.22509
G1 X97.366 Y87.530 E0.01683
G1 X92.306 Y82.470 E0.22509
G1 X92.841 Y82.470 E0.01683
G1 X97.901 Y87.530 E0.22509
G1 X98.436 Y87.530 E0.01683
G1 X93.376 Y82.470 E0.22509
G1 X93.910 Y82.470 E0.01683
G1 X98.971 Y87.530 E0.22509
G1 X99.506 Y87.530 E0.01683
G1 X94.445 Y82.470 E0.22509
G1 X94.980 Y82.470 E0.01683
G1 X100.041 Y87.530 E0.22509
G1 X100.576 Y87.530 E0.01683
G1 X95.515 Y82.470 E0.22509
G1 X96.050 Y82.470 E0.01683
G1 X101.111 Y87.530 E0.22509
G1 X101.646 Y87.530 E0.01683
G1 X96.585 Y82.470 E0.22509
G1 X97.120 Y82.470 E0.01683
G1 X102.181 Y87.530 E0.22509
G1 X102.716 Y87.530 E0.01683
G1 X97.655 Y82.470 E0.22509
G1 X98.190 Y82.470 E0.01683
G1 X103.250 Y87.530 E0.22509
G1 X103.785 Y87.530 E0.01683
G1 X98.725 Y82.470 E0.22509
G1 X99.260 Y82.470 E0.01683
G1 X104.320 Y87.530 E0.22509
G1 X104.855 Y87.530 E0.01683
G1 X99.795 Y82.470 E0.22509
G1 X100.330 Y82.470 E0.01683
G1 X105.390 Y87.530 E0.22509
G1 X105.925 Y87.530 E0.01683
G1 X100.865 Y82.470 E0.22509
G1 X101.400 Y82.470 E0.01683
G1 X106.460 Y87.530 E0.22509
G1 X106.995 Y87.530 E0.01683
G1 X101.935 Y82.470 E0.22509
G1 X102.470 Y82.470 E0.01683
G1 X107.530 Y87.530 E0.22509
G1 X108.065 Y87.530 E0.01683
G1 X103.005 Y82.470 E0.22509
G1 X103.540 Y82.470 E0.01683
G1 X108.600 Y87.530 E0.22509
G1 X109.135 Y87.530 E0.01683
G1 X104.075 Y82.470 E0.22509
G1 X104.610 Y82.470 E0.01683
G1 X109.670 Y87.530 E0.22509
G1 X110.205 Y87.530 E0.01683
G1 X105.145 Y82.470 E0.22509
G1 X105.680 Y82.470 E0.01683
G1 X110.740 Y87.530 E0.22509
G1 X111.275 Y87.530 E0.01683
G1 X106.215 Y82.470 E0.22509
G1 X106.750 Y82.470 E0.01683
G1 X111.810 Y87.530 E0.22509
G1 X112.345 Y87.530 E0.01683
G1 X107.285 Y82.470 E0.22509
G1 X107.820 Y82.470 E0.01683
G1 X112.880 Y87.530 E0.22509
G1 X113.415 Y87.530 E0.01683
G1 X108.355 Y82.470 E0.22509
M73 Q1 S294
M73 P1 R292
G1 X108.890 Y82.470 E0.01683
G1 X113.950 Y87.530 E0.22509
G1 X114.485 Y87.530 E0.01683
G1 X109.425 Y82.470 E0.22509
G1 X109.959 Y82.470 E0.01683
G1 X115.020 Y87.530 E0.22509
G1 X115.555 Y87.530 E0.01683
G1 X110.494 Y82.470 E0.22509
G1 X111.029 Y82.470 E0.01683
G1 X116.090 Y87.530 E0.22509
G1 X116.625 Y87.530 E0.01683
G1 X111.564 Y82.470 E0.22509
G1 X112.099 Y82.470 E0.01683
G1 X117.160 Y87.530 E0.22509
G1 X117.695 Y87.530 E0.01683
G1 X112.634 Y82.470 E0.22509
G1 X113.169 Y82.470 E0.01683
G1 X118.230 Y87.530 E0.22509
G1 X118.764 Y87.530 E0.01683
G1 X113.704 Y82.470 E0.22509
G1 X114.239 Y82.470 E0.01683
G1 X119.299 Y87.530 E0.22509
G1 X119.834 Y87.530 E0.01683
G1 X114.774 Y82.470 E0.22509
G1 X115.309 Y82.470 E0.01683
G1 X120.369 Y87.530 E0.22509
G1 X120.904 Y87.530 E0.01683
G1 X115.844 Y82.470 E0.22509
G1 X116.379 Y82.470 E0.01683
G1 X121.439 Y87.530 E0.22509
G1 X121.974 Y87.530 E0.01683
G1 X116.914 Y82.470 E0.22509
G1 X117.449 Y82.470 E0.01683
G1 X122.509 Y87.530 E0.22509
G1 X123.044 Y87.530 E0.01683
G1 X117.984 Y82.470 E0.22509
G1 X118.519 Y82.470 E0.01683
G1 X123.579 Y87.530 E0.22509
G1 X124.114 Y87.530 E0.01683
G1 X119.054 Y82.470 E0.22509
G1 X119.589 Y82.470 E0.01683
G1 X124.649 Y87.530 E0.22509
G1 X125.184 Y87.530 E0.01683
G1 X120.124 Y82.470 E0.22509
G1 X120.659 Y82.470 E0.01683
G1 X125.719 Y87.530 E0.22509
G1 X126.254 Y87.530 E0.01683
G1 X121.194 Y82.470 E0.22509
G1 X121.729 Y82.470 E0.01683
G1 X126.789 Y87.530 E0.22509
G1 X127.324 Y87.530 E0.01683
G1 X122.264 Y82.470 E0.22509
G1 X122.799 Y82.470 E0.01683
G1 X127.859 Y87.530 E0.22509
G1 X128.394 Y87.530 E0.01683
G1 X123.334 Y82.470 E0.22509
G1 X123.869 Y82.470 E0.01683
G1 X128.929 Y87.530 E0.22509
G1 X129.464 Y87.530 E0.01683
G1 X124.404 Y82.470 E0.22509
G1 X124.939 Y82.470 E0.01683
G1 X129.999 Y87.530 E0.22509
G1 X130.534 Y87.530 E0.01683
G1 X125.473 Y82.470 E0.22509
