; generated by Slic3r Prusa Edition 1.41.0+linux64 on 2018-10-01 at 19:53:11

; 

; external perimeters extrusion width = 0.61mm
; perimeters extrusion width = 0.65mm
; infill extrusion width = 0.70mm
; solid infill extrusion width = 0.65mm
; top infill extrusion width = 0.60mm
; first layer extrusion width = 0.65mm

M201 X1000 Y1000 Z1000 E5000 ; sets maximum accelerations, mm/sec^2
M203 X200 Y200 Z12 E120 ; sets maximum feedrates, mm/sec
M204 P1250 R1250 T1250 ; sets acceleration (P, T) and retract acceleration (R), mm/sec^2
M205 X8.00 Y8.00 Z0.40 E1.50 ; sets the jerk limits, mm/sec
M205 S0 T0 ; sets the minimum extruding and travel feed rate, mm/sec
M107
M115 U3.4.0 ; tell printer latest fw version
M83  ; extruder relative mode
M104 S250 ; set extruder temp
M140 S85 ; set bed temp
M190 S85 ; wait for bed temp
M109 S250 ; wait for extruder temp
G28 W ; home all without mesh bed level
G80 ; mesh bed leveling
G1 Y-3.0 F1000.0 ; go outside print area
G92 E0.0
G1 X60.0 E9.0  F1000.0 ; intro line
M73 Q0 S462
M73 P0 R460
G1 X100.0 E12.5  F1000.0 ; intro line
G92 E0.0
M221 S95
M900 K45; Filament gcode
G21 ; set units to millimeters
G90 ; use absolute coordinates
M83 ; use relative distances for extrusion
;BEFORE_LAYER_CHANGE
G92 E0.0
;0.4


G1 E-0.80000 F2100.00000
G1 Z0.600 F10800.000
;AFTER_LAYER_CHANGE
;0.4
G1 X25.791 Y40.542
G1 Z0.400
G1 E0.80000 F2100.00000
M204 S20
G1 F1800
G1 X26.986 Y40.368 E0.11330
G1 X223.005 Y40.368 E18.39051
G1 X223.833 Y40.450 E0.07806
G1 X224.625 Y40.688 E0.07758
G1 X225.356 Y41.074 E0.07758
G1 X226.003 Y41.597 E0.07806
G1 X226.534 Y42.232 E0.07758
G1 X226.935 Y42.961 E0.07806
G1 X227.186 Y43.748 E0.07758
G1 X227.281 Y44.575 E0.07806
G1 X227.282 Y165.416 E11.33737
G1 X227.137 Y166.457 E0.09856
G1 X226.740 Y167.435 E0.09903
G1 X226.116 Y168.287 E0.09903
G1 X225.303 Y168.960 E0.09903
G1 X224.209 Y169.458 E0.11282
G1 X223.014 Y169.632 E0.11330
G1 X26.974 Y169.632 E18.39243
G1 X25.923 Y169.494 E0.09951
G1 X24.933 Y169.100 E0.09998
G1 X24.071 Y168.473 E0.09998
G1 X23.390 Y167.653 E0.09998
G1 X22.894 Y166.564 E0.11235
G1 X22.718 Y165.374 E0.11282
G1 X22.718 Y44.604 E11.33065
G1 X22.861 Y43.553 E0.09951
G1 X23.257 Y42.569 E0.09951
G1 X23.884 Y41.713 E0.09951
G1 X24.697 Y41.040 E0.09903
G1 X25.709 Y40.579 E0.10438
M204 S1000
; PURGING FINISHED
G1 F8640
G1 X26.986 Y40.368 E-0.29885
G1 X28.983 Y40.368 E-0.46115
G1 E-0.04000 F2100.00000
G1 Z1.000 F10800.000
G1 X33.575 Y74.400
G1 Z0.400
G1 E0.80000 F2100.00000
M204 S20
G1 F1800
G1 X221.425 Y74.400 E17.62410
G1 X221.425 Y135.600 E5.74179
G1 X33.575 Y135.600 E17.62410
G1 X33.575 Y74.490 E5.73334
M204 S1000
G1 X33.331 Y73.852 F10800.000
G1 X33.011 Y73.836
M204 S20
G1 F1800
G1 X33.011 Y136.164 E5.84765
G1 X222.011 Y136.164 E17.73199
G1 X222.011 Y164.361 E2.64542
G1 X27.989 Y164.361 E18.20313
M73 Q0 S461
M73 P0 R459
G1 X27.989 Y45.639 E11.13848
G1 X222.011 Y45.639 E18.20313
G1 X222.011 Y73.836 E2.64541
G1 X33.101 Y73.836 E17.72355
M204 S1000
G1 F8640
G1 X33.096 Y77.127 E-0.76000
G1 E-0.04000 F2100.00000
G1 Z1.000 F10800.000
G1 X27.425 Y45.075
G1 Z0.400
G1 E0.80000 F2100.00000
M204 S20
G1 F1800
G1 X222.575 Y45.075 E18.30899
G1 X222.575 Y164.925 E11.24433
G1 X27.425 Y164.925 E18.30899
G1 X27.425 Y45.165 E11.23589
M204 S1000
G1 X28.015 Y45.185 F10800.000
G1 F8640
G1 X30.716 Y45.163 E-0.76000
G1 E-0.04000 F2100.00000
G1 Z1.000 F10800.000
G1 X28.158 Y163.050
G1 Z0.400
G1 E0.80000 F2100.00000
M204 S20
G1 F1800
G1 X29.046 Y163.938 E0.11787
G1 X29.845 Y163.938 E0.07496
G1 X28.412 Y162.505 E0.19018
G1 X28.412 Y161.707 E0.07496
G1 X30.643 Y163.938 E0.29619
G1 X31.441 Y163.938 E0.07496
G1 X28.412 Y160.909 E0.40220
G1 X28.412 Y160.110 E0.07496
G1 X32.240 Y163.938 E0.50821
G1 X33.038 Y163.938 E0.07496
G1 X28.412 Y159.312 E0.61422
G1 X28.412 Y158.513 E0.07496
G1 X33.837 Y163.938 E0.72023
G1 X34.635 Y163.938 E0.07496
G1 X28.412 Y157.715 E0.82624
G1 X28.412 Y156.917 E0.07496
G1 X35.433 Y163.938 E0.93225
G1 X36.232 Y163.938 E0.07496
G1 X28.412 Y156.118 E1.03826
G1 X28.412 Y155.320 E0.07496
G1 X37.030 Y163.938 E1.14427
G1 X37.829 Y163.938 E0.07496
G1 X28.412 Y154.521 E1.25028
G1 X28.412 Y153.723 E0.07496
G1 X38.627 Y163.938 E1.35629
G1 X39.425 Y163.938 E0.07496
G1 X28.412 Y152.925 E1.46230
G1 X28.412 Y152.126 E0.07496
G1 X40.224 Y163.938 E1.56831
G1 X41.022 Y163.938 E0.07496
G1 X28.412 Y151.328 E1.67432
M73 Q0 S460
M73 P0 R458
G1 X28.412 Y150.529 E0.07496
G1 X41.821 Y163.938 E1.78033
G1 X42.619 Y163.938 E0.07496
G1 X28.412 Y149.731 E1.88634
G1 X28.412 Y148.932 E0.07496
G1 X43.418 Y163.938 E1.99235
G1 X44.216 Y163.938 E0.07496
G1 X28.412 Y148.134 E2.09836
G1 X28.412 Y147.336 E0.07496
G1 X45.014 Y163.938 E2.20437
G1 X45.813 Y163.938 E0.07496
G1 X28.412 Y146.537 E2.31038
G1 X28.412 Y145.739 E0.07496
G1 X46.611 Y163.938 E2.41639
G1 X47.410 Y163.938 E0.07496
G1 X28.412 Y144.940 E2.52240
G1 X28.412 Y144.142 E0.07496
G1 X48.208 Y163.938 E2.62841
G1 X49.006 Y163.938 E0.07496
G1 X28.412 Y143.344 E2.73442
G1 X28.412 Y142.545 E0.07496
G1 X49.805 Y163.938 E2.84043
G1 X50.603 Y163.938 E0.07496
G1 X28.412 Y141.747 E2.94644
G1 X28.412 Y140.948 E0.07496
G1 X51.402 Y163.938 E3.05245
G1 X52.200 Y163.938 E0.07496
G1 X28.412 Y140.150 E3.15846
G1 X28.412 Y139.352 E0.07496
G1 X52.998 Y163.938 E3.26447
G1 X53.797 Y163.938 E0.07496
G1 X28.412 Y138.553 E3.37048
G1 X28.412 Y137.755 E0.07496
G1 X54.595 Y163.938 E3.47649
G1 X55.394 Y163.938 E0.07496
G1 X28.412 Y136.956 E3.58250
G1 X28.412 Y136.158 E0.07496
G1 X56.192 Y163.938 E3.68851
G1 X56.991 Y163.938 E0.07496
G1 X28.412 Y135.359 E3.79452
G1 X28.412 Y134.561 E0.07496
G1 X57.789 Y163.938 E3.90053
G1 X58.587 Y163.938 E0.07496
G1 X28.412 Y133.763 E4.00654
G1 X28.412 Y132.964 E0.07496
G1 X59.640 Y164.192 E4.14626
M204 S1000
G1 F8640
G1 X57.312 Y161.864 E-0.76000
G1 E-0.04000 F2100.00000
G1 Z1.000 F10800.000
G1 X221.842 Y137.170
G1 Z0.400
G1 E0.80000 F2100.00000
M204 S20
G1 F1800
G1 X221.259 Y136.587 E0.07739
G1 X220.460 Y136.587 E0.07496
G1 X221.588 Y137.715 E0.14969
G1 X221.588 Y138.513 E0.07496
G1 X219.662 Y136.587 E0.25570
G1 X218.864 Y136.587 E0.07496
G1 X221.588 Y139.311 E0.36171
G1 X221.588 Y140.110 E0.07496
G1 X218.065 Y136.587 E0.46773
G1 X217.267 Y136.587 E0.07496
G1 X221.588 Y140.908 E0.57374
G1 X221.588 Y141.707 E0.07496
G1 X216.468 Y136.587 E0.67975
G1 X215.670 Y136.587 E0.07496
G1 X221.588 Y142.505 E0.78576
G1 X221.588 Y143.304 E0.07496
G1 X214.871 Y136.587 E0.89177
G1 X214.073 Y136.587 E0.07496
G1 X221.588 Y144.102 E0.99778
G1 X221.588 Y144.900 E0.07496
G1 X213.275 Y136.587 E1.10379
G1 X212.476 Y136.587 E0.07496
G1 X221.588 Y145.699 E1.20980
G1 X221.588 Y146.497 E0.07496
G1 X211.678 Y136.587 E1.31581
G1 X210.879 Y136.587 E0.07496
G1 X221.588 Y147.296 E1.42182
G1 X221.588 Y148.094 E0.07496
G1 X210.081 Y136.587 E1.52783
G1 X209.283 Y136.587 E0.07496
G1 X221.588 Y148.892 E1.63384
G1 X221.588 Y149.691 E0.07496
G1 X208.484 Y136.587 E1.73985
G1 X207.686 Y136.587 E0.07496
G1 X221.588 Y150.489 E1.84586
G1 X221.588 Y151.288 E0.07496
M73 Q0 S459
G1 X206.887 Y136.587 E1.95187
M73 P0 R457
G1 X206.089 Y136.587 E0.07496
G1 X221.588 Y152.086 E2.05788
G1 X221.588 Y152.884 E0.07496
G1 X205.291 Y136.587 E2.16389
G1 X204.492 Y136.587 E0.07496
G1 X221.588 Y153.683 E2.26990
G1 X221.588 Y154.481 E0.07496
G1 X203.694 Y136.587 E2.37591
G1 X202.895 Y136.587 E0.07496
G1 X221.588 Y155.280 E2.48192
G1 X221.588 Y156.078 E0.07496
G1 X202.097 Y136.587 E2.58793
G1 X201.298 Y136.587 E0.07496
G1 X221.588 Y156.877 E2.69394
G1 X221.588 Y157.675 E0.07496
G1 X200.500 Y136.587 E2.79995
G1 X199.702 Y136.587 E0.07496
G1 X221.588 Y158.473 E2.90596
G1 X221.588 Y159.272 E0.07496
G1 X198.903 Y136.587 E3.01197
G1 X198.105 Y136.587 E0.07496
G1 X221.588 Y160.070 E3.11798
G1 X221.588 Y160.869 E0.07496
G1 X197.306 Y136.587 E3.22399
G1 X196.508 Y136.587 E0.07496
G1 X221.588 Y161.667 E3.33000
G1 X221.588 Y162.465 E0.07496
G1 X195.710 Y136.587 E3.43601
G1 X194.911 Y136.587 E0.07496
G1 X221.588 Y163.264 E3.54202
G1 X221.588 Y163.938 E0.06327
G1 X221.463 Y163.938 E0.01169
G1 X194.113 Y136.587 E3.63150
G1 X193.314 Y136.587 E0.07496
G1 X220.665 Y163.938 E3.63150
G1 X219.866 Y163.938 E0.07496
G1 X192.516 Y136.587 E3.63150
G1 X191.718 Y136.587 E0.07496
G1 X219.068 Y163.938 E3.63150
G1 X218.270 Y163.938 E0.07496
G1 X190.919 Y136.587 E3.63150
G1 X190.121 Y136.587 E0.07496
G1 X217.471 Y163.938 E3.63150
G1 X216.673 Y163.938 E0.07496
G1 X189.322 Y136.587 E3.63150
G1 X188.524 Y136.587 E0.07496
G1 X215.874 Y163.938 E3.63150
G1 X215.076 Y163.938 E0.07496
G1 X187.725 Y136.587 E3.63150
G1 X186.927 Y136.587 E0.07496
G1 X214.278 Y163.938 E3.63150
G1 X213.479 Y163.938 E0.07496
G1 X186.129 Y136.587 E3.63150
G1 X185.330 Y136.587 E0.07496
G1 X212.681 Y163.938 E3.63150
G1 X211.882 Y163.938 E0.07496
G1 X184.532 Y136.587 E3.63150
G1 X183.733 Y136.587 E0.07496
G1 X211.084 Y163.938 E3.63150
G1 X210.285 Y163.938 E0.07496
G1 X182.935 Y136.587 E3.63150
G1 X182.137 Y136.587 E0.07496
G1 X209.487 Y163.938 E3.63150
M73 Q0 S458
M73 P0 R456
G1 X208.689 Y163.938 E0.07496
G1 X181.338 Y136.587 E3.63150
G1 X180.540 Y136.587 E0.07496
G1 X207.890 Y163.938 E3.63150
G1 X207.092 Y163.938 E0.07496
G1 X179.741 Y136.587 E3.63150
G1 X178.943 Y136.587 E0.07496
G1 X206.293 Y163.938 E3.63150
G1 X205.495 Y163.938 E0.07496
G1 X178.145 Y136.587 E3.63150
G1 X177.346 Y136.587 E0.07496
G1 X204.697 Y163.938 E3.63150
G1 X203.898 Y163.938 E0.07496
G1 X176.548 Y136.587 E3.63150
G1 X175.749 Y136.587 E0.07496
G1 X203.100 Y163.938 E3.63150
G1 X202.301 Y163.938 E0.07496
G1 X174.951 Y136.587 E3.63150
G1 X174.152 Y136.587 E0.07496
G1 X201.503 Y163.938 E3.63150
G1 X200.705 Y163.938 E0.07496
G1 X173.354 Y136.587 E3.63150
G1 X172.556 Y136.587 E0.07496
G1 X199.906 Y163.938 E3.63150
G1 X199.108 Y163.938 E0.07496
G1 X171.757 Y136.587 E3.63150
G1 X170.959 Y136.587 E0.07496
G1 X198.309 Y163.938 E3.63150
G1 X197.511 Y163.938 E0.07496
G1 X170.160 Y136.587 E3.63150
G1 X169.362 Y136.587 E0.07496
G1 X196.713 Y163.938 E3.63150
G1 X195.914 Y163.938 E0.07496
G1 X168.564 Y136.587 E3.63150
G1 X167.765 Y136.587 E0.07496
G1 X195.116 Y163.938 E3.63150
G1 X194.317 Y163.938 E0.07496
G1 X166.967 Y136.587 E3.63150
G1 X166.168 Y136.587 E0.07496
G1 X193.519 Y163.938 E3.63150
G1 X192.720 Y163.938 E0.07496
G1 X165.370 Y136.587 E3.63150
G1 X164.572 Y136.587 E0.07496
G1 X191.922 Y163.938 E3.63150
G1 X191.124 Y163.938 E0.07496
G1 X163.773 Y136.587 E3.63150
G1 X162.975 Y136.587 E0.07496
G1 X190.325 Y163.938 E3.63150
G1 X189.527 Y163.938 E0.07496
G1 X162.176 Y136.587 E3.63150
G1 X161.378 Y136.587 E0.07496
G1 X188.728 Y163.938 E3.63150
G1 X187.930 Y163.938 E0.07496
G1 X160.579 Y136.587 E3.63150
G1 X159.781 Y136.587 E0.07496
G1 X187.132 Y163.938 E3.63150
G1 X186.333 Y163.938 E0.07496
G1 X158.983 Y136.587 E3.63150
M73 Q1 S457
M73 P1 R455
G1 X158.184 Y136.587 E0.07496
G1 X185.535 Y163.938 E3.63150
G1 X184.736 Y163.938 E0.07496
G1 X157.386 Y136.587 E3.63150
G1 X156.587 Y136.587 E0.07496
G1 X183.938 Y163.938 E3.63150
G1 X183.140 Y163.938 E0.07496
G1 X155.789 Y136.587 E3.63150
G1 X154.991 Y136.587 E0.07496
G1 X182.341 Y163.938 E3.63150
G1 X181.543 Y163.938 E0.07496
G1 X154.192 Y136.587 E3.63150
G1 X153.394 Y136.587 E0.07496
G1 X180.744 Y163.938 E3.63150
G1 X179.946 Y163.938 E0.07496
G1 X152.595 Y136.587 E3.63150
G1 X151.797 Y136.587 E0.07496
G1 X179.147 Y163.938 E3.63150
G1 X178.349 Y163.938 E0.07496
G1 X150.999 Y136.587 E3.63150
G1 X150.200 Y136.587 E0.07496
G1 X177.551 Y163.938 E3.63150
G1 X176.752 Y163.938 E0.07496
G1 X149.402 Y136.587 E3.63150
G1 X148.603 Y136.587 E0.07496
G1 X175.954 Y163.938 E3.63150
G1 X175.155 Y163.938 E0.07496
G1 X147.805 Y136.587 E3.63150
G1 X147.006 Y136.587 E0.07496
G1 X174.357 Y163.938 E3.63150
G1 X173.559 Y163.938 E0.07496
G1 X146.208 Y136.587 E3.63150
G1 X145.410 Y136.587 E0.07496
G1 X172.760 Y163.938 E3.63150
G1 X171.962 Y163.938 E0.07496
G1 X144.611 Y136.587 E3.63150
G1 X143.813 Y136.587 E0.07496
G1 X171.163 Y163.938 E3.63150
G1 X170.365 Y163.938 E0.07496
G1 X143.014 Y136.587 E3.63150
G1 X142.216 Y136.587 E0.07496
G1 X169.567 Y163.938 E3.63150
G1 X168.768 Y163.938 E0.07496
G1 X141.418 Y136.587 E3.63150
G1 X140.619 Y136.587 E0.07496
G1 X167.970 Y163.938 E3.63150
G1 X167.171 Y163.938 E0.07496
G1 X139.821 Y136.587 E3.63150
G1 X139.022 Y136.587 E0.07496
G1 X166.373 Y163.938 E3.63150
G1 X165.574 Y163.938 E0.07496
G1 X138.224 Y136.587 E3.63150
G1 X137.426 Y136.587 E0.07496
G1 X164.776 Y163.938 E3.63150
G1 X163.978 Y163.938 E0.07496
G1 X136.627 Y136.587 E3.63150
G1 X135.829 Y136.587 E0.07496
G1 X163.179 Y163.938 E3.63150
M73 Q1 S456
M73 P1 R454
G1 X162.381 Y163.938 E0.07496
G1 X135.030 Y136.587 E3.63150
G1 X134.232 Y136.587 E0.07496
G1 X161.582 Y163.938 E3.63150
G1 X160.784 Y163.938 E0.07496
G1 X133.433 Y136.587 E3.63150
G1 X132.635 Y136.587 E0.07496
G1 X159.986 Y163.938 E3.63150
G1 X159.187 Y163.938 E0.07496
G1 X131.837 Y136.587 E3.63150
G1 X131.038 Y136.587 E0.07496
G1 X158.389 Y163.938 E3.63150
G1 X157.590 Y163.938 E0.07496
G1 X130.240 Y136.587 E3.63150
G1 X129.441 Y136.587 E0.07496
G1 X156.792 Y163.938 E3.63150
G1 X155.994 Y163.938 E0.07496
G1 X128.643 Y136.587 E3.63150
G1 X127.845 Y136.587 E0.07496
G1 X155.195 Y163.938 E3.63150
G1 X154.397 Y163.938 E0.07496
G1 X127.046 Y136.587 E3.63150
G1 X126.248 Y136.587 E0.07496
G1 X153.598 Y163.938 E3.63150
G1 X152.800 Y163.938 E0.07496
G1 X125.449 Y136.587 E3.63150
G1 X124.651 Y136.587 E0.07496
G1 X152.001 Y163.938 E3.63150
G1 X151.203 Y163.938 E0.07496
G1 X123.853 Y136.587 E3.63150
G1 X123.054 Y136.587 E0.07496
G1 X150.405 Y163.938 E3.63150
G1 X149.606 Y163.938 E0.07496
G1 X122.256 Y136.587 E3.63150
G1 X121.457 Y136.587 E0.07496
G1 X148.808 Y163.938 E3.63150
G1 X148.009 Y163.938 E0.07496
G1 X120.659 Y136.587 E3.63150
G1 X119.861 Y136.587 E0.07496
G1 X147.211 Y163.938 E3.63150
G1 X146.413 Y163.938 E0.07496
G1 X119.062 Y136.587 E3.63150
G1 X118.264 Y136.587 E0.07496
G1 X145.614 Y163.938 E3.63150
G1 X144.816 Y163.938 E0.07496
G1 X117.465 Y136.587 E3.63150
G1 X116.667 Y136.587 E0.07496
G1 X144.017 Y163.938 E3.63150
G1 X143.219 Y163.938 E0.07496
G1 X115.868 Y136.587 E3.63150
G1 X115.070 Y136.587 E0.07496
G1 X142.421 Y163.938 E3.63150
G1 X141.622 Y163.938 E0.07496
G1 X114.272 Y136.587 E3.63150
G1 X113.473 Y136.587 E0.07496
G1 X140.824 Y163.938 E3.63150
G1 X140.025 Y163.938 E0.07496
G1 X112.675 Y136.587 E3.63150
M73 Q1 S455
M73 P1 R453
G1 X111.876 Y136.587 E0.07496
G1 X139.227 Y163.938 E3.63150
G1 X138.428 Y163.938 E0.07496
G1 X111.078 Y136.587 E3.63150
G1 X110.280 Y136.587 E0.07496
G1 X137.630 Y163.938 E3.63150
G1 X136.832 Y163.938 E0.07496
G1 X109.481 Y136.587 E3.63150
G1 X108.683 Y136.587 E0.07496
G1 X136.033 Y163.938 E3.63150
G1 X135.235 Y163.938 E0.07496
G1 X107.884 Y136.587 E3.63150
G1 X107.086 Y136.587 E0.07496
G1 X134.436 Y163.938 E3.63150
G1 X133.638 Y163.938 E0.07496
G1 X106.288 Y136.587 E3.63150
G1 X105.489 Y136.587 E0.07496
G1 X132.840 Y163.938 E3.63150
G1 X132.041 Y163.938 E0.07496
G1 X104.691 Y136.587 E3.63150
G1 X103.892 Y136.587 E0.07496
G1 X131.243 Y163.938 E3.63150
G1 X130.444 Y163.938 E0.07496
G1 X103.094 Y136.587 E3.63150
G1 X102.295 Y136.587 E0.07496
G1 X129.646 Y163.938 E3.63150
G1 X128.848 Y163.938 E0.07496
G1 X101.497 Y136.587 E3.63150
G1 X100.699 Y136.587 E0.07496
G1 X128.049 Y163.938 E3.63150
G1 X127.251 Y163.938 E0.07496
G1 X99.900 Y136.587 E3.63150
G1 X99.102 Y136.587 E0.07496
G1 X126.452 Y163.938 E3.63150
G1 X125.654 Y163.938 E0.07496
G1 X98.303 Y136.587 E3.63150
G1 X97.505 Y136.587 E0.07496
G1 X124.855 Y163.938 E3.63150
G1 X124.057 Y163.938 E0.07496
G1 X96.707 Y136.587 E3.63150
G1 X95.908 Y136.587 E0.07496
G1 X123.259 Y163.938 E3.63150
G1 X122.460 Y163.938 E0.07496
G1 X95.110 Y136.587 E3.63150
G1 X94.311 Y136.587 E0.07496
G1 X121.662 Y163.938 E3.63150
G1 X120.863 Y163.938 E0.07496
G1 X93.513 Y136.587 E3.63150
G1 X92.715 Y136.587 E0.07496
G1 X120.065 Y163.938 E3.63150
G1 X119.267 Y163.938 E0.07496
G1 X91.916 Y136.587 E3.63150
G1 X91.118 Y136.587 E0.07496
G1 X118.468 Y163.938 E3.63150
G1 X117.670 Y163.938 E0.07496
G1 X90.319 Y136.587 E3.63150
G1 X89.521 Y136.587 E0.07496
G1 X116.871 Y163.938 E3.63150
M73 Q1 S454
M73 P1 R452
G1 X116.073 Y163.938 E0.07496
