; generated by Slic3r Prusa Edition 1.41.0+win64 on 2018-10-04 at 19:05:59

; 

; external perimeters extrusion width = 0.45mm
; perimeters extrusion width = 0.45mm
; infill extrusion width = 0.45mm
; solid infill extrusion width = 0.45mm
; top infill extrusion width = 0.40mm
; first layer extrusion width = 0.42mm

M201 X1000 Y1000 Z1000 E5000 ; sets maximum accelerations, mm/sec^2
M203 X200 Y200 Z12 E120 ; sets maximum feedrates, mm/sec
M204 P1250 R1250 T1250 ; sets acceleration (P, T) and retract acceleration (R), mm/sec^2
M205 X8.00 Y8.00 Z0.40 E1.50 ; sets the jerk limits, mm/sec
M205 S0 T0 ; sets the minimum extruding and travel feed rate, mm/sec
M107
M115 U3.4.0 ; tell printer latest fw version
M83  ; extruder relative mode
M104 S250 ; set extruder temp
M140 S85 ; set bed temp
M190 S85 ; wait for bed temp
M109 S250 ; wait for extruder temp
G28 W ; home all without mesh bed level
G80 ; mesh bed leveling
G1 Y-3.0 F1000.0 ; go outside print area
G92 E0.0
G1 X60.0 E9.0  F1000.0 ; intro line
M73 Q0 S209
M73 P0 R208
G1 X100.0 E12.5  F1000.0 ; intro line
G92 E0.0
M221 S95
M900 K45; Filament gcode
G21 ; set units to millimeters
G90 ; use absolute coordinates
M83 ; use relative distances for extrusion
;BEFORE_LAYER_CHANGE
G92 E0.0
;0.3


G1 E-0.80000 F2100.00000
G1 Z0.600 F10800.000
;AFTER_LAYER_CHANGE
;0.3
G1 X60.901 Y77.974
G1 Z0.300
G1 E0.80000 F2100.00000
M204 S20
G1 F1800
G1 X61.994 Y77.320 E0.05651
G1 X62.847 Y77.057 E0.03960
G1 X63.735 Y76.967 E0.03960
G1 X186.255 Y76.967 E5.43434
G1 X187.123 Y77.051 E0.03867
G1 X187.954 Y77.299 E0.03844
G1 X188.726 Y77.703 E0.03867
G1 X189.407 Y78.247 E0.03867
G1 X189.969 Y78.907 E0.03844
G1 X190.396 Y79.667 E0.03867
G1 X190.671 Y80.494 E0.03867
G1 X190.781 Y81.359 E0.03867
G1 X190.777 Y128.742 E2.10165
G1 X190.534 Y129.982 E0.05605
G1 X189.959 Y131.107 E0.05605
G1 X189.095 Y132.029 E0.05605
G1 X188.006 Y132.680 E0.05628
G1 X187.153 Y132.943 E0.03960
G1 X186.265 Y133.033 E0.03960
G1 X63.666 Y133.033 E5.43784
G1 X62.378 Y132.821 E0.05789
G1 X61.208 Y132.254 E0.05766
G1 X60.244 Y131.374 E0.05789
G1 X59.570 Y130.256 E0.05789
G1 X59.309 Y129.413 E0.03914
G1 X59.217 Y128.530 E0.03937
G1 X59.221 Y81.295 E2.09512
G1 X59.457 Y80.043 E0.05651
G1 X60.032 Y78.906 E0.05651
G1 X60.860 Y78.018 E0.05385
M204 S1000
G1 X61.118 Y78.258 F10800.000
M204 S20
G1 F1800
G1 X62.139 Y77.645 E0.05282
G1 X62.919 Y77.406 E0.03623
G1 X63.737 Y77.322 E0.03645
G1 X186.255 Y77.322 E5.43427
G1 X187.053 Y77.400 E0.03556
G1 X187.821 Y77.629 E0.03556
G1 X188.532 Y78.000 E0.03556
G1 X189.162 Y78.504 E0.03578
G1 X189.680 Y79.115 E0.03556
G1 X190.073 Y79.814 E0.03556
G1 X190.324 Y80.576 E0.03556
G1 X190.426 Y81.376 E0.03578
G1 X190.423 Y128.707 E2.09936
G1 X190.202 Y129.854 E0.05179
G1 X189.671 Y130.899 E0.05201
G1 X188.869 Y131.755 E0.05201
G1 X187.861 Y132.355 E0.05201
G1 X187.081 Y132.594 E0.03623
G1 X186.263 Y132.678 E0.03645
G1 X63.679 Y132.677 E5.43718
G1 X62.492 Y132.484 E0.05334
G1 X61.405 Y131.958 E0.05357
G1 X60.517 Y131.147 E0.05334
G1 X59.895 Y130.111 E0.05357
G1 X59.657 Y129.336 E0.03600
G1 X59.572 Y128.528 E0.03600
G1 X59.576 Y81.323 E2.09376
G1 X59.791 Y80.165 E0.05224
G1 X60.321 Y79.114 E0.05224
G1 X61.077 Y78.302 E0.04919
M204 S1000
; PURGING FINISHED
G1 F8640
G1 X62.139 Y77.645 E-0.28830
G1 X62.919 Y77.406 E-0.18859
G1 X63.737 Y77.322 E-0.18975
G1 X64.141 Y77.322 E-0.09336
G1 E-0.04000 F2100.00000
G1 Z0.900 F10800.000
G1 X93.709 Y87.834
G1 Z0.300
G1 E0.80000 F2100.00000
M204 S20
G1 F1800
G1 X156.291 Y87.834 E2.77578
G1 X156.291 Y127.166 E1.74453
G1 X93.709 Y127.166 E2.77578
G1 X93.709 Y87.894 E1.74187
M204 S1000
G1 X94.065 Y88.190 F10800.000
M204 S20
G1 F1800
G1 X155.935 Y88.190 E2.74423
G1 X155.935 Y126.810 E1.71298
G1 X94.065 Y126.810 E2.74423
G1 X94.065 Y88.250 E1.71032
M204 S1000
G1 X93.933 Y87.813 F10800.000
G1 F8640
G1 X97.356 Y88.247 E-0.76000
G1 E-0.04000 F2100.00000
G1 Z0.900 F10800.000
G1 X64.416 Y82.166
G1 Z0.300
G1 E0.80000 F2100.00000
M204 S20
G1 F1800
G1 X185.584 Y82.166 E5.37442
G1 X185.584 Y127.834 E2.02563
G1 X64.416 Y127.834 E5.37442
M73 Q0 S208
M73 P0 R207
G1 X64.416 Y82.226 E2.02297
M204 S1000
G1 X64.060 Y81.810 F10800.000
M204 S20
G1 F1800
G1 X185.940 Y81.810 E5.40597
G1 X185.940 Y128.190 E2.05718
G1 X64.060 Y128.190 E5.40597
G1 X64.060 Y81.870 E2.05452
M204 S1000
G1 X64.457 Y81.858 F10800.000
G1 F8640
G1 X67.351 Y81.868 E-0.76000
G1 E-0.04000 F2100.00000
G1 Z0.900 F10800.000
G1 X64.522 Y127.009
G1 Z0.300
G1 E0.80000 F2100.00000
M204 S20
G1 F1800
G1 X65.081 Y127.568 E0.03506
G1 X65.584 Y127.568 E0.02231
G1 X64.682 Y126.666 E0.05657
G1 X64.682 Y126.163 E0.02231
G1 X66.087 Y127.568 E0.08813
G1 X66.590 Y127.568 E0.02231
G1 X64.682 Y125.660 E0.11968
G1 X64.682 Y125.157 E0.02231
G1 X67.093 Y127.568 E0.15123
G1 X67.596 Y127.568 E0.02231
G1 X64.682 Y124.654 E0.18278
G1 X64.682 Y124.151 E0.02231
G1 X68.099 Y127.568 E0.21434
G1 X68.602 Y127.568 E0.02231
G1 X64.682 Y123.648 E0.24589
G1 X64.682 Y123.145 E0.02231
G1 X69.105 Y127.568 E0.27744
G1 X69.608 Y127.568 E0.02231
G1 X64.682 Y122.642 E0.30899
G1 X64.682 Y122.139 E0.02231
G1 X70.111 Y127.568 E0.34055
G1 X70.614 Y127.568 E0.02231
G1 X64.682 Y121.636 E0.37210
G1 X64.682 Y121.133 E0.02231
G1 X71.117 Y127.568 E0.40365
G1 X71.620 Y127.568 E0.02231
G1 X64.682 Y120.630 E0.43520
G1 X64.682 Y120.127 E0.02231
G1 X72.123 Y127.568 E0.46676
G1 X72.626 Y127.568 E0.02231
G1 X64.682 Y119.624 E0.49831
G1 X64.682 Y119.121 E0.02231
G1 X73.129 Y127.568 E0.52986
G1 X73.632 Y127.568 E0.02231
G1 X64.682 Y118.618 E0.56141
G1 X64.682 Y118.115 E0.02231
G1 X74.135 Y127.568 E0.59297
G1 X74.638 Y127.568 E0.02231
G1 X64.682 Y117.612 E0.62452
G1 X64.682 Y117.110 E0.02231
G1 X75.140 Y127.568 E0.65607
G1 X75.643 Y127.568 E0.02231
G1 X64.682 Y116.607 E0.68762
G1 X64.682 Y116.104 E0.02231
G1 X76.146 Y127.568 E0.71918
G1 X76.649 Y127.568 E0.02231
G1 X64.682 Y115.601 E0.75073
G1 X64.682 Y115.098 E0.02231
G1 X77.152 Y127.568 E0.78228
G1 X77.655 Y127.568 E0.02231
G1 X64.682 Y114.595 E0.81383
G1 X64.682 Y114.092 E0.02231
G1 X78.158 Y127.568 E0.84539
G1 X78.661 Y127.568 E0.02231
G1 X64.682 Y113.589 E0.87694
G1 X64.682 Y113.086 E0.02231
G1 X79.164 Y127.568 E0.90849
G1 X79.667 Y127.568 E0.02231
G1 X64.682 Y112.583 E0.94004
G1 X64.682 Y112.080 E0.02231
G1 X80.170 Y127.568 E0.97160
G1 X80.673 Y127.568 E0.02231
G1 X64.682 Y111.577 E1.00315
G1 X64.682 Y111.074 E0.02231
G1 X81.176 Y127.568 E1.03470
G1 X81.679 Y127.568 E0.02231
G1 X64.682 Y110.571 E1.06625
G1 X64.682 Y110.068 E0.02231
G1 X82.182 Y127.568 E1.09781
G1 X82.685 Y127.568 E0.02231
G1 X64.682 Y109.565 E1.12936
G1 X64.682 Y109.062 E0.02231
G1 X83.188 Y127.568 E1.16091
G1 X83.691 Y127.568 E0.02231
G1 X64.682 Y108.559 E1.19246
G1 X64.682 Y108.056 E0.02231
G1 X84.194 Y127.568 E1.22401
G1 X84.697 Y127.568 E0.02231
G1 X64.682 Y107.553 E1.25557
G1 X64.682 Y107.050 E0.02231
G1 X85.200 Y127.568 E1.28712
M73 Q1 S207
M73 P1 R206
G1 X85.703 Y127.568 E0.02231
G1 X64.682 Y106.547 E1.31867
G1 X64.682 Y106.044 E0.02231
G1 X86.206 Y127.568 E1.35022
G1 X86.709 Y127.568 E0.02231
G1 X64.682 Y105.541 E1.38178
G1 X64.682 Y105.038 E0.02231
G1 X87.212 Y127.568 E1.41333
G1 X87.715 Y127.568 E0.02231
G1 X64.682 Y104.535 E1.44488
G1 X64.682 Y104.032 E0.02231
G1 X88.218 Y127.568 E1.47643
G1 X88.721 Y127.568 E0.02231
G1 X64.682 Y103.529 E1.50799
G1 X64.682 Y103.026 E0.02231
G1 X89.224 Y127.568 E1.53954
G1 X89.727 Y127.568 E0.02231
G1 X64.682 Y102.523 E1.57109
G1 X64.682 Y102.021 E0.02231
G1 X90.229 Y127.568 E1.60264
G1 X90.732 Y127.568 E0.02231
G1 X64.682 Y101.518 E1.63420
G1 X64.682 Y101.015 E0.02231
G1 X91.235 Y127.568 E1.66575
G1 X91.738 Y127.568 E0.02231
G1 X64.682 Y100.512 E1.69730
G1 X64.682 Y100.009 E0.02231
G1 X92.241 Y127.568 E1.72885
G1 X92.744 Y127.568 E0.02231
G1 X64.682 Y99.506 E1.76041
G1 X64.682 Y99.003 E0.02231
G1 X93.265 Y127.568 E1.79251
G1 X93.265 Y127.082 E0.02153
G1 X64.682 Y98.500 E1.79306
G1 X64.682 Y97.997 E0.02231
G1 X93.443 Y126.757 E1.80422
G1 X93.443 Y126.254 E0.02231
G1 X64.682 Y97.494 E1.80422
G1 X64.682 Y96.991 E0.02231
G1 X93.443 Y125.751 E1.80422
G1 X93.443 Y125.248 E0.02231
G1 X64.682 Y96.488 E1.80422
G1 X64.682 Y95.985 E0.02231
G1 X93.443 Y124.745 E1.80422
G1 X93.443 Y124.242 E0.02231
G1 X64.682 Y95.482 E1.80422
G1 X64.682 Y94.979 E0.02231
G1 X93.443 Y123.739 E1.80422
G1 X93.443 Y123.236 E0.02231
G1 X64.682 Y94.476 E1.80422
G1 X64.682 Y93.973 E0.02231
G1 X93.443 Y122.733 E1.80422
G1 X93.443 Y122.230 E0.02231
G1 X64.682 Y93.470 E1.80422
G1 X64.682 Y92.967 E0.02231
G1 X93.443 Y121.727 E1.80422
G1 X93.443 Y121.225 E0.02231
G1 X64.682 Y92.464 E1.80422
G1 X64.682 Y91.961 E0.02231
G1 X93.443 Y120.722 E1.80422
M73 Q1 S206
M73 P1 R205
G1 X93.443 Y120.219 E0.02231
G1 X64.682 Y91.458 E1.80422
G1 X64.682 Y90.955 E0.02231
G1 X93.443 Y119.716 E1.80422
G1 X93.443 Y119.213 E0.02231
G1 X64.682 Y90.452 E1.80422
G1 X64.682 Y89.949 E0.02231
G1 X93.443 Y118.710 E1.80422
G1 X93.443 Y118.207 E0.02231
G1 X64.682 Y89.446 E1.80422
G1 X64.682 Y88.943 E0.02231
G1 X93.443 Y117.704 E1.80422
G1 X93.443 Y117.201 E0.02231
G1 X64.682 Y88.440 E1.80422
G1 X64.682 Y87.937 E0.02231
G1 X93.443 Y116.698 E1.80422
G1 X93.443 Y116.195 E0.02231
G1 X64.682 Y87.434 E1.80422
G1 X64.682 Y86.932 E0.02231
G1 X93.443 Y115.692 E1.80422
G1 X93.443 Y115.189 E0.02231
G1 X64.682 Y86.429 E1.80422
G1 X64.682 Y85.926 E0.02231
G1 X93.443 Y114.686 E1.80422
G1 X93.443 Y114.183 E0.02231
G1 X64.682 Y85.423 E1.80422
G1 X64.682 Y84.920 E0.02231
G1 X93.443 Y113.680 E1.80422
G1 X93.443 Y113.177 E0.02231
G1 X64.682 Y84.417 E1.80422
G1 X64.682 Y83.914 E0.02231
G1 X93.443 Y112.674 E1.80422
G1 X93.443 Y112.171 E0.02231
G1 X64.682 Y83.411 E1.80422
G1 X64.682 Y82.908 E0.02231
G1 X93.443 Y111.668 E1.80422
G1 X93.443 Y111.165 E0.02231
G1 X64.710 Y82.432 E1.80249
G1 X65.213 Y82.432 E0.02231
G1 X93.443 Y110.662 E1.77094
G1 X93.443 Y110.159 E0.02231
G1 X65.716 Y82.432 E1.73939
G1 X66.219 Y82.432 E0.02231
G1 X93.443 Y109.656 E1.70784
G1 X93.443 Y109.153 E0.02231
G1 X66.722 Y82.432 E1.67628
G1 X67.225 Y82.432 E0.02231
G1 X93.443 Y108.650 E1.64473
G1 X93.443 Y108.147 E0.02231
G1 X67.728 Y82.432 E1.61318
G1 X68.231 Y82.432 E0.02231
G1 X93.443 Y107.644 E1.58163
G1 X93.443 Y107.141 E0.02231
G1 X68.734 Y82.432 E1.55007
G1 X69.236 Y82.432 E0.02231
G1 X93.443 Y106.639 E1.51852
G1 X93.443 Y106.136 E0.02231
G1 X69.739 Y82.432 E1.48697
M73 Q1 S205
M73 P2 R204
G1 X70.242 Y82.432 E0.02231
G1 X93.443 Y105.633 E1.45542
G1 X93.443 Y105.130 E0.02231
G1 X70.745 Y82.432 E1.42386
G1 X71.248 Y82.432 E0.02231
G1 X93.443 Y104.627 E1.39231
G1 X93.443 Y104.124 E0.02231
G1 X71.751 Y82.432 E1.36076
G1 X72.254 Y82.432 E0.02231
G1 X93.443 Y103.621 E1.32921
G1 X93.443 Y103.118 E0.02231
G1 X72.757 Y82.432 E1.29765
G1 X73.260 Y82.432 E0.02231
G1 X93.443 Y102.615 E1.26610
G1 X93.443 Y102.112 E0.02231
G1 X73.763 Y82.432 E1.23455
G1 X74.266 Y82.432 E0.02231
G1 X93.443 Y101.609 E1.20300
G1 X93.443 Y101.106 E0.02231
G1 X74.769 Y82.432 E1.17144
G1 X75.272 Y82.432 E0.02231
G1 X93.443 Y100.603 E1.13989
G1 X93.443 Y100.100 E0.02231
G1 X75.775 Y82.432 E1.10834
G1 X76.278 Y82.432 E0.02231
G1 X93.443 Y99.597 E1.07679
G1 X93.443 Y99.094 E0.02231
G1 X76.781 Y82.432 E1.04523
G1 X77.284 Y82.432 E0.02231
G1 X93.443 Y98.591 E1.01368
G1 X93.443 Y98.088 E0.02231
G1 X77.787 Y82.432 E0.98213
G1 X78.290 Y82.432 E0.02231
G1 X93.443 Y97.585 E0.95058
G1 X93.443 Y97.082 E0.02231
G1 X78.793 Y82.432 E0.91902
G1 X79.296 Y82.432 E0.02231
G1 X93.443 Y96.579 E0.88747
G1 X93.443 Y96.076 E0.02231
G1 X79.799 Y82.432 E0.85592
G1 X80.302 Y82.432 E0.02231
G1 X93.443 Y95.573 E0.82437
G1 X93.443 Y95.070 E0.02231
G1 X80.805 Y82.432 E0.79281
G1 X81.308 Y82.432 E0.02231
G1 X93.443 Y94.567 E0.76126
G1 X93.443 Y94.064 E0.02231
G1 X81.811 Y82.432 E0.72971
G1 X82.314 Y82.432 E0.02231
G1 X93.443 Y93.561 E0.69816
G1 X93.443 Y93.058 E0.02231
G1 X82.817 Y82.432 E0.66660
G1 X83.320 Y82.432 E0.02231
G1 X93.443 Y92.555 E0.63505
G1 X93.443 Y92.052 E0.02231
G1 X83.823 Y82.432 E0.60350
G1 X84.325 Y82.432 E0.02231
G1 X93.443 Y91.550 E0.57195
G1 X93.443 Y91.047 E0.02231
G1 X84.828 Y82.432 E0.54039
G1 X85.331 Y82.432 E0.02231
G1 X93.443 Y90.544 E0.50884
G1 X93.443 Y90.041 E0.02231
G1 X85.834 Y82.432 E0.47729
G1 X86.337 Y82.432 E0.02231
G1 X93.443 Y89.538 E0.44574
G1 X93.443 Y89.035 E0.02231
G1 X86.840 Y82.432 E0.41418
G1 X87.343 Y82.432 E0.02231
G1 X93.443 Y88.532 E0.38263
G1 X93.443 Y88.029 E0.02231
G1 X87.846 Y82.432 E0.35108
G1 X88.349 Y82.432 E0.02231
G1 X93.485 Y87.568 E0.32216
G1 X93.988 Y87.568 E0.02231
G1 X88.852 Y82.432 E0.32216
G1 X89.355 Y82.432 E0.02231
G1 X94.491 Y87.568 E0.32216
G1 X94.994 Y87.568 E0.02231
G1 X89.858 Y82.432 E0.32216
G1 X90.361 Y82.432 E0.02231
G1 X95.496 Y87.568 E0.32216
G1 X95.999 Y87.568 E0.02231
G1 X90.864 Y82.432 E0.32216
G1 X91.367 Y82.432 E0.02231
G1 X96.502 Y87.568 E0.32216
G1 X97.005 Y87.568 E0.02231
G1 X91.870 Y82.432 E0.32216
G1 X92.373 Y82.432 E0.02231
G1 X97.508 Y87.568 E0.32216
G1 X98.011 Y87.568 E0.02231
G1 X92.876 Y82.432 E0.32216
G1 X93.379 Y82.432 E0.02231
G1 X98.514 Y87.568 E0.32216
G1 X99.017 Y87.568 E0.02231
G1 X93.882 Y82.432 E0.32216
G1 X94.385 Y82.432 E0.02231
G1 X99.520 Y87.568 E0.32216
G1 X100.023 Y87.568 E0.02231
G1 X94.888 Y82.432 E0.32216
G1 X95.391 Y82.432 E0.02231
G1 X100.526 Y87.568 E0.32216
G1 X101.029 Y87.568 E0.02231
G1 X95.894 Y82.432 E0.32216
G1 X96.397 Y82.432 E0.02231
G1 X101.532 Y87.568 E0.32216
G1 X102.035 Y87.568 E0.02231
G1 X96.900 Y82.432 E0.32216
G1 X97.403 Y82.432 E0.02231
G1 X102.538 Y87.568 E0.32216
G1 X103.041 Y87.568 E0.02231
G1 X97.906 Y82.432 E0.32216
M73 Q2 S204
M73 P2 R203
G1 X98.409 Y82.432 E0.02231
G1 X103.544 Y87.568 E0.32216
G1 X104.047 Y87.568 E0.02231
G1 X98.912 Y82.432 E0.32216
G1 X99.414 Y82.432 E0.02231
G1 X104.550 Y87.568 E0.32216
G1 X105.053 Y87.568 E0.02231
G1 X99.917 Y82.432 E0.32216
G1 X100.420 Y82.432 E0.02231
G1 X105.556 Y87.568 E0.32216
G1 X106.059 Y87.568 E0.02231
G1 X100.923 Y82.432 E0.32216
G1 X101.426 Y82.432 E0.02231
G1 X106.562 Y87.568 E0.32216
G1 X107.065 Y87.568 E0.02231
G1 X101.929 Y82.432 E0.32216
G1 X102.432 Y82.432 E0.02231
G1 X107.568 Y87.568 E0.32216
G1 X108.071 Y87.568 E0.02231
G1 X102.935 Y82.432 E0.32216
G1 X103.438 Y82.432 E0.02231
G1 X108.574 Y87.568 E0.32216
G1 X109.077 Y87.568 E0.02231
G1 X103.941 Y82.432 E0.32216
G1 X104.444 Y82.432 E0.02231
G1 X109.580 Y87.568 E0.32216
G1 X110.082 Y87.568 E0.02231
G1 X104.947 Y82.432 E0.32216
G1 X105.450 Y82.432 E0.02231
G1 X110.585 Y87.568 E0.32216
G1 X111.088 Y87.568 E0.02231
G1 X105.953 Y82.432 E0.32216
G1 X106.456 Y82.432 E0.02231
G1 X111.591 Y87.568 E0.32216
G1 X112.094 Y87.568 E0.02231
G1 X106.959 Y82.432 E0.32216
G1 X107.462 Y82.432 E0.02231
G1 X112.597 Y87.568 E0.32216
G1 X113.100 Y87.568 E0.02231
G1 X107.965 Y82.432 E0.32216
G1 X108.468 Y82.432 E0.02231
G1 X113.603 Y87.568 E0.32216
G1 X114.106 Y87.568 E0.02231
G1 X108.971 Y82.432 E0.32216
G1 X109.474 Y82.432 E0.02231
G1 X114.609 Y87.568 E0.32216
G1 X115.112 Y87.568 E0.02231
G1 X109.977 Y82.432 E0.32216
G1 X110.480 Y82.432 E0.02231
G1 X115.615 Y87.568 E0.32216
G1 X116.118 Y87.568 E0.02231
G1 X110.983 Y82.432 E0.32216
G1 X111.486 Y82.432 E0.02231
G1 X116.621 Y87.568 E0.32216
G1 X117.124 Y87.568 E0.02231
G1 X111.989 Y82.432 E0.32216
G1 X112.492 Y82.432 E0.02231
G1 X117.627 Y87.568 E0.32216
G1 X118.130 Y87.568 E0.02231
G1 X112.995 Y82.432 E0.32216
G1 X113.498 Y82.432 E0.02231
G1 X118.633 Y87.568 E0.32216
G1 X119.136 Y87.568 E0.02231
G1 X114.001 Y82.432 E0.32216
G1 X114.503 Y82.432 E0.02231
G1 X119.639 Y87.568 E0.32216
G1 X120.142 Y87.568 E0.02231
G1 X115.006 Y82.432 E0.32216
G1 X115.509 Y82.432 E0.02231
G1 X120.645 Y87.568 E0.32216
G1 X121.148 Y87.568 E0.02231
G1 X116.012 Y82.432 E0.32216
G1 X116.515 Y82.432 E0.02231
G1 X121.651 Y87.568 E0.32216
G1 X122.154 Y87.568 E0.02231
G1 X117.018 Y82.432 E0.32216
G1 X117.521 Y82.432 E0.02231
G1 X122.657 Y87.568 E0.32216
G1 X123.160 Y87.568 E0.02231
G1 X118.024 Y82.432 E0.32216
G1 X118.527 Y82.432 E0.02231
G1 X123.663 Y87.568 E0.32216
G1 X124.166 Y87.568 E0.02231
G1 X119.030 Y82.432 E0.32216
G1 X119.533 Y82.432 E0.02231
G1 X124.669 Y87.568 E0.32216
G1 X125.171 Y87.568 E0.02231
G1 X120.036 Y82.432 E0.32216
