; generated by Slic3r Prusa Edition 1.41.2 on 2019-04-02 at 10:11:00

; 

; external perimeters extrusion width = 0.45mm
; perimeters extrusion width = 0.45mm
; infill extrusion width = 0.45mm
; solid infill extrusion width = 0.45mm
; top infill extrusion width = 0.40mm
; first layer extrusion width = 0.42mm

M73 P0 R91
M73 Q0 S92
M201 X1000 Y1000 Z1000 E5000 ; sets maximum accelerations, mm/sec^2
M203 X200 Y200 Z12 E120 ; sets maximum feedrates, mm/sec
M204 P1250 R1250 T1250 ; sets acceleration (P, T) and retract acceleration (R), mm/sec^2
M205 X8.00 Y8.00 Z0.40 E1.50 ; sets the jerk limits, mm/sec
M205 S0 T0 ; sets the minimum extruding and travel feed rate, mm/sec
M107
M115 U3.4.0 ; tell printer latest fw version
M83  ; extruder relative mode
M104 S140 ; set extruder to warm-up temp
M140 S80 ; set bed temp
M190 S80 ; wait for bed temp
G28 W ; home all without mesh bed level
G80 ; mesh bed leveling
M104 S250 ; set extruder temp
M109 S250 ; wait for extruder temp
G1 Y-3.0 F1000.0 ; go outside print area
G92 E0.0
G1 X60.0 E9.0  F1000.0 ; intro line
M73 Q0 S92
M73 P0 R91
G1 X100.0 E12.5  F1000.0 ; intro line
G92 E0.0
M221 S95
M900 K45; Filament gcode
G21 ; set units to millimeters
G90 ; use absolute coordinates
M83 ; use relative distances for extrusion
;BEFORE_LAYER_CHANGE
G92 E0.0
;0.2


G1 E-0.80000 F2100.00000
G1 Z0.600 F10800.000
;AFTER_LAYER_CHANGE
;0.2
G1 X149.808 Y63.860
G1 Z0.200
G1 E0.80000 F2100.00000
M204 S20
G1 F1800
G1 X150.546 Y62.425 E0.05057
G1 X151.481 Y61.137 E0.04991
G1 X152.509 Y60.086 E0.04611
G1 X153.915 Y59.026 E0.05518
G1 X155.176 Y58.356 E0.04478
G1 X155.809 Y58.093 E0.02150
G1 X157.340 Y57.642 E0.05005
G1 X159.497 Y57.389 E0.06809
G1 X193.533 Y57.389 E1.06718
G1 X194.534 Y57.457 E0.03144
G1 X195.810 Y57.660 E0.04053
G1 X197.442 Y58.162 E0.05352
G1 X199.048 Y58.967 E0.05634
G1 X200.508 Y60.050 E0.05700
G1 X201.752 Y61.361 E0.05666
G1 X202.521 Y62.444 E0.04165
G1 X203.134 Y63.616 E0.04148
G1 X203.761 Y65.401 E0.05929
G1 X204.038 Y67.075 E0.05320
G1 X204.093 Y67.950 E0.02750
G1 X204.093 Y101.965 E1.06652
G1 X203.802 Y163.805 E1.93897
G1 X203.719 Y164.899 E0.03441
G1 X203.404 Y166.556 E0.05289
G1 X202.952 Y167.883 E0.04394
G1 X202.196 Y169.343 E0.05156
G1 X201.250 Y170.636 E0.05024
G1 X200.090 Y171.795 E0.05140
G1 X198.760 Y172.763 E0.05157
G1 X197.340 Y173.494 E0.05007
G1 X195.775 Y174.015 E0.05173
G1 X194.415 Y174.252 E0.04329
G1 X193.247 Y174.344 E0.03674
G1 X159.200 Y174.344 E1.06752
G1 X158.110 Y174.259 E0.03426
G1 X156.454 Y173.945 E0.05286
G1 X155.122 Y173.489 E0.04412
G1 X153.636 Y172.715 E0.05255
G1 X152.339 Y171.757 E0.05057
G1 X151.102 Y170.489 E0.05552
G1 X150.208 Y169.230 E0.04842
G1 X149.440 Y167.682 E0.05420
G1 X148.953 Y166.116 E0.05139
G1 X148.681 Y164.073 E0.06463
G1 X148.671 Y129.768 E1.07562
G1 X148.962 Y67.923 E1.93914
G1 X149.046 Y66.842 E0.03397
G1 X149.362 Y65.172 E0.05330
G1 X149.789 Y63.916 E0.04158
M204 S1000
G1 F8640
G1 X150.546 Y62.425 E-0.38614
G1 X151.481 Y61.137 E-0.36752
G1 X151.500 Y61.117 E-0.00634
G1 E-0.04000 F2100.00000
G1 Z0.800 F10800.000
G1 X157.421 Y58.011
G1 Z0.200
G1 E0.80000 F2100.00000
M204 S20
G1 F1800
G1 X159.498 Y57.766 E0.06556
G1 X193.533 Y57.766 E1.06716
G1 X195.739 Y58.030 E0.06966
G1 X197.307 Y58.514 E0.05144
G1 X198.850 Y59.288 E0.05414
G1 X200.253 Y60.328 E0.05477
G1 X201.450 Y61.587 E0.05444
G1 X202.199 Y62.641 E0.04054
G1 X202.798 Y63.787 E0.04054
G1 X203.398 Y65.507 E0.05713
G1 X203.664 Y67.121 E0.05129
G1 X203.716 Y67.950 E0.02604
G1 X203.716 Y101.965 E1.06652
G1 X203.425 Y163.803 E1.93892
G1 X203.345 Y164.847 E0.03283
G1 X203.043 Y166.449 E0.05112
G1 X202.607 Y167.730 E0.04242
G1 X201.876 Y169.143 E0.04988
G1 X200.964 Y170.391 E0.04846
G1 X199.842 Y171.511 E0.04972
G1 X198.559 Y172.444 E0.04973
G1 X197.185 Y173.150 E0.04845
G1 X195.675 Y173.651 E0.04988
G1 X194.341 Y173.881 E0.04243
G1 X193.247 Y173.967 E0.03441
G1 X159.206 Y173.967 E1.06732
G1 X158.167 Y173.887 E0.03267
G1 X156.566 Y173.584 E0.05110
G1 X155.275 Y173.145 E0.04275
G1 X153.842 Y172.399 E0.05067
G1 X152.590 Y171.476 E0.04877
G1 X151.398 Y170.254 E0.05351
G1 X150.534 Y169.040 E0.04671
G1 X149.791 Y167.544 E0.05240
G1 X149.321 Y166.034 E0.04956
G1 X149.056 Y164.041 E0.06304
G1 X149.048 Y129.768 E1.07461
G1 X149.339 Y67.925 E1.93908
G1 X149.418 Y66.899 E0.03224
G1 X149.722 Y65.284 E0.05154
G1 X150.153 Y64.012 E0.04212
G1 X150.864 Y62.628 E0.04877
G1 X151.771 Y61.377 E0.04845
G1 X152.765 Y60.363 E0.04450
G1 X154.128 Y59.337 E0.05350
G1 X155.351 Y58.689 E0.04338
G1 X157.364 Y58.029 E0.06643
M204 S1000
; PURGING FINISHED
G1 F8640
G1 X159.498 Y57.766 E-0.49639
G1 X160.639 Y57.766 E-0.26361
G1 E-0.04000 F2100.00000
G1 Z0.800 F10800.000
G1 X158.386 Y64.440
G1 Z0.200
G1 E0.80000 F2100.00000
M204 S20
G1 F1800
G1 X159.474 Y64.267 E0.03454
G1 X193.582 Y64.267 E1.06944
G1 X194.670 Y64.440 E0.03454
G1 X195.700 Y64.965 E0.03626
G1 X196.518 Y65.782 E0.03625
G1 X197.043 Y66.813 E0.03626
G1 X197.215 Y67.901 E0.03454
G1 X197.215 Y102.009 E1.06944
G1 X197.043 Y103.097 E0.03454
G1 X196.518 Y104.127 E0.03625
G1 X195.700 Y104.944 E0.03625
G1 X194.670 Y105.469 E0.03626
G1 X193.582 Y105.642 E0.03453
G1 X159.474 Y105.642 E1.06944
G1 X158.386 Y105.469 E0.03454
G1 X157.356 Y104.944 E0.03625
G1 X156.538 Y104.127 E0.03625
G1 X156.013 Y103.097 E0.03625
G1 X155.841 Y102.009 E0.03454
G1 X155.841 Y67.900 E1.06944
G1 X156.013 Y66.813 E0.03453
G1 X156.538 Y65.782 E0.03626
G1 X157.356 Y64.965 E0.03625
G1 X158.332 Y64.467 E0.03437
M204 S1000
G1 X158.504 Y64.803 F10800.000
M204 S20
G1 F1800
G1 X159.503 Y64.645 E0.03174
G1 X193.552 Y64.645 E1.06758
G1 X194.552 Y64.803 E0.03173
G1 X195.476 Y65.274 E0.03251
G1 X196.209 Y66.007 E0.03250
G1 X196.680 Y66.931 E0.03251
G1 X196.838 Y67.930 E0.03173
G1 X196.838 Y101.979 E1.06758
G1 X196.680 Y102.979 E0.03173
G1 X196.209 Y103.902 E0.03251
G1 X195.476 Y104.636 E0.03251
G1 X194.552 Y105.106 E0.03251
G1 X193.552 Y105.265 E0.03173
G1 X159.503 Y105.265 E1.06758
G1 X158.504 Y105.106 E0.03173
G1 X157.580 Y104.636 E0.03251
G1 X156.847 Y103.902 E0.03251
G1 X156.376 Y102.979 E0.03251
G1 X156.218 Y101.979 E0.03173
G1 X156.218 Y67.930 E1.06758
G1 X156.376 Y66.931 E0.03173
G1 X156.847 Y66.007 E0.03251
G1 X157.580 Y65.274 E0.03251
G1 X158.450 Y64.830 E0.03062
M204 S1000
G1 X158.587 Y64.412 F10800.000
G1 F8640
G1 X159.503 Y64.645 E-0.24697
G1 X161.725 Y64.645 E-0.51303
G1 E-0.04000 F2100.00000
G1 Z0.800 F10800.000
G1 X157.503 Y63.065
G1 Z0.200
G1 E0.80000 F2100.00000
M204 S20
G1 F1800
G1 X158.292 Y62.809 E0.02604
G1 X159.139 Y62.674 E0.02689
G1 X159.555 Y62.642 E0.01307
G1 X193.501 Y62.642 E1.06435
G1 X193.916 Y62.674 E0.01307
G1 X194.763 Y62.809 E0.02689
G1 X195.553 Y63.065 E0.02604
G1 X196.293 Y63.442 E0.02604
G1 X196.965 Y63.930 E0.02604
G1 X197.552 Y64.517 E0.02604
G1 X198.040 Y65.189 E0.02604
G1 X198.417 Y65.929 E0.02604
G1 X198.674 Y66.719 E0.02604
G1 X198.808 Y67.566 E0.02689
G1 X198.841 Y67.982 E0.01307
G1 X198.841 Y101.928 E1.06435
G1 X198.808 Y102.343 E0.01307
G1 X198.674 Y103.190 E0.02689
G1 X198.417 Y103.980 E0.02604
G1 X198.040 Y104.720 E0.02604
G1 X197.552 Y105.392 E0.02604
G1 X196.965 Y105.979 E0.02604
G1 X196.293 Y106.467 E0.02604
G1 X195.553 Y106.844 E0.02604
G1 X194.763 Y107.101 E0.02604
G1 X193.916 Y107.235 E0.02689
G1 X193.501 Y107.267 E0.01307
G1 X159.555 Y107.267 E1.06435
G1 X159.139 Y107.235 E0.01307
G1 X158.292 Y107.101 E0.02689
G1 X157.503 Y106.844 E0.02604
G1 X156.763 Y106.467 E0.02604
G1 X156.091 Y105.979 E0.02604
G1 X155.504 Y105.392 E0.02604
G1 X155.015 Y104.720 E0.02604
G1 X154.638 Y103.980 E0.02604
G1 X154.382 Y103.190 E0.02604
G1 X154.248 Y102.343 E0.02689
G1 X154.215 Y101.928 E0.01307
G1 X154.215 Y67.982 E1.06435
G1 X154.248 Y67.566 E0.01307
G1 X154.382 Y66.719 E0.02689
G1 X154.638 Y65.929 E0.02604
G1 X155.015 Y65.189 E0.02604
G1 X155.504 Y64.517 E0.02604
G1 X156.091 Y63.930 E0.02604
G1 X156.763 Y63.442 E0.02604
G1 X157.449 Y63.092 E0.02416
M204 S1000
G1 X157.278 Y62.756 F10800.000
M204 S20
G1 F1800
G1 X157.358 Y62.716 E0.00281
G1 X158.204 Y62.441 E0.02790
G1 X159.095 Y62.300 E0.02828
G1 X159.540 Y62.265 E0.01400
G1 X193.516 Y62.265 E1.06528
G1 X193.961 Y62.300 E0.01400
G1 X194.852 Y62.441 E0.02828
G1 X195.698 Y62.716 E0.02790
G1 X196.491 Y63.120 E0.02790
G1 X197.211 Y63.643 E0.02790
G1 X197.840 Y64.272 E0.02790
G1 X198.363 Y64.992 E0.02790
G1 X198.767 Y65.785 E0.02790
G1 X199.042 Y66.631 E0.02790
G1 X199.183 Y67.522 E0.02828
G1 X199.218 Y67.967 E0.01400
G1 X199.218 Y101.942 E1.06528
G1 X199.183 Y102.387 E0.01400
G1 X199.042 Y103.278 E0.02828
G1 X198.767 Y104.125 E0.02790
G1 X198.363 Y104.917 E0.02790
G1 X197.840 Y105.637 E0.02790
G1 X197.211 Y106.266 E0.02790
G1 X196.491 Y106.790 E0.02790
G1 X195.698 Y107.193 E0.02790
G1 X194.852 Y107.468 E0.02790
G1 X193.961 Y107.610 E0.02828
G1 X193.516 Y107.645 E0.01400
G1 X159.540 Y107.645 E1.06528
G1 X159.095 Y107.610 E0.01400
G1 X158.204 Y107.468 E0.02828
G1 X157.358 Y107.193 E0.02790
G1 X156.565 Y106.790 E0.02790
G1 X155.845 Y106.267 E0.02790
G1 X155.216 Y105.637 E0.02790
G1 X154.693 Y104.917 E0.02790
G1 X154.289 Y104.125 E0.02790
G1 X154.014 Y103.278 E0.02790
G1 X153.873 Y102.387 E0.02828
G1 X153.838 Y101.942 E0.01400
G1 X153.838 Y67.967 E1.06528
G1 X153.873 Y67.522 E0.01400
G1 X154.014 Y66.631 E0.02828
G1 X154.289 Y65.785 E0.02790
G1 X154.693 Y64.992 E0.02790
G1 X155.216 Y64.272 E0.02790
G1 X155.845 Y63.643 E0.02790
G1 X156.565 Y63.120 E0.02790
G1 X157.224 Y62.784 E0.02321
M204 S1000
G1 X157.354 Y62.803 F10800.000
G1 F8640
G1 X157.358 Y62.716 E-0.03456
G1 X158.204 Y62.441 E-0.20546
G1 X159.095 Y62.300 E-0.20829
G1 X159.540 Y62.265 E-0.10307
G1 X160.444 Y62.265 E-0.20862
G1 E-0.04000 F2100.00000
G1 Z0.800 F10800.000
G1 X196.108 Y63.475
G1 Z0.200
G1 E0.80000 F2100.00000
M204 S20
G1 F1800
G1 X198.008 Y65.375 E0.08481
M204 S1000
G1 F8640
G1 X196.108 Y63.475 E-0.62057
G1 E-0.17943 F2100.00000
G1 Z0.800 F10800.000
G1 X198.430 Y66.333
G1 Z0.200
G1 E0.80000 F2100.00000
M204 S20
G1 F1800
G1 X195.413 Y63.317 E0.13462
G1 X194.634 Y63.074 E0.02576
G1 X198.408 Y66.849 E0.16844
G1 X198.509 Y67.486 E0.02038
G1 X193.996 Y62.973 E0.20142
G1 X193.490 Y62.924 E0.01605
G1 X193.411 Y62.924 E0.00250
G1 X194.634 Y64.148 E0.05460
G1 X193.996 Y64.047 E0.02038
G1 X192.874 Y62.924 E0.05009
G1 X192.337 Y62.924 E0.01694
G1 X193.397 Y63.985 E0.04732
G1 X192.861 Y63.985 E0.01694
G1 X191.800 Y62.924 E0.04732
G1 X191.264 Y62.924 E0.01694
G1 X192.324 Y63.985 E0.04732
G1 X191.787 Y63.985 E0.01694
G1 X190.727 Y62.924 E0.04732
G1 X190.190 Y62.924 E0.01694
G1 X191.250 Y63.985 E0.04732
G1 X190.714 Y63.985 E0.01694
G1 X189.653 Y62.924 E0.04732
G1 X189.117 Y62.924 E0.01694
G1 X190.177 Y63.985 E0.04732
G1 X189.640 Y63.985 E0.01694
G1 X188.580 Y62.924 E0.04732
G1 X188.043 Y62.924 E0.01694
G1 X189.104 Y63.985 E0.04732
G1 X188.567 Y63.985 E0.01694
G1 X187.507 Y62.924 E0.04732
G1 X186.970 Y62.924 E0.01694
G1 X188.030 Y63.985 E0.04732
G1 X187.493 Y63.985 E0.01694
G1 X186.433 Y62.924 E0.04732
G1 X185.896 Y62.924 E0.01694
G1 X186.957 Y63.985 E0.04732
G1 X186.420 Y63.985 E0.01694
G1 X185.360 Y62.924 E0.04732
G1 X184.823 Y62.924 E0.01694
G1 X185.883 Y63.985 E0.04732
G1 X185.346 Y63.985 E0.01694
G1 X184.286 Y62.924 E0.04732
G1 X183.749 Y62.924 E0.01694
M73 Q1 S91
G1 X184.810 Y63.985 E0.04732
G1 X184.273 Y63.985 E0.01694
M73 P1 R90
G1 X183.213 Y62.924 E0.04732
G1 X182.676 Y62.924 E0.01694
G1 X183.736 Y63.985 E0.04732
G1 X183.199 Y63.985 E0.01694
G1 X182.139 Y62.924 E0.04732
G1 X181.602 Y62.924 E0.01694
G1 X182.663 Y63.985 E0.04732
G1 X182.126 Y63.985 E0.01694
G1 X181.066 Y62.924 E0.04732
G1 X180.529 Y62.924 E0.01694
G1 X181.589 Y63.985 E0.04732
G1 X181.053 Y63.985 E0.01694
G1 X179.992 Y62.924 E0.04732
G1 X179.456 Y62.924 E0.01694
G1 X180.516 Y63.985 E0.04732
G1 X179.979 Y63.985 E0.01694
G1 X178.919 Y62.924 E0.04732
G1 X178.382 Y62.924 E0.01694
G1 X179.442 Y63.985 E0.04732
G1 X178.906 Y63.985 E0.01694
G1 X177.845 Y62.924 E0.04732
G1 X177.309 Y62.924 E0.01694
G1 X178.369 Y63.985 E0.04732
G1 X177.832 Y63.985 E0.01694
G1 X176.772 Y62.924 E0.04732
G1 X176.235 Y62.924 E0.01694
G1 X177.295 Y63.985 E0.04732
G1 X176.759 Y63.985 E0.01694
G1 X175.698 Y62.924 E0.04732
G1 X175.162 Y62.924 E0.01694
G1 X176.222 Y63.985 E0.04732
G1 X175.685 Y63.985 E0.01694
G1 X174.625 Y62.924 E0.04732
G1 X174.088 Y62.924 E0.01694
G1 X175.149 Y63.985 E0.04732
G1 X174.612 Y63.985 E0.01694
G1 X173.552 Y62.924 E0.04732
G1 X173.015 Y62.924 E0.01694
G1 X174.075 Y63.985 E0.04732
G1 X173.538 Y63.985 E0.01694
G1 X172.478 Y62.924 E0.04732
G1 X171.941 Y62.924 E0.01694
G1 X173.002 Y63.985 E0.04732
G1 X172.465 Y63.985 E0.01694
G1 X171.405 Y62.924 E0.04732
G1 X170.868 Y62.924 E0.01694
G1 X171.928 Y63.985 E0.04732
G1 X171.391 Y63.985 E0.01694
G1 X170.331 Y62.924 E0.04732
G1 X169.794 Y62.924 E0.01694
G1 X170.855 Y63.985 E0.04732
G1 X170.318 Y63.985 E0.01694
G1 X169.258 Y62.924 E0.04732
G1 X168.721 Y62.924 E0.01694
G1 X169.781 Y63.985 E0.04732
G1 X169.245 Y63.985 E0.01694
G1 X168.184 Y62.924 E0.04732
G1 X167.648 Y62.924 E0.01694
G1 X168.708 Y63.985 E0.04732
G1 X168.171 Y63.985 E0.01694
G1 X167.111 Y62.924 E0.04732
G1 X166.574 Y62.924 E0.01694
G1 X167.634 Y63.985 E0.04732
G1 X167.098 Y63.985 E0.01694
G1 X166.037 Y62.924 E0.04732
G1 X165.501 Y62.924 E0.01694
G1 X166.561 Y63.985 E0.04732
G1 X166.024 Y63.985 E0.01694
G1 X164.964 Y62.924 E0.04732
G1 X164.427 Y62.924 E0.01694
G1 X165.487 Y63.985 E0.04732
G1 X164.951 Y63.985 E0.01694
G1 X163.890 Y62.924 E0.04732
G1 X163.354 Y62.924 E0.01694
G1 X164.414 Y63.985 E0.04732
G1 X163.877 Y63.985 E0.01694
G1 X162.817 Y62.924 E0.04732
G1 X162.280 Y62.924 E0.01694
G1 X163.341 Y63.985 E0.04732
G1 X162.804 Y63.985 E0.01694
G1 X161.744 Y62.924 E0.04732
G1 X161.207 Y62.924 E0.01694
G1 X162.267 Y63.985 E0.04732
G1 X161.730 Y63.985 E0.01694
G1 X160.670 Y62.924 E0.04732
G1 X160.133 Y62.924 E0.01694
G1 X161.194 Y63.985 E0.04732
G1 X160.657 Y63.985 E0.01694
G1 X159.597 Y62.924 E0.04732
G1 X159.566 Y62.924 E0.00097
G1 X159.102 Y62.967 E0.01470
G1 X160.120 Y63.985 E0.04544
G1 X159.583 Y63.985 E0.01694
G1 X158.639 Y63.040 E0.04216
G1 X158.359 Y63.084 E0.00895
G1 X158.198 Y63.136 E0.00532
G1 X159.102 Y64.040 E0.04033
G1 X158.639 Y64.113 E0.01480
G1 X157.793 Y63.268 E0.03773
G1 X157.611 Y63.327 E0.00605
G1 X157.415 Y63.427 E0.00693
G1 X158.204 Y64.215 E0.03518
G1 X157.848 Y64.396 E0.01259
G1 X157.060 Y63.608 E0.03518
G1 X156.911 Y63.684 E0.00528
G1 X156.730 Y63.815 E0.00704
G1 X157.493 Y64.578 E0.03402
G1 X157.187 Y64.733 E0.01082
G1 X157.149 Y64.771 E0.00169
G1 X156.419 Y64.041 E0.03258
G1 X156.275 Y64.146 E0.00563
G1 X156.131 Y64.290 E0.00641
G1 X156.881 Y65.039 E0.03346
G1 X156.613 Y65.308 E0.01198
G1 X155.863 Y64.558 E0.03346
G1 X155.719 Y64.702 E0.00641
G1 X155.614 Y64.846 E0.00563
G1 X156.344 Y65.576 E0.03258
G1 X156.306 Y65.614 E0.00169
G1 X156.151 Y65.919 E0.01081
G1 X155.388 Y65.157 E0.03402
G1 X155.257 Y65.338 E0.00704
G1 X155.181 Y65.487 E0.00528
G1 X155.970 Y66.275 E0.03518
G1 X155.789 Y66.630 E0.01259
G1 X155.000 Y65.842 E0.03518
G1 X154.900 Y66.038 E0.00693
G1 X154.841 Y66.220 E0.00604
G1 X155.687 Y67.065 E0.03773
G1 X155.613 Y67.529 E0.01480
G1 X154.710 Y66.625 E0.04033
G1 X154.658 Y66.785 E0.00532
G1 X154.613 Y67.065 E0.00895
G1 X155.558 Y68.010 E0.04216
G1 X155.558 Y68.547 E0.01694
G1 X154.540 Y67.529 E0.04544
G1 X154.498 Y67.993 E0.01470
G1 X154.498 Y68.023 E0.00097
G1 X155.558 Y69.084 E0.04732
G1 X155.558 Y69.620 E0.01694
G1 X154.498 Y68.560 E0.04732
G1 X154.498 Y69.097 E0.01694
G1 X155.558 Y70.157 E0.04732
G1 X155.558 Y70.694 E0.01694
G1 X154.498 Y69.634 E0.04732
G1 X154.498 Y70.170 E0.01694
G1 X155.558 Y71.231 E0.04732
G1 X155.558 Y71.767 E0.01694
G1 X154.498 Y70.707 E0.04732
G1 X154.498 Y71.244 E0.01694
G1 X155.558 Y72.304 E0.04732
G1 X155.558 Y72.841 E0.01694
G1 X154.498 Y71.780 E0.04732
G1 X154.498 Y72.317 E0.01694
G1 X155.558 Y73.377 E0.04732
G1 X155.558 Y73.914 E0.01694
G1 X154.498 Y72.854 E0.04732
G1 X154.498 Y73.391 E0.01694
G1 X155.558 Y74.451 E0.04732
G1 X155.558 Y74.988 E0.01694
G1 X154.498 Y73.927 E0.04732
G1 X154.498 Y74.464 E0.01694
G1 X155.558 Y75.524 E0.04732
G1 X155.558 Y76.061 E0.01694
G1 X154.498 Y75.001 E0.04732
