; generated by Slic3r Prusa Edition 1.41.1 on 2018-11-09 at 23:08:18

; 

; external perimeters extrusion width = 0.45mm
; perimeters extrusion width = 0.45mm
; infill extrusion width = 0.45mm
; solid infill extrusion width = 0.45mm
; top infill extrusion width = 0.40mm
; first layer extrusion width = 0.42mm

M73 P0 R22
M73 Q0 S22
M201 X1000 Y1000 Z1000 E5000 ; sets maximum accelerations, mm/sec^2
M203 X200 Y200 Z12 E120 ; sets maximum feedrates, mm/sec
M204 P1250 R1250 T1250 ; sets acceleration (P, T) and retract acceleration (R), mm/sec^2
M205 X8.00 Y8.00 Z0.40 E1.50 ; sets the jerk limits, mm/sec
M205 S0 T0 ; sets the minimum extruding and travel feed rate, mm/sec
M107
M115 U3.4.0 ; tell printer latest fw version
M83  ; extruder relative mode
M104 S140 ; set extruder to warm-up temp
M140 S80 ; set bed temp
M190 S80 ; wait for bed temp
G28 W ; home all without mesh bed level
G80 ; mesh bed leveling
M104 S245 ; set extruder temp
M109 S245 ; wait for extruder temp
G1 Y-3.0 F1000.0 ; go outside print area
G92 E0.0
G1 X60.0 E9.0  F1000.0 ; intro line
M73 Q0 S22
M73 P0 R22
G1 X100.0 E12.5  F1000.0 ; intro line
G92 E0.0
M221 S95
M900 K45; Filament gcode
G21 ; set units to millimeters
G90 ; use absolute coordinates
M83 ; use relative distances for extrusion
;BEFORE_LAYER_CHANGE
G92 E0.0
;0.3


G1 E-0.80000 F2100.00000
G1 Z0.600 F10800.000
;AFTER_LAYER_CHANGE
;0.3
G1 X102.482 Y86.198
G1 Z0.300
G1 E0.80000 F2100.00000
M204 S20
G1 F1800
G1 X103.725 Y84.959 E0.07784
G1 X105.291 Y83.873 E0.08455
G1 X106.478 Y83.285 E0.05874
G1 X107.743 Y82.859 E0.05921
G1 X109.577 Y82.526 E0.08267
G1 X110.491 Y82.467 E0.04066
G1 X139.505 Y82.467 E1.28690
G1 X141.766 Y82.735 E0.10100
G1 X143.344 Y83.215 E0.07315
G1 X144.932 Y83.997 E0.07852
G1 X146.229 Y84.921 E0.07062
G1 X147.480 Y86.152 E0.07784
G1 X148.475 Y87.521 E0.07505
G1 X149.233 Y89.022 E0.07458
G1 X149.767 Y90.742 E0.07992
G1 X150.033 Y92.955 E0.09883
G1 X150.023 Y117.305 E1.08005
G1 X149.752 Y119.333 E0.09078
G1 X149.257 Y120.918 E0.07362
G1 X148.484 Y122.464 E0.07667
G1 X147.518 Y123.802 E0.07319
G1 X146.093 Y125.184 E0.08804
G1 X144.983 Y125.972 E0.06038
G1 X143.724 Y126.626 E0.06293
G1 X141.876 Y127.243 E0.08642
G1 X139.625 Y127.532 E0.10069
G1 X110.185 Y127.522 E1.30580
G1 X108.162 Y127.251 E0.09053
G1 X106.577 Y126.755 E0.07365
G1 X105.036 Y125.984 E0.07644
G1 X103.698 Y125.018 E0.07318
G1 X102.316 Y123.593 E0.08804
G1 X101.528 Y122.484 E0.06037
G1 X100.876 Y121.229 E0.06270
G1 X100.259 Y119.381 E0.08642
G1 X99.969 Y117.146 E0.09999
G1 X99.967 Y92.989 E1.07144
G1 X100.018 Y92.165 E0.03666
G1 X100.276 Y90.544 E0.07279
G1 X100.784 Y88.979 E0.07295
G1 X101.530 Y87.514 E0.07296
G1 X102.446 Y86.247 E0.06935
M204 S1000
G1 X102.735 Y86.456 F10800.000
M204 S20
G1 F1800
G1 X103.956 Y85.229 E0.07678
G1 X105.460 Y84.187 E0.08117
G1 X106.617 Y83.612 E0.05729
G1 X107.851 Y83.198 E0.05774
G1 X109.622 Y82.879 E0.07982
G1 X110.490 Y82.822 E0.03859
G1 X139.505 Y82.822 E1.28694
G1 X141.699 Y83.084 E0.09802
G1 X143.223 Y83.550 E0.07067
G1 X144.756 Y84.306 E0.07584
G1 X146.009 Y85.201 E0.06825
G1 X147.212 Y86.387 E0.07495
G1 X148.173 Y87.709 E0.07250
G1 X148.905 Y89.159 E0.07205
G1 X149.421 Y90.826 E0.07739
G1 X149.678 Y92.960 E0.09534
G1 X149.669 Y117.278 E1.07860
G1 X149.403 Y119.264 E0.08888
G1 X148.924 Y120.794 E0.07113
G1 X148.175 Y122.287 E0.07406
G1 X147.232 Y123.590 E0.07138
G1 X145.873 Y124.905 E0.08385
G1 X144.795 Y125.670 E0.05864
G1 X143.568 Y126.306 E0.06131
G1 X141.793 Y126.897 E0.08297
G1 X139.611 Y127.176 E0.09756
G1 X110.212 Y127.168 E1.30397
G1 X108.237 Y126.903 E0.08842
G1 X106.706 Y126.423 E0.07115
G1 X105.213 Y125.675 E0.07406
G1 X103.910 Y124.732 E0.07138
G1 X102.595 Y123.373 E0.08385
G1 X101.832 Y122.299 E0.05841
G1 X101.196 Y121.072 E0.06132
G1 X100.604 Y119.298 E0.08297
G1 X100.324 Y117.126 E0.09712
G1 X100.372 Y92.198 E1.10569
G1 X100.621 Y90.628 E0.07049
G1 X101.114 Y89.112 E0.07071
G1 X101.835 Y87.696 E0.07049
G1 X102.700 Y86.504 E0.06529
M204 S1000
; PURGING FINISHED
G1 F8640
G1 X103.956 Y85.229 E-0.41340
G1 X105.190 Y84.374 E-0.34660
G1 E-0.04000 F2100.00000
G1 Z0.900 F10800.000
G1 X107.528 Y90.840
G1 Z0.300
G1 E0.80000 F2100.00000
M204 S20
G1 F1800
G1 X108.341 Y90.028 E0.05098
G1 X109.365 Y89.506 E0.05099
G1 X110.448 Y89.334 E0.04863
G1 X139.552 Y89.334 E1.29094
G1 X140.635 Y89.506 E0.04863
G1 X141.660 Y90.028 E0.05099
G1 X142.472 Y90.840 E0.05098
G1 X142.994 Y91.865 E0.05099
G1 X143.166 Y92.948 E0.04863
G1 X143.166 Y117.052 E1.06916
G1 X142.994 Y118.135 E0.04863
G1 X142.472 Y119.159 E0.05099
G1 X141.660 Y119.972 E0.05098
G1 X140.635 Y120.494 E0.05099
G1 X139.552 Y120.666 E0.04863
G1 X110.448 Y120.666 E1.29094
G1 X109.365 Y120.494 E0.04863
G1 X108.341 Y119.972 E0.05098
G1 X107.528 Y119.159 E0.05098
G1 X107.006 Y118.135 E0.05098
G1 X106.834 Y117.052 E0.04863
G1 X106.834 Y92.948 E1.06916
G1 X107.006 Y91.865 E0.04863
G1 X107.500 Y90.894 E0.04833
M204 S1000
G1 X107.817 Y91.055 F10800.000
M204 S20
G1 F1800
G1 X108.552 Y90.319 E0.04614
G1 X109.476 Y89.848 E0.04599
G1 X110.476 Y89.690 E0.04489
G1 X139.524 Y89.690 E1.28845
G1 X140.524 Y89.848 E0.04489
G1 X141.448 Y90.319 E0.04599
G1 X142.181 Y91.052 E0.04598
G1 X142.652 Y91.976 E0.04599
G1 X142.810 Y92.976 E0.04489
G1 X142.810 Y117.024 E1.06668
G1 X142.652 Y118.024 E0.04489
G1 X142.181 Y118.948 E0.04599
G1 X141.448 Y119.681 E0.04598
G1 X140.524 Y120.152 E0.04599
G1 X139.524 Y120.310 E0.04489
G1 X110.476 Y120.310 E1.28845
G1 X109.476 Y120.152 E0.04489
G1 X108.552 Y119.681 E0.04599
G1 X107.819 Y118.948 E0.04599
G1 X107.348 Y118.024 E0.04599
G1 X107.190 Y117.024 E0.04489
G1 X107.190 Y92.976 E1.06668
G1 X107.348 Y91.976 E0.04489
G1 X107.790 Y91.109 E0.04317
M204 S1000
G1 X107.655 Y90.690 F10800.000
G1 F8640
G1 X108.552 Y90.319 E-0.25340
G1 X109.476 Y89.848 E-0.23941
G1 X110.476 Y89.690 E-0.23370
G1 X110.621 Y89.690 E-0.03349
G1 E-0.04000 F2100.00000
G1 Z0.900 F10800.000
G1 X105.969 Y90.224
G1 Z0.300
G1 E0.80000 F2100.00000
M204 S20
G1 F1800
G1 X106.459 Y89.549 E0.03699
G1 X107.049 Y88.959 E0.03698
G1 X107.724 Y88.469 E0.03698
G1 X108.466 Y88.091 E0.03698
G1 X109.259 Y87.833 E0.03698
G1 X110.109 Y87.698 E0.03815
G1 X110.526 Y87.666 E0.01856
G1 X139.480 Y87.666 E1.28424
G1 X139.891 Y87.698 E0.01829
G1 X140.741 Y87.833 E0.03815
G1 X141.534 Y88.091 E0.03698
G1 X142.276 Y88.469 E0.03698
G1 X142.951 Y88.959 E0.03699
G1 X143.541 Y89.549 E0.03698
G1 X144.031 Y90.224 E0.03699
G1 X144.409 Y90.966 E0.03698
G1 X144.667 Y91.759 E0.03698
G1 X144.802 Y92.609 E0.03815
G1 X144.834 Y93.026 E0.01856
G1 X144.834 Y116.974 E1.06220
G1 X144.802 Y117.391 E0.01856
G1 X144.667 Y118.241 E0.03815
G1 X144.409 Y119.034 E0.03698
G1 X144.031 Y119.776 E0.03698
G1 X143.541 Y120.451 E0.03698
G1 X142.951 Y121.041 E0.03698
G1 X142.276 Y121.531 E0.03699
G1 X141.533 Y121.909 E0.03698
G1 X140.740 Y122.167 E0.03699
G1 X139.891 Y122.302 E0.03815
G1 X139.474 Y122.334 E0.01856
G1 X110.526 Y122.334 E1.28397
G1 X110.109 Y122.302 E0.01856
G1 X109.260 Y122.167 E0.03815
G1 X108.466 Y121.909 E0.03699
G1 X107.724 Y121.531 E0.03698
G1 X107.049 Y121.041 E0.03698
G1 X106.459 Y120.451 E0.03698
G1 X105.969 Y119.776 E0.03698
G1 X105.591 Y119.034 E0.03698
G1 X105.333 Y118.240 E0.03699
G1 X105.198 Y117.391 E0.03815
G1 X105.166 Y116.974 E0.01856
G1 X105.166 Y93.026 E1.06220
G1 X105.198 Y92.609 E0.01856
G1 X105.333 Y91.760 E0.03815
G1 X105.591 Y90.967 E0.03699
G1 X105.942 Y90.277 E0.03432
M204 S1000
G1 X105.625 Y90.116 F10800.000
M204 S20
G1 F1800
G1 X105.665 Y90.037 E0.00390
G1 X106.188 Y89.317 E0.03947
G1 X106.817 Y88.688 E0.03947
G1 X107.537 Y88.165 E0.03947
G1 X108.330 Y87.761 E0.03947
G1 X109.176 Y87.486 E0.03947
G1 X110.067 Y87.345 E0.04001
G1 X110.512 Y87.310 E0.01980
G1 X139.494 Y87.310 E1.28548
G1 X139.933 Y87.345 E0.01953
G1 X140.824 Y87.486 E0.04001
G1 X141.670 Y87.761 E0.03946
G1 X142.463 Y88.165 E0.03947
G1 X143.183 Y88.688 E0.03947
G1 X143.812 Y89.317 E0.03947
G1 X144.335 Y90.037 E0.03947
G1 X144.739 Y90.830 E0.03947
G1 X145.014 Y91.676 E0.03946
G1 X145.155 Y92.567 E0.04001
G1 X145.190 Y93.012 E0.01980
G1 X145.190 Y116.988 E1.06344
G1 X145.155 Y117.433 E0.01980
G1 X145.014 Y118.324 E0.04001
G1 X144.739 Y119.170 E0.03947
G1 X144.335 Y119.963 E0.03947
G1 X143.812 Y120.683 E0.03947
G1 X143.183 Y121.312 E0.03947
G1 X142.463 Y121.835 E0.03947
G1 X141.670 Y122.239 E0.03947
G1 X140.824 Y122.514 E0.03947
G1 X139.933 Y122.655 E0.04001
G1 X139.488 Y122.690 E0.01980
G1 X110.512 Y122.690 E1.28521
G1 X110.067 Y122.655 E0.01980
G1 X109.176 Y122.514 E0.04001
G1 X108.330 Y122.239 E0.03947
G1 X107.537 Y121.835 E0.03947
G1 X106.817 Y121.312 E0.03947
G1 X106.188 Y120.683 E0.03947
G1 X105.665 Y119.963 E0.03947
G1 X105.261 Y119.170 E0.03947
G1 X104.986 Y118.324 E0.03947
G1 X104.845 Y117.433 E0.04001
G1 X104.810 Y116.988 E0.01980
G1 X104.810 Y93.012 E1.06344
G1 X104.845 Y92.567 E0.01980
G1 X104.986 Y91.676 E0.04001
G1 X105.261 Y90.830 E0.03947
G1 X105.598 Y90.169 E0.03290
M204 S1000
G1 X105.713 Y90.109 F10800.000
G1 F8640
G1 X105.665 Y90.037 E-0.03417
G1 X106.188 Y89.317 E-0.20547
G1 X106.817 Y88.688 E-0.20546
G1 X107.537 Y88.165 E-0.20546
G1 X107.959 Y87.950 E-0.10944
G1 E-0.04000 F2100.00000
G1 Z0.900 F10800.000
G1 X106.012 Y119.625
G1 Z0.300
G1 E0.80000 F2100.00000
M204 S20
G1 F1800
G1 X107.875 Y121.488 E0.11747
M204 S1000
G1 F8640
G1 X106.012 Y119.625 E-0.60846
G1 E-0.19154 F2100.00000
G1 Z0.900 F10800.000
G1 X108.797 Y121.904
G1 Z0.300
G1 E0.80000 F2100.00000
M204 S20
G1 F1800
G1 X105.853 Y118.961 E0.18559
G1 X105.601 Y118.204 E0.03555
G1 X109.494 Y122.096 E0.24539
M204 S1000
G1 F8640
G1 X107.166 Y119.769 E-0.76000
G1 E-0.04000 F2100.00000
G1 Z0.900 F10800.000
G1 X144.728 Y93.136
G1 Z0.300
G1 E0.80000 F2100.00000
M204 S20
G1 F1800
G1 X143.124 Y91.533 E0.10108
G1 X143.251 Y91.781 E0.01243
G1 X143.323 Y92.237 E0.02057
G1 X144.568 Y93.482 E0.07846
G1 X144.568 Y93.987 E0.02253
G1 X143.418 Y92.838 E0.07247
G1 X143.432 Y93.357 E0.02317
G1 X144.568 Y94.493 E0.07158
G1 X144.568 Y94.998 E0.02253
G1 X143.432 Y93.863 E0.07158
G1 X143.432 Y94.368 E0.02253
G1 X144.568 Y95.504 E0.07158
G1 X144.568 Y96.009 E0.02253
G1 X143.432 Y94.874 E0.07158
G1 X143.432 Y95.379 E0.02253
G1 X144.568 Y96.515 E0.07158
G1 X144.568 Y97.020 E0.02253
G1 X143.432 Y95.885 E0.07158
G1 X143.432 Y96.390 E0.02253
G1 X144.568 Y97.525 E0.07158
G1 X144.568 Y98.031 E0.02253
G1 X143.432 Y96.896 E0.07158
G1 X143.432 Y97.401 E0.02253
G1 X144.568 Y98.536 E0.07158
G1 X144.568 Y99.042 E0.02253
G1 X143.432 Y97.906 E0.07158
G1 X143.432 Y98.412 E0.02253
G1 X144.568 Y99.547 E0.07158
G1 X144.568 Y100.053 E0.02253
G1 X143.432 Y98.917 E0.07158
G1 X143.432 Y99.423 E0.02253
G1 X144.568 Y100.558 E0.07158
G1 X144.568 Y101.064 E0.02253
G1 X143.432 Y99.928 E0.07158
G1 X143.432 Y100.434 E0.02253
G1 X144.568 Y101.569 E0.07158
G1 X144.568 Y102.075 E0.02253
G1 X143.432 Y100.939 E0.07158
G1 X143.432 Y101.445 E0.02253
G1 X144.568 Y102.580 E0.07158
G1 X144.568 Y103.086 E0.02253
G1 X143.432 Y101.950 E0.07158
G1 X143.432 Y102.456 E0.02253
G1 X144.568 Y103.591 E0.07158
G1 X144.568 Y104.096 E0.02253
G1 X143.432 Y102.961 E0.07158
G1 X143.432 Y103.467 E0.02253
G1 X144.568 Y104.602 E0.07158
G1 X144.568 Y105.107 E0.02253
G1 X143.432 Y103.972 E0.07158
G1 X143.432 Y104.477 E0.02253
G1 X144.568 Y105.613 E0.07158
G1 X144.568 Y106.118 E0.02253
G1 X143.432 Y104.983 E0.07158
G1 X143.432 Y105.488 E0.02253
G1 X144.568 Y106.624 E0.07158
G1 X144.568 Y107.129 E0.02253
G1 X143.432 Y105.994 E0.07158
G1 X143.432 Y106.499 E0.02253
G1 X144.568 Y107.635 E0.07158
G1 X144.568 Y108.140 E0.02253
G1 X143.432 Y107.005 E0.07158
G1 X143.432 Y107.510 E0.02253
G1 X144.568 Y108.646 E0.07158
G1 X144.568 Y109.151 E0.02253
G1 X143.432 Y108.016 E0.07158
G1 X143.432 Y108.521 E0.02253
G1 X144.568 Y109.657 E0.07158
G1 X144.568 Y110.162 E0.02253
G1 X143.432 Y109.027 E0.07158
G1 X143.432 Y109.532 E0.02253
G1 X144.568 Y110.667 E0.07158
G1 X144.568 Y111.173 E0.02253
G1 X143.432 Y110.038 E0.07158
G1 X143.432 Y110.543 E0.02253
G1 X144.568 Y111.678 E0.07158
G1 X144.568 Y112.184 E0.02253
G1 X143.432 Y111.048 E0.07158
G1 X143.432 Y111.554 E0.02253
G1 X144.568 Y112.689 E0.07158
G1 X144.568 Y113.195 E0.02253
G1 X143.432 Y112.059 E0.07158
G1 X143.432 Y112.565 E0.02253
G1 X144.568 Y113.700 E0.07158
G1 X144.568 Y114.206 E0.02253
G1 X143.432 Y113.070 E0.07158
G1 X143.432 Y113.576 E0.02253
G1 X144.568 Y114.711 E0.07158
G1 X144.568 Y115.217 E0.02253
G1 X143.432 Y114.081 E0.07158
G1 X143.432 Y114.587 E0.02253
G1 X144.568 Y115.722 E0.07158
G1 X144.568 Y116.228 E0.02253
G1 X143.432 Y115.092 E0.07158
G1 X143.432 Y115.598 E0.02253
G1 X144.568 Y116.733 E0.07158
G1 X144.568 Y116.963 E0.01027
G1 X144.548 Y117.218 E0.01140
G1 X143.432 Y116.103 E0.07031
G1 X143.432 Y116.609 E0.02253
G1 X144.488 Y117.664 E0.06657
G1 X144.419 Y118.101 E0.01969
G1 X143.427 Y117.108 E0.06256
G1 X143.358 Y117.545 E0.01970
G1 X144.305 Y118.492 E0.05972
G1 X144.181 Y118.874 E0.01788
G1 X143.289 Y117.981 E0.05626
G1 X143.251 Y118.219 E0.01072
G1 X143.173 Y118.371 E0.00763
G1 X144.017 Y119.215 E0.05322
G1 X143.847 Y119.550 E0.01675
G1 X143.003 Y118.706 E0.05322
G1 X142.832 Y119.041 E0.01675
G1 X143.645 Y119.854 E0.05125
G1 X143.432 Y120.147 E0.01613
G1 X142.647 Y119.362 E0.04949
G1 X142.394 Y119.614 E0.01593
G1 X143.197 Y120.417 E0.05062
G1 X142.945 Y120.670 E0.01593
G1 X142.142 Y119.867 E0.05061
G1 X141.889 Y120.120 E0.01593
G1 X142.678 Y120.909 E0.04976
G1 X142.386 Y121.122 E0.01613
G1 X141.577 Y120.314 E0.05096
G1 X141.242 Y120.484 E0.01675
G1 X142.086 Y121.328 E0.05322
G1 X141.752 Y121.499 E0.01675
G1 X140.907 Y120.655 E0.05322
G1 X140.719 Y120.751 E0.00945
G1 X140.528 Y120.781 E0.00859
G1 X141.415 Y121.668 E0.05588
G1 X141.033 Y121.791 E0.01788
G1 X140.092 Y120.850 E0.05934
G1 X139.656 Y120.919 E0.01969
G1 X140.648 Y121.912 E0.06256
G1 X140.212 Y121.981 E0.01969
G1 X139.163 Y120.932 E0.06610
G1 X138.658 Y120.932 E0.02253
G1 X139.769 Y122.044 E0.07006
G1 X139.288 Y122.068 E0.02149
G1 X138.152 Y120.932 E0.07158
G1 X137.647 Y120.932 E0.02253
G1 X138.782 Y122.068 E0.07158
G1 X138.277 Y122.068 E0.02253
G1 X137.141 Y120.932 E0.07158
G1 X136.636 Y120.932 E0.02253
G1 X137.771 Y122.068 E0.07158
G1 X137.266 Y122.068 E0.02253
G1 X136.130 Y120.932 E0.07158
G1 X135.625 Y120.932 E0.02253
G1 X136.760 Y122.068 E0.07158
G1 X136.255 Y122.068 E0.02253
G1 X135.120 Y120.932 E0.07158
G1 X134.614 Y120.932 E0.02253
G1 X135.749 Y122.068 E0.07158
G1 X135.244 Y122.068 E0.02253
G1 X134.109 Y120.932 E0.07158
G1 X133.603 Y120.932 E0.02253
G1 X134.738 Y122.068 E0.07158
G1 X134.233 Y122.068 E0.02253
G1 X133.098 Y120.932 E0.07158
G1 X132.592 Y120.932 E0.02253
G1 X133.728 Y122.068 E0.07158
G1 X133.222 Y122.068 E0.02253
G1 X132.087 Y120.932 E0.07158
G1 X131.581 Y120.932 E0.02253
G1 X132.717 Y122.068 E0.07158
G1 X132.211 Y122.068 E0.02253
G1 X131.076 Y120.932 E0.07158
G1 X130.570 Y120.932 E0.02253
G1 X131.706 Y122.068 E0.07158
G1 X131.200 Y122.068 E0.02253
G1 X130.065 Y120.932 E0.07158
G1 X129.559 Y120.932 E0.02253
G1 X130.695 Y122.068 E0.07158
G1 X130.189 Y122.068 E0.02253
G1 X129.054 Y120.932 E0.07158
M73 Q4 S21
G1 X128.548 Y120.932 E0.02253
G1 X129.684 Y122.068 E0.07158
G1 X129.178 Y122.068 E0.02253
G1 X128.043 Y120.932 E0.07158
M73 P4 R21
G1 X127.538 Y120.932 E0.02253
G1 X128.673 Y122.068 E0.07158
G1 X128.167 Y122.068 E0.02253
G1 X127.032 Y120.932 E0.07158
G1 X126.527 Y120.932 E0.02253
G1 X127.662 Y122.068 E0.07158
G1 X127.157 Y122.068 E0.02253
G1 X126.021 Y120.932 E0.07158
G1 X125.516 Y120.932 E0.02253
G1 X126.651 Y122.068 E0.07158
G1 X126.146 Y122.068 E0.02253
G1 X125.010 Y120.932 E0.07158
G1 X124.505 Y120.932 E0.02253
G1 X125.640 Y122.068 E0.07158
G1 X125.135 Y122.068 E0.02253
G1 X123.999 Y120.932 E0.07158
G1 X123.494 Y120.932 E0.02253
G1 X124.629 Y122.068 E0.07158
G1 X124.124 Y122.068 E0.02253
G1 X122.988 Y120.932 E0.07158
G1 X122.483 Y120.932 E0.02253
G1 X123.618 Y122.068 E0.07158
G1 X123.113 Y122.068 E0.02253
G1 X121.977 Y120.932 E0.07158
G1 X121.472 Y120.932 E0.02253
G1 X122.607 Y122.068 E0.07158
G1 X122.102 Y122.068 E0.02253
G1 X120.967 Y120.932 E0.07158
G1 X120.461 Y120.932 E0.02253
G1 X121.596 Y122.068 E0.07158
G1 X121.091 Y122.068 E0.02253
