; generated by Slic3r Prusa Edition 1.41.1 on 2018-11-09 at 23:11:45

; 

; external perimeters extrusion width = 0.45mm
; perimeters extrusion width = 0.45mm
; infill extrusion width = 0.45mm
; solid infill extrusion width = 0.45mm
; top infill extrusion width = 0.40mm
; first layer extrusion width = 0.42mm

M73 P0 R27
M73 Q0 S27
M201 X1000 Y1000 Z1000 E5000 ; sets maximum accelerations, mm/sec^2
M203 X200 Y200 Z12 E120 ; sets maximum feedrates, mm/sec
M204 P1250 R1250 T1250 ; sets acceleration (P, T) and retract acceleration (R), mm/sec^2
M205 X8.00 Y8.00 Z0.40 E1.50 ; sets the jerk limits, mm/sec
M205 S0 T0 ; sets the minimum extruding and travel feed rate, mm/sec
M107
M115 U3.4.0 ; tell printer latest fw version
M83  ; extruder relative mode
M104 S140 ; set extruder to warm-up temp
M140 S80 ; set bed temp
M190 S80 ; wait for bed temp
G28 W ; home all without mesh bed level
G80 ; mesh bed leveling
M104 S245 ; set extruder temp
M109 S245 ; wait for extruder temp
G1 Y-3.0 F1000.0 ; go outside print area
G92 E0.0
G1 X60.0 E9.0  F1000.0 ; intro line
M73 Q0 S27
M73 P0 R27
G1 X100.0 E12.5  F1000.0 ; intro line
G92 E0.0
M221 S95
M900 K45; Filament gcode
G21 ; set units to millimeters
G90 ; use absolute coordinates
M83 ; use relative distances for extrusion
;BEFORE_LAYER_CHANGE
G92 E0.0
;0.2


G1 E-0.80000 F2100.00000
G1 Z0.600 F10800.000
;AFTER_LAYER_CHANGE
;0.2
G1 X102.456 Y86.178
G1 Z0.200
G1 E0.80000 F2100.00000
M204 S20
G1 F1800
G1 X103.703 Y84.935 E0.05520
G1 X105.274 Y83.846 E0.05995
G1 X106.464 Y83.256 E0.04165
G1 X107.733 Y82.829 E0.04198
G1 X109.573 Y82.494 E0.05862
G1 X110.490 Y82.434 E0.02883
G1 X139.505 Y82.434 E0.90975
G1 X141.772 Y82.703 E0.07157
G1 X143.354 Y83.185 E0.05187
G1 X144.948 Y83.969 E0.05568
G1 X146.248 Y84.896 E0.05007
G1 X147.503 Y86.130 E0.05519
G1 X148.501 Y87.503 E0.05322
G1 X149.262 Y89.008 E0.05288
G1 X149.798 Y90.734 E0.05667
G1 X150.064 Y92.933 E0.06944
G1 X150.055 Y117.311 E0.76435
G1 X149.782 Y119.345 E0.06433
G1 X149.285 Y120.933 E0.05220
G1 X148.512 Y122.480 E0.05420
G1 X147.544 Y123.822 E0.05189
G1 X146.110 Y125.211 E0.06259
G1 X145.001 Y125.999 E0.04264
G1 X143.739 Y126.655 E0.04462
G1 X141.879 Y127.275 E0.06145
G1 X139.626 Y127.564 E0.07123
G1 X110.184 Y127.555 E0.92316
G1 X108.156 Y127.282 E0.06414
G1 X106.566 Y126.785 E0.05222
G1 X105.016 Y126.009 E0.05437
G1 X103.678 Y125.044 E0.05173
G1 X102.289 Y123.610 E0.06259
G1 X101.501 Y122.501 E0.04264
G1 X100.848 Y121.243 E0.04446
G1 X100.226 Y119.385 E0.06145
G1 X99.937 Y117.142 E0.07090
G1 X99.985 Y92.182 E0.78260
G1 X100.244 Y90.540 E0.05213
G1 X100.752 Y88.973 E0.05163
G1 X101.502 Y87.498 E0.05189
G1 X102.421 Y86.227 E0.04918
M204 S1000
G1 X102.727 Y86.449 F10800.000
M204 S20
G1 F1800
G1 X103.949 Y85.221 E0.05431
G1 X105.455 Y84.177 E0.05744
G1 X106.608 Y83.604 E0.04038
G1 X107.848 Y83.188 E0.04102
G1 X109.621 Y82.868 E0.05648
G1 X110.490 Y82.811 E0.02731
G1 X139.505 Y82.811 E0.90975
G1 X141.701 Y83.073 E0.06935
G1 X143.227 Y83.540 E0.05001
G1 X144.762 Y84.297 E0.05367
G1 X146.015 Y85.192 E0.04830
G1 X147.220 Y86.379 E0.05304
G1 X148.182 Y87.703 E0.05131
G1 X148.915 Y89.155 E0.05098
G1 X149.431 Y90.823 E0.05477
G1 X149.687 Y92.939 E0.06683
G1 X149.679 Y117.278 E0.76311
G1 X149.414 Y119.266 E0.06289
G1 X148.934 Y120.798 E0.05033
G1 X148.185 Y122.292 E0.05241
G1 X147.240 Y123.597 E0.05051
G1 X145.880 Y124.913 E0.05934
G1 X144.801 Y125.679 E0.04149
G1 X143.573 Y126.316 E0.04339
G1 X141.796 Y126.907 E0.05872
G1 X139.611 Y127.187 E0.06904
G1 X110.212 Y127.179 E0.92180
G1 X108.235 Y126.914 E0.06255
G1 X106.702 Y126.434 E0.05035
G1 X105.208 Y125.685 E0.05241
G1 X103.903 Y124.740 E0.05051
G1 X102.587 Y123.380 E0.05934
G1 X101.821 Y122.301 E0.04149
G1 X101.186 Y121.077 E0.04323
G1 X100.594 Y119.301 E0.05872
G1 X100.313 Y117.127 E0.06872
G1 X100.360 Y92.217 E0.78102
G1 X100.610 Y90.628 E0.05044
G1 X101.102 Y89.113 E0.04994
G1 X101.826 Y87.691 E0.05004
G1 X102.692 Y86.497 E0.04623
M204 S1000
; PURGING FINISHED
G1 F8640
G1 X103.949 Y85.221 E-0.41366
G1 X105.182 Y84.367 E-0.34634
G1 E-0.04000 F2100.00000
G1 Z0.800 F10800.000
G1 X107.510 Y90.828
G1 Z0.200
G1 E0.80000 F2100.00000
M204 S20
G1 F1800
G1 X108.328 Y90.010 E0.03625
G1 X109.358 Y89.485 E0.03625
G1 X110.446 Y89.313 E0.03454
G1 X139.554 Y89.313 E0.91266
G1 X140.642 Y89.485 E0.03454
G1 X141.672 Y90.010 E0.03626
G1 X142.490 Y90.828 E0.03625
G1 X143.015 Y91.858 E0.03626
G1 X143.187 Y92.946 E0.03454
G1 X143.187 Y117.054 E0.75589
G1 X143.015 Y118.142 E0.03454
G1 X142.490 Y119.172 E0.03625
G1 X141.672 Y119.990 E0.03625
G1 X140.642 Y120.515 E0.03626
G1 X139.554 Y120.687 E0.03453
G1 X110.446 Y120.687 E0.91267
G1 X109.358 Y120.515 E0.03454
G1 X108.328 Y119.990 E0.03625
G1 X107.510 Y119.172 E0.03625
G1 X106.985 Y118.142 E0.03625
G1 X106.813 Y117.054 E0.03454
G1 X106.813 Y92.946 E0.75589
G1 X106.985 Y91.858 E0.03453
G1 X107.483 Y90.881 E0.03438
M204 S1000
G1 X107.819 Y91.052 F10800.000
M204 S20
G1 F1800
G1 X108.552 Y90.319 E0.03251
G1 X109.476 Y89.848 E0.03251
G1 X110.476 Y89.690 E0.03173
G1 X139.524 Y89.690 E0.91080
G1 X140.524 Y89.848 E0.03173
G1 X141.448 Y90.319 E0.03251
G1 X142.181 Y91.052 E0.03250
G1 X142.652 Y91.976 E0.03251
G1 X142.810 Y92.976 E0.03173
G1 X142.810 Y117.024 E0.75403
G1 X142.652 Y118.024 E0.03173
G1 X142.181 Y118.948 E0.03251
G1 X141.448 Y119.681 E0.03251
G1 X140.524 Y120.152 E0.03251
G1 X139.524 Y120.310 E0.03173
G1 X110.476 Y120.310 E0.91081
G1 X109.476 Y120.152 E0.03173
G1 X108.552 Y119.681 E0.03251
G1 X107.819 Y118.948 E0.03251
G1 X107.348 Y118.024 E0.03251
G1 X107.190 Y117.024 E0.03173
G1 X107.190 Y92.976 E0.75403
G1 X107.348 Y91.976 E0.03173
G1 X107.792 Y91.106 E0.03062
M204 S1000
G1 X107.656 Y90.687 F10800.000
G1 F8640
G1 X108.552 Y90.319 E-0.25265
G1 X109.476 Y89.848 E-0.23941
G1 X110.476 Y89.690 E-0.23370
G1 X110.624 Y89.690 E-0.03424
G1 E-0.04000 F2100.00000
G1 Z0.800 F10800.000
G1 X105.988 Y90.235
G1 Z0.200
G1 E0.80000 F2100.00000
M204 S20
G1 F1800
G1 X106.476 Y89.563 E0.02604
G1 X107.063 Y88.976 E0.02604
G1 X107.735 Y88.488 E0.02604
G1 X108.475 Y88.111 E0.02604
G1 X109.265 Y87.854 E0.02604
G1 X110.112 Y87.720 E0.02689
G1 X110.527 Y87.687 E0.01307
G1 X139.476 Y87.687 E0.90767
G1 X139.888 Y87.720 E0.01298
G1 X140.735 Y87.854 E0.02689
G1 X141.525 Y88.111 E0.02604
G1 X142.265 Y88.488 E0.02604
G1 X142.937 Y88.976 E0.02604
G1 X143.524 Y89.563 E0.02604
G1 X144.012 Y90.235 E0.02604
G1 X144.389 Y90.975 E0.02604
G1 X144.646 Y91.765 E0.02604
G1 X144.780 Y92.612 E0.02689
G1 X144.813 Y93.027 E0.01307
G1 X144.813 Y116.973 E0.75081
G1 X144.780 Y117.388 E0.01307
G1 X144.646 Y118.235 E0.02689
G1 X144.389 Y119.025 E0.02604
G1 X144.012 Y119.765 E0.02604
G1 X143.524 Y120.437 E0.02604
G1 X142.937 Y121.024 E0.02604
G1 X142.265 Y121.512 E0.02604
G1 X141.525 Y121.889 E0.02604
G1 X140.735 Y122.146 E0.02604
G1 X139.888 Y122.280 E0.02689
G1 X139.473 Y122.313 E0.01307
G1 X110.527 Y122.313 E0.90758
G1 X110.112 Y122.280 E0.01307
G1 X109.265 Y122.146 E0.02689
G1 X108.475 Y121.889 E0.02604
G1 X107.735 Y121.512 E0.02604
G1 X107.063 Y121.024 E0.02604
G1 X106.476 Y120.437 E0.02604
G1 X105.988 Y119.765 E0.02604
G1 X105.611 Y119.025 E0.02604
G1 X105.354 Y118.235 E0.02604
G1 X105.220 Y117.388 E0.02689
G1 X105.187 Y116.973 E0.01307
G1 X105.187 Y93.027 E0.75081
G1 X105.220 Y92.612 E0.01307
G1 X105.354 Y91.765 E0.02689
G1 X105.611 Y90.975 E0.02604
G1 X105.960 Y90.288 E0.02416
M204 S1000
G1 X105.624 Y90.117 F10800.000
M204 S20
G1 F1800
G1 X105.665 Y90.037 E0.00281
G1 X106.188 Y89.317 E0.02790
G1 X106.817 Y88.688 E0.02790
G1 X107.537 Y88.165 E0.02790
G1 X108.330 Y87.761 E0.02790
G1 X109.176 Y87.486 E0.02790
G1 X110.067 Y87.345 E0.02828
G1 X110.512 Y87.310 E0.01400
G1 X139.491 Y87.310 E0.90860
G1 X139.933 Y87.345 E0.01391
G1 X140.824 Y87.486 E0.02828
G1 X141.670 Y87.761 E0.02790
G1 X142.463 Y88.165 E0.02790
G1 X143.183 Y88.688 E0.02790
G1 X143.812 Y89.317 E0.02790
G1 X144.335 Y90.037 E0.02790
G1 X144.739 Y90.830 E0.02790
G1 X145.014 Y91.676 E0.02790
G1 X145.155 Y92.567 E0.02828
G1 X145.190 Y93.012 E0.01400
G1 X145.190 Y116.988 E0.75174
G1 X145.155 Y117.433 E0.01400
G1 X145.014 Y118.324 E0.02828
G1 X144.739 Y119.170 E0.02790
G1 X144.335 Y119.963 E0.02790
G1 X143.812 Y120.683 E0.02790
G1 X143.183 Y121.312 E0.02790
G1 X142.463 Y121.835 E0.02790
G1 X141.670 Y122.239 E0.02790
G1 X140.824 Y122.514 E0.02790
G1 X139.933 Y122.655 E0.02828
G1 X139.488 Y122.690 E0.01400
G1 X110.512 Y122.690 E0.90851
G1 X110.067 Y122.655 E0.01400
G1 X109.176 Y122.514 E0.02828
G1 X108.330 Y122.239 E0.02790
G1 X107.537 Y121.835 E0.02790
G1 X106.817 Y121.312 E0.02790
G1 X106.188 Y120.683 E0.02790
G1 X105.665 Y119.963 E0.02790
G1 X105.261 Y119.170 E0.02790
G1 X104.986 Y118.324 E0.02790
G1 X104.845 Y117.433 E0.02828
G1 X104.810 Y116.988 E0.01400
G1 X104.810 Y93.012 E0.75174
G1 X104.845 Y92.567 E0.01400
G1 X104.986 Y91.676 E0.02828
G1 X105.261 Y90.830 E0.02790
G1 X105.597 Y90.171 E0.02321
M204 S1000
G1 X105.714 Y90.110 F10800.000
G1 F8640
G1 X105.665 Y90.037 E-0.03456
G1 X106.188 Y89.317 E-0.20547
G1 X106.817 Y88.688 E-0.20546
G1 X107.537 Y88.165 E-0.20546
G1 X107.958 Y87.951 E-0.10905
G1 E-0.04000 F2100.00000
G1 Z0.800 F10800.000
G1 X106.020 Y119.580
G1 Z0.200
G1 E0.80000 F2100.00000
M204 S20
G1 F1800
G1 X107.920 Y121.480 E0.08485
M204 S1000
G1 F8640
G1 X106.020 Y119.580 E-0.62059
G1 E-0.17941 F2100.00000
G1 Z0.800 F10800.000
G1 X108.879 Y121.902
G1 Z0.200
G1 E0.80000 F2100.00000
M204 S20
G1 F1800
G1 X105.862 Y118.885 E0.13470
G1 X105.620 Y118.105 E0.02578
G1 X109.599 Y122.085 E0.17766
M204 S1000
G1 F8640
G1 X107.271 Y119.757 E-0.76000
G1 E-0.04000 F2100.00000
G1 Z0.800 F10800.000
G1 X144.700 Y93.288
G1 Z0.200
G1 E0.80000 F2100.00000
M204 S20
G1 F1800
G1 X143.307 Y91.895 E0.06219
G1 X143.408 Y92.533 E0.02039
G1 X144.530 Y93.655 E0.05010
G1 X144.530 Y94.192 E0.01695
G1 X143.470 Y93.132 E0.04734
G1 X143.470 Y93.669 E0.01695
G1 X144.530 Y94.729 E0.04734
G1 X144.530 Y95.266 E0.01695
G1 X143.470 Y94.206 E0.04734
G1 X143.470 Y94.743 E0.01695
G1 X144.530 Y95.803 E0.04734
G1 X144.530 Y96.340 E0.01695
G1 X143.470 Y95.280 E0.04734
G1 X143.470 Y95.817 E0.01695
G1 X144.530 Y96.877 E0.04734
G1 X144.530 Y97.414 E0.01695
G1 X143.470 Y96.354 E0.04734
G1 X143.470 Y96.891 E0.01695
G1 X144.530 Y97.951 E0.04734
G1 X144.530 Y98.488 E0.01695
G1 X143.470 Y97.428 E0.04734
G1 X143.470 Y97.965 E0.01695
G1 X144.530 Y99.025 E0.04734
G1 X144.530 Y99.562 E0.01695
G1 X143.470 Y98.502 E0.04734
G1 X143.470 Y99.038 E0.01695
G1 X144.530 Y100.099 E0.04734
G1 X144.530 Y100.636 E0.01695
G1 X143.470 Y99.575 E0.04734
G1 X143.470 Y100.112 E0.01695
G1 X144.530 Y101.173 E0.04734
G1 X144.530 Y101.710 E0.01695
G1 X143.470 Y100.649 E0.04734
G1 X143.470 Y101.186 E0.01695
G1 X144.530 Y102.247 E0.04734
G1 X144.530 Y102.784 E0.01695
G1 X143.470 Y101.723 E0.04734
G1 X143.470 Y102.260 E0.01695
G1 X144.530 Y103.320 E0.04734
G1 X144.530 Y103.857 E0.01695
G1 X143.470 Y102.797 E0.04734
G1 X143.470 Y103.334 E0.01695
G1 X144.530 Y104.394 E0.04734
G1 X144.530 Y104.931 E0.01695
G1 X143.470 Y103.871 E0.04734
G1 X143.470 Y104.408 E0.01695
G1 X144.530 Y105.468 E0.04734
G1 X144.530 Y106.005 E0.01695
G1 X143.470 Y104.945 E0.04734
G1 X143.470 Y105.482 E0.01695
G1 X144.530 Y106.542 E0.04734
G1 X144.530 Y107.079 E0.01695
G1 X143.470 Y106.019 E0.04734
G1 X143.470 Y106.556 E0.01695
G1 X144.530 Y107.616 E0.04734
G1 X144.530 Y108.153 E0.01695
G1 X143.470 Y107.093 E0.04734
G1 X143.470 Y107.630 E0.01695
G1 X144.530 Y108.690 E0.04734
G1 X144.530 Y109.227 E0.01695
G1 X143.470 Y108.167 E0.04734
G1 X143.470 Y108.704 E0.01695
G1 X144.530 Y109.764 E0.04734
G1 X144.530 Y110.301 E0.01695
G1 X143.470 Y109.241 E0.04734
G1 X143.470 Y109.778 E0.01695
G1 X144.530 Y110.838 E0.04734
G1 X144.530 Y111.375 E0.01695
G1 X143.470 Y110.315 E0.04734
G1 X143.470 Y110.851 E0.01695
G1 X144.530 Y111.912 E0.04734
G1 X144.530 Y112.449 E0.01695
G1 X143.470 Y111.388 E0.04734
G1 X143.470 Y111.925 E0.01695
G1 X144.530 Y112.986 E0.04734
G1 X144.530 Y113.523 E0.01695
G1 X143.470 Y112.462 E0.04734
G1 X143.470 Y112.999 E0.01695
G1 X144.530 Y114.060 E0.04734
G1 X144.530 Y114.597 E0.01695
G1 X143.470 Y113.536 E0.04734
G1 X143.470 Y114.073 E0.01695
G1 X144.530 Y115.133 E0.04734
G1 X144.530 Y115.670 E0.01695
G1 X143.470 Y114.610 E0.04734
G1 X143.470 Y115.147 E0.01695
G1 X144.530 Y116.207 E0.04734
G1 X144.530 Y116.744 E0.01695
G1 X143.470 Y115.684 E0.04734
G1 X143.470 Y116.221 E0.01695
G1 X144.507 Y117.258 E0.04630
G1 X144.499 Y117.355 E0.00308
G1 X144.440 Y117.728 E0.01192
G1 X143.470 Y116.758 E0.04332
G1 X143.470 Y117.076 E0.01005
G1 X143.440 Y117.265 E0.00603
G1 X144.364 Y118.189 E0.04125
G1 X144.232 Y118.594 E0.01345
G1 X143.367 Y117.729 E0.03865
G1 X143.293 Y118.192 E0.01482
G1 X144.090 Y118.989 E0.03559
G1 X143.909 Y119.345 E0.01260
G1 X143.121 Y118.557 E0.03520
G1 X142.940 Y118.912 E0.01260
G1 X143.717 Y119.690 E0.03473
G1 X143.491 Y120.001 E0.01214
G1 X142.758 Y119.268 E0.03273
G1 X142.721 Y119.341 E0.00257
G1 X142.508 Y119.554 E0.00955
G1 X143.257 Y120.304 E0.03348
G1 X142.989 Y120.573 E0.01199
G1 X142.239 Y119.823 E0.03347
G1 X141.971 Y120.091 E0.01199
G1 X142.715 Y120.836 E0.03324
G1 X142.404 Y121.062 E0.01214
G1 X141.657 Y120.315 E0.03335
G1 X141.302 Y120.496 E0.01260
G1 X142.090 Y121.284 E0.03520
G1 X141.734 Y121.466 E0.01260
G1 X140.946 Y120.677 E0.03520
G1 X140.730 Y120.787 E0.00763
G1 X140.548 Y120.816 E0.00585
G1 X141.373 Y121.642 E0.03686
G1 X140.968 Y121.773 E0.01345
G1 X140.084 Y120.889 E0.03946
G1 X139.620 Y120.963 E0.01482
G1 X140.547 Y121.890 E0.04138
G1 X140.084 Y121.963 E0.01482
G1 X139.090 Y120.970 E0.04434
G1 X138.554 Y120.970 E0.01695
G1 X139.603 Y122.019 E0.04684
G1 X139.077 Y122.030 E0.01661
G1 X138.017 Y120.970 E0.04734
G1 X137.480 Y120.970 E0.01695
G1 X138.540 Y122.030 E0.04734
G1 X138.003 Y122.030 E0.01695
G1 X136.943 Y120.970 E0.04734
G1 X136.406 Y120.970 E0.01695
G1 X137.466 Y122.030 E0.04734
G1 X136.929 Y122.030 E0.01695
G1 X135.869 Y120.970 E0.04734
G1 X135.332 Y120.970 E0.01695
G1 X136.392 Y122.030 E0.04734
G1 X135.855 Y122.030 E0.01695
G1 X134.795 Y120.970 E0.04734
G1 X134.258 Y120.970 E0.01695
G1 X135.318 Y122.030 E0.04734
G1 X134.781 Y122.030 E0.01695
G1 X133.721 Y120.970 E0.04734
G1 X133.184 Y120.970 E0.01695
G1 X134.244 Y122.030 E0.04734
G1 X133.707 Y122.030 E0.01695
G1 X132.647 Y120.970 E0.04734
G1 X132.110 Y120.970 E0.01695
G1 X133.170 Y122.030 E0.04734
G1 X132.633 Y122.030 E0.01695
G1 X131.573 Y120.970 E0.04734
G1 X131.036 Y120.970 E0.01695
G1 X132.096 Y122.030 E0.04734
G1 X131.559 Y122.030 E0.01695
G1 X130.499 Y120.970 E0.04734
G1 X129.962 Y120.970 E0.01695
G1 X131.023 Y122.030 E0.04734
G1 X130.486 Y122.030 E0.01695
G1 X129.425 Y120.970 E0.04734
G1 X128.888 Y120.970 E0.01695
G1 X129.949 Y122.030 E0.04734
G1 X129.412 Y122.030 E0.01695
G1 X128.351 Y120.970 E0.04734
G1 X127.814 Y120.970 E0.01695
G1 X128.875 Y122.030 E0.04734
G1 X128.338 Y122.030 E0.01695
G1 X127.277 Y120.970 E0.04734
G1 X126.741 Y120.970 E0.01695
G1 X127.801 Y122.030 E0.04734
G1 X127.264 Y122.030 E0.01695
G1 X126.204 Y120.970 E0.04734
G1 X125.667 Y120.970 E0.01695
G1 X126.727 Y122.030 E0.04734
G1 X126.190 Y122.030 E0.01695
G1 X125.130 Y120.970 E0.04734
G1 X124.593 Y120.970 E0.01695
M73 Q3 S26
G1 X125.653 Y122.030 E0.04734
G1 X125.116 Y122.030 E0.01695
G1 X124.056 Y120.970 E0.04734
G1 X123.519 Y120.970 E0.01695
M73 P3 R26
G1 X124.579 Y122.030 E0.04734
G1 X124.042 Y122.030 E0.01695
G1 X122.982 Y120.970 E0.04734
G1 X122.445 Y120.970 E0.01695
G1 X123.505 Y122.030 E0.04734
G1 X122.968 Y122.030 E0.01695
G1 X121.908 Y120.970 E0.04734
G1 X121.371 Y120.970 E0.01695
G1 X122.431 Y122.030 E0.04734
G1 X121.894 Y122.030 E0.01695
G1 X120.834 Y120.970 E0.04734
G1 X120.297 Y120.970 E0.01695
G1 X121.357 Y122.030 E0.04734
G1 X120.820 Y122.030 E0.01695
G1 X119.760 Y120.970 E0.04734
G1 X119.223 Y120.970 E0.01695
G1 X120.283 Y122.030 E0.04734
G1 X119.746 Y122.030 E0.01695
G1 X118.686 Y120.970 E0.04734
G1 X118.149 Y120.970 E0.01695
G1 X119.210 Y122.030 E0.04734
G1 X118.673 Y122.030 E0.01695
G1 X117.612 Y120.970 E0.04734
G1 X117.075 Y120.970 E0.01695
G1 X118.136 Y122.030 E0.04734
G1 X117.599 Y122.030 E0.01695
G1 X116.538 Y120.970 E0.04734
