; generated by Slic3r Prusa Edition 1.41.1 on 2018-11-10 at 11:23:38

; 

; external perimeters extrusion width = 0.45mm
; perimeters extrusion width = 0.45mm
; infill extrusion width = 0.45mm
; solid infill extrusion width = 0.45mm
; top infill extrusion width = 0.40mm
; first layer extrusion width = 0.42mm

M73 P0 R52
M73 Q0 S52
M201 X1000 Y1000 Z1000 E5000 ; sets maximum accelerations, mm/sec^2
M203 X200 Y200 Z12 E120 ; sets maximum feedrates, mm/sec
M204 P1250 R1250 T1250 ; sets acceleration (P, T) and retract acceleration (R), mm/sec^2
M205 X8.00 Y8.00 Z0.40 E1.50 ; sets the jerk limits, mm/sec
M205 S0 T0 ; sets the minimum extruding and travel feed rate, mm/sec
M107
M115 U3.4.0 ; tell printer latest fw version
M83  ; extruder relative mode
M104 S140 ; set extruder to warm-up temp
M140 S80 ; set bed temp
M190 S80 ; wait for bed temp
G28 W ; home all without mesh bed level
G80 ; mesh bed leveling
M104 S245 ; set extruder temp
M109 S245 ; wait for extruder temp
G1 Y-3.0 F1000.0 ; go outside print area
G92 E0.0
G1 X60.0 E9.0  F1000.0 ; intro line
M73 Q0 S52
M73 P0 R52
G1 X100.0 E12.5  F1000.0 ; intro line
G92 E0.0
M221 S95
M900 K45; Filament gcode
G21 ; set units to millimeters
G90 ; use absolute coordinates
M83 ; use relative distances for extrusion
;BEFORE_LAYER_CHANGE
G92 E0.0
;0.3


G1 E-0.80000 F2100.00000
G1 Z0.600 F10800.000
;AFTER_LAYER_CHANGE
;0.3
G1 X90.299 Y76.297
G1 Z0.300
G1 E0.80000 F2100.00000
M204 S20
G1 F1800
G1 X93.155 Y73.158 E0.18820
G1 X96.296 Y70.300 E0.18840
G1 X99.689 Y67.752 E0.18819
G1 X103.307 Y65.536 E0.18820
G1 X107.181 Y63.642 E0.19123
G1 X111.152 Y62.149 E0.18817
G1 X113.798 Y61.382 E0.12220
G1 X116.492 Y60.778 E0.12245
G1 X120.759 Y60.167 E0.19120
G1 X125.008 Y59.967 E0.18866
G1 X129.240 Y60.167 E0.18795
G1 X133.503 Y60.777 E0.19099
G1 X137.632 Y61.775 E0.18842
G1 X140.257 Y62.630 E0.12243
G1 X142.819 Y63.642 E0.12220
G1 X146.693 Y65.536 E0.19124
G1 X150.310 Y67.752 E0.18817
G1 X153.707 Y70.303 E0.18842
G1 X156.845 Y73.158 E0.18820
G1 X159.697 Y76.292 E0.18794
G1 X162.248 Y79.689 E0.18842
G1 X164.464 Y83.307 E0.18820
G1 X166.358 Y87.181 E0.19123
G1 X167.851 Y91.152 E0.18817
G1 X168.619 Y93.803 E0.12243
G1 X169.222 Y96.492 E0.12221
G1 X169.833 Y100.759 E0.19120
G1 X170.033 Y104.997 E0.18819
G1 X169.833 Y109.240 E0.18842
G1 X169.223 Y113.503 E0.19099
G1 X168.225 Y117.632 E0.18842
G1 X167.372 Y120.252 E0.12220
G1 X166.358 Y122.819 E0.12244
G1 X164.464 Y126.693 E0.19124
G1 X162.248 Y130.310 E0.18818
G1 X159.701 Y133.703 E0.18818
G1 X156.845 Y136.842 E0.18820
G1 X153.708 Y139.697 E0.18817
G1 X150.311 Y142.248 E0.18842
G1 X146.693 Y144.464 E0.18820
G1 X142.819 Y146.358 E0.19123
G1 X138.848 Y147.851 E0.18817
G1 X136.197 Y148.619 E0.12243
G1 X133.508 Y149.222 E0.12221
G1 X129.241 Y149.833 E0.19120
G1 X124.998 Y150.033 E0.18843
G1 X120.760 Y149.833 E0.18819
G1 X116.497 Y149.223 E0.19099
G1 X112.368 Y148.225 E0.18842
G1 X109.743 Y147.370 E0.12244
G1 X107.181 Y146.358 E0.12220
G1 X103.307 Y144.464 E0.19124
G1 X99.690 Y142.248 E0.18818
G1 X96.293 Y139.697 E0.18842
G1 X93.158 Y136.845 E0.18796
G1 X90.300 Y133.704 E0.18840
G1 X87.752 Y130.311 E0.18819
G1 X85.536 Y126.693 E0.18820
G1 X83.642 Y122.819 E0.19123
G1 X82.149 Y118.848 E0.18817
G1 X81.381 Y116.197 E0.12244
G1 X80.778 Y113.508 E0.12221
G1 X80.167 Y109.241 E0.19120
G1 X79.967 Y105.003 E0.18820
G1 X80.167 Y100.760 E0.18842
G1 X80.777 Y96.497 E0.19099
G1 X81.775 Y92.368 E0.18842
G1 X82.628 Y89.748 E0.12220
G1 X83.642 Y87.181 E0.12244
G1 X85.536 Y83.307 E0.19124
G1 X87.752 Y79.690 E0.18817
G1 X90.263 Y76.345 E0.18552
M204 S1000
G1 X90.547 Y76.558 F10800.000
M204 S20
G1 F1800
G1 X93.408 Y73.408 E0.18874
G1 X96.521 Y70.575 E0.18669
G1 X99.891 Y68.045 E0.18693
G1 X103.481 Y65.846 E0.18672
G1 X107.317 Y63.971 E0.18938
G1 X109.866 Y62.964 E0.12155
G1 X112.473 Y62.115 E0.12160
G1 X116.569 Y61.125 E0.18692
G1 X120.790 Y60.521 E0.18915
G1 X125.005 Y60.322 E0.18716
G1 X129.210 Y60.521 E0.18670
G1 X133.431 Y61.125 E0.18917
G1 X137.527 Y62.115 E0.18691
G1 X140.134 Y62.963 E0.12158
G1 X142.683 Y63.971 E0.12157
G1 X146.519 Y65.846 E0.18941
G1 X150.108 Y68.045 E0.18669
G1 X153.479 Y70.575 E0.18692
G1 X156.592 Y73.408 E0.18671
G1 X159.425 Y76.521 E0.18669
G1 X161.955 Y79.891 E0.18693
G1 X164.154 Y83.481 E0.18672
G1 X166.029 Y87.317 E0.18938
G1 X167.036 Y89.866 E0.12155
G1 X167.885 Y92.473 E0.12160
G1 X168.875 Y96.569 E0.18692
G1 X169.480 Y100.795 E0.18937
G1 X169.678 Y105.000 E0.18671
G1 X169.479 Y109.210 E0.18692
G1 X168.875 Y113.431 E0.18917
G1 X167.885 Y117.527 E0.18690
G1 X167.037 Y120.134 E0.12159
G1 X166.029 Y122.683 E0.12157
G1 X164.154 Y126.519 E0.18941
G1 X161.955 Y130.108 E0.18669
G1 X159.425 Y133.479 E0.18692
G1 X156.592 Y136.592 E0.18671
G1 X153.479 Y139.425 E0.18669
G1 X150.109 Y141.955 E0.18693
G1 X146.523 Y144.152 E0.18649
G1 X142.683 Y146.029 E0.18961
G1 X138.744 Y147.511 E0.18669
G1 X136.111 Y148.274 E0.12158
G1 X133.436 Y148.874 E0.12158
G1 X129.210 Y149.479 E0.18937
G1 X125.000 Y149.678 E0.18693
G1 X120.790 Y149.479 E0.18692
G1 X116.569 Y148.875 E0.18917
G1 X112.473 Y147.885 E0.18690
G1 X109.866 Y147.037 E0.12159
G1 X107.317 Y146.029 E0.12157
G1 X103.481 Y144.154 E0.18941
G1 X99.887 Y141.952 E0.18691
G1 X96.521 Y139.425 E0.18670
G1 X93.408 Y136.592 E0.18671
G1 X90.575 Y133.479 E0.18669
G1 X88.045 Y130.109 E0.18693
G1 X85.846 Y126.519 E0.18672
G1 X83.971 Y122.683 E0.18938
G1 X82.489 Y118.744 E0.18669
G1 X81.726 Y116.111 E0.12159
G1 X81.126 Y113.436 E0.12158
G1 X80.521 Y109.210 E0.18937
G1 X80.322 Y105.000 E0.18693
G1 X80.521 Y100.790 E0.18692
G1 X81.125 Y96.569 E0.18917
G1 X82.115 Y92.473 E0.18691
G1 X82.963 Y89.866 E0.12159
G1 X83.971 Y87.317 E0.12157
G1 X85.846 Y83.481 E0.18941
G1 X88.045 Y79.892 E0.18669
G1 X90.511 Y76.606 E0.18222
M204 S1000
; PURGING FINISHED
G1 F8640
G1 X92.721 Y74.167 E-0.76000
G1 E-0.04000 F2100.00000
G1 Z0.900 F10800.000
G1 X94.288 Y79.632
G1 Z0.300
G1 E0.80000 F2100.00000
M204 S20
G1 F1800
G1 X95.120 Y78.657 E0.05683
G1 X95.962 Y77.732 E0.05551
G1 X96.833 Y76.833 E0.05550
G1 X97.732 Y75.962 E0.05550
G1 X98.657 Y75.120 E0.05551
G1 X99.609 Y74.307 E0.05550
G1 X100.585 Y73.525 E0.05551
G1 X101.586 Y72.773 E0.05550
G1 X102.610 Y72.054 E0.05550
G1 X103.656 Y71.367 E0.05550
G1 X104.723 Y70.713 E0.05550
G1 X105.810 Y70.093 E0.05551
G1 X106.916 Y69.507 E0.05551
G1 X108.039 Y68.957 E0.05550
G1 X109.180 Y68.442 E0.05551
G1 X110.336 Y67.963 E0.05551
G1 X111.507 Y67.521 E0.05550
G1 X112.691 Y67.115 E0.05550
G1 X113.887 Y66.747 E0.05551
G1 X115.094 Y66.417 E0.05550
G1 X116.310 Y66.125 E0.05550
G1 X117.536 Y65.871 E0.05551
G1 X118.769 Y65.656 E0.05550
G1 X120.007 Y65.480 E0.05550
G1 X121.251 Y65.342 E0.05551
G1 X122.499 Y65.244 E0.05550
G1 X123.749 Y65.185 E0.05551
G1 X125.000 Y65.166 E0.05551
G1 X126.251 Y65.185 E0.05551
G1 X127.501 Y65.244 E0.05551
G1 X128.749 Y65.342 E0.05550
G1 X129.993 Y65.480 E0.05551
G1 X131.231 Y65.656 E0.05550
G1 X132.464 Y65.871 E0.05550
G1 X133.690 Y66.125 E0.05551
G1 X134.906 Y66.417 E0.05550
G1 X136.113 Y66.747 E0.05550
G1 X137.309 Y67.115 E0.05551
G1 X138.493 Y67.521 E0.05550
G1 X139.664 Y67.963 E0.05550
G1 X140.820 Y68.442 E0.05551
G1 X141.961 Y68.957 E0.05551
G1 X143.084 Y69.507 E0.05550
G1 X144.190 Y70.093 E0.05551
G1 X145.277 Y70.713 E0.05551
G1 X146.344 Y71.367 E0.05550
G1 X147.390 Y72.054 E0.05550
G1 X148.414 Y72.773 E0.05550
G1 X149.415 Y73.525 E0.05550
G1 X150.391 Y74.307 E0.05551
G1 X151.343 Y75.120 E0.05550
G1 X152.268 Y75.962 E0.05551
G1 X153.167 Y76.833 E0.05550
G1 X154.038 Y77.732 E0.05550
G1 X154.880 Y78.657 E0.05551
G1 X155.693 Y79.609 E0.05550
G1 X156.475 Y80.585 E0.05551
G1 X157.190 Y81.537 E0.05277
G1 X157.946 Y82.610 E0.05825
G1 X158.633 Y83.656 E0.05549
G1 X159.287 Y84.723 E0.05550
G1 X159.907 Y85.810 E0.05551
G1 X160.493 Y86.916 E0.05551
G1 X161.043 Y88.039 E0.05550
G1 X161.558 Y89.180 E0.05551
G1 X162.037 Y90.336 E0.05551
G1 X162.479 Y91.507 E0.05550
G1 X162.885 Y92.691 E0.05550
G1 X163.253 Y93.887 E0.05551
G1 X163.583 Y95.094 E0.05550
G1 X163.875 Y96.310 E0.05550
G1 X164.129 Y97.536 E0.05551
G1 X164.344 Y98.769 E0.05550
G1 X164.520 Y100.007 E0.05550
G1 X164.658 Y101.251 E0.05551
G1 X164.756 Y102.499 E0.05550
G1 X164.815 Y103.749 E0.05550
G1 X164.834 Y105.000 E0.05551
G1 X164.815 Y106.251 E0.05551
G1 X164.756 Y107.501 E0.05550
G1 X164.658 Y108.749 E0.05550
G1 X164.520 Y109.993 E0.05551
G1 X164.344 Y111.231 E0.05550
G1 X164.129 Y112.464 E0.05550
G1 X163.875 Y113.690 E0.05551
G1 X163.583 Y114.906 E0.05550
G1 X163.269 Y116.054 E0.05277
G1 X162.885 Y117.310 E0.05826
G1 X162.479 Y118.493 E0.05549
G1 X162.037 Y119.664 E0.05550
G1 X161.558 Y120.820 E0.05551
G1 X161.043 Y121.961 E0.05551
G1 X160.493 Y123.084 E0.05550
G1 X159.907 Y124.190 E0.05551
G1 X159.287 Y125.277 E0.05551
G1 X158.633 Y126.344 E0.05550
G1 X157.946 Y127.390 E0.05550
G1 X157.227 Y128.414 E0.05550
G1 X156.475 Y129.415 E0.05550
G1 X155.693 Y130.391 E0.05551
G1 X154.880 Y131.343 E0.05550
G1 X154.038 Y132.268 E0.05551
G1 X153.167 Y133.167 E0.05550
G1 X152.268 Y134.038 E0.05550
G1 X151.343 Y134.880 E0.05551
G1 X150.391 Y135.693 E0.05550
G1 X149.415 Y136.475 E0.05551
G1 X148.414 Y137.227 E0.05550
G1 X147.390 Y137.946 E0.05550
G1 X146.344 Y138.633 E0.05550
G1 X145.277 Y139.287 E0.05550
G1 X144.190 Y139.907 E0.05551
G1 X143.084 Y140.493 E0.05551
G1 X141.961 Y141.043 E0.05550
G1 X140.820 Y141.558 E0.05551
G1 X139.664 Y142.037 E0.05551
G1 X138.493 Y142.479 E0.05550
G1 X137.309 Y142.885 E0.05550
G1 X136.113 Y143.253 E0.05551
G1 X134.906 Y143.583 E0.05550
G1 X133.690 Y143.875 E0.05550
G1 X132.464 Y144.129 E0.05551
G1 X131.231 Y144.344 E0.05550
G1 X129.993 Y144.520 E0.05550
G1 X128.749 Y144.658 E0.05551
G1 X127.501 Y144.756 E0.05550
G1 X126.251 Y144.815 E0.05550
G1 X125.000 Y144.834 E0.05551
G1 X123.749 Y144.815 E0.05551
G1 X122.499 Y144.756 E0.05550
G1 X121.251 Y144.658 E0.05550
G1 X120.007 Y144.520 E0.05551
G1 X118.769 Y144.344 E0.05550
G1 X117.536 Y144.129 E0.05550
G1 X116.310 Y143.875 E0.05551
G1 X115.094 Y143.583 E0.05550
G1 X113.887 Y143.253 E0.05550
G1 X112.691 Y142.885 E0.05551
G1 X111.507 Y142.479 E0.05550
G1 X110.336 Y142.037 E0.05550
G1 X109.180 Y141.558 E0.05551
G1 X108.039 Y141.043 E0.05551
G1 X106.916 Y140.493 E0.05550
G1 X105.810 Y139.907 E0.05551
G1 X104.723 Y139.287 E0.05551
G1 X103.656 Y138.633 E0.05550
G1 X102.610 Y137.946 E0.05550
G1 X101.586 Y137.227 E0.05550
G1 X100.585 Y136.475 E0.05550
G1 X99.609 Y135.693 E0.05551
G1 X98.657 Y134.880 E0.05550
G1 X97.732 Y134.038 E0.05551
G1 X96.833 Y133.167 E0.05550
G1 X95.962 Y132.268 E0.05550
G1 X95.120 Y131.343 E0.05551
G1 X94.307 Y130.391 E0.05550
G1 X93.525 Y129.415 E0.05551
G1 X92.773 Y128.414 E0.05550
G1 X92.054 Y127.390 E0.05550
G1 X91.367 Y126.344 E0.05550
G1 X90.713 Y125.277 E0.05550
G1 X90.093 Y124.190 E0.05551
G1 X89.507 Y123.084 E0.05551
G1 X88.957 Y121.961 E0.05550
G1 X88.442 Y120.820 E0.05551
G1 X87.963 Y119.664 E0.05551
G1 X87.521 Y118.493 E0.05550
G1 X87.115 Y117.309 E0.05550
G1 X86.765 Y116.172 E0.05277
G1 X86.417 Y114.906 E0.05826
G1 X86.125 Y113.690 E0.05548
G1 X85.871 Y112.464 E0.05551
G1 X85.656 Y111.231 E0.05550
G1 X85.480 Y109.993 E0.05550
G1 X85.342 Y108.749 E0.05551
G1 X85.244 Y107.501 E0.05550
G1 X85.185 Y106.251 E0.05551
G1 X85.166 Y105.000 E0.05551
G1 X85.185 Y103.749 E0.05551
G1 X85.244 Y102.499 E0.05551
G1 X85.342 Y101.251 E0.05550
G1 X85.480 Y100.007 E0.05551
G1 X85.656 Y98.769 E0.05550
G1 X85.871 Y97.536 E0.05550
G1 X86.125 Y96.310 E0.05551
G1 X86.417 Y95.094 E0.05550
G1 X86.731 Y93.946 E0.05277
G1 X87.115 Y92.690 E0.05826
G1 X87.521 Y91.507 E0.05548
G1 X87.963 Y90.336 E0.05550
G1 X88.442 Y89.180 E0.05551
G1 X88.957 Y88.039 E0.05551
G1 X89.507 Y86.916 E0.05550
G1 X90.093 Y85.810 E0.05551
G1 X90.713 Y84.723 E0.05551
G1 X91.367 Y83.656 E0.05550
G1 X92.054 Y82.610 E0.05550
G1 X92.773 Y81.586 E0.05550
G1 X93.525 Y80.585 E0.05550
G1 X94.251 Y79.679 E0.05152
M204 S1000
G1 X93.973 Y79.456 F10800.000
M204 S20
G1 F1800
G1 X94.853 Y78.422 E0.06023
G1 X95.703 Y77.488 E0.05600
G1 X96.581 Y76.581 E0.05600
G1 X97.488 Y75.703 E0.05600
G1 X98.422 Y74.853 E0.05600
G1 X99.382 Y74.033 E0.05600
G1 X100.367 Y73.244 E0.05600
G1 X101.377 Y72.486 E0.05600
G1 X102.410 Y71.760 E0.05600
G1 X103.465 Y71.066 E0.05600
G1 X104.542 Y70.407 E0.05600
G1 X105.638 Y69.781 E0.05600
G1 X106.754 Y69.190 E0.05600
G1 X107.888 Y68.635 E0.05600
G1 X109.039 Y68.115 E0.05600
G1 X110.205 Y67.632 E0.05600
G1 X111.386 Y67.186 E0.05600
G1 X112.581 Y66.777 E0.05600
G1 X113.787 Y66.406 E0.05600
G1 X115.005 Y66.073 E0.05600
G1 X116.233 Y65.778 E0.05600
G1 X117.469 Y65.522 E0.05600
G1 X118.713 Y65.305 E0.05600
G1 X119.963 Y65.127 E0.05600
G1 X121.218 Y64.988 E0.05600
G1 X122.476 Y64.889 E0.05600
G1 X123.738 Y64.830 E0.05600
G1 X125.000 Y64.810 E0.05600
G1 X126.262 Y64.830 E0.05600
G1 X127.524 Y64.889 E0.05600
G1 X128.782 Y64.988 E0.05600
G1 X130.037 Y65.127 E0.05600
G1 X131.287 Y65.305 E0.05600
G1 X132.531 Y65.522 E0.05600
G1 X133.767 Y65.778 E0.05600
G1 X134.995 Y66.073 E0.05600
G1 X136.213 Y66.406 E0.05600
G1 X137.419 Y66.777 E0.05600
G1 X138.614 Y67.186 E0.05600
G1 X139.795 Y67.632 E0.05600
G1 X140.961 Y68.115 E0.05600
G1 X142.112 Y68.635 E0.05600
G1 X143.246 Y69.190 E0.05600
G1 X144.362 Y69.781 E0.05600
G1 X145.458 Y70.407 E0.05600
G1 X146.535 Y71.066 E0.05600
G1 X147.590 Y71.760 E0.05600
G1 X148.623 Y72.486 E0.05600
G1 X149.633 Y73.244 E0.05600
G1 X150.618 Y74.033 E0.05600
G1 X151.578 Y74.853 E0.05600
G1 X152.512 Y75.703 E0.05600
G1 X153.419 Y76.581 E0.05600
G1 X154.297 Y77.488 E0.05600
G1 X155.147 Y78.422 E0.05600
G1 X155.967 Y79.382 E0.05600
G1 X156.756 Y80.367 E0.05600
G1 X157.477 Y81.327 E0.05325
G1 X158.240 Y82.410 E0.05875
G1 X158.934 Y83.465 E0.05599
G1 X159.593 Y84.542 E0.05600
G1 X160.219 Y85.638 E0.05600
G1 X160.810 Y86.754 E0.05600
G1 X161.365 Y87.888 E0.05600
G1 X161.885 Y89.039 E0.05600
G1 X162.368 Y90.205 E0.05600
G1 X162.814 Y91.386 E0.05600
G1 X163.223 Y92.581 E0.05600
G1 X163.594 Y93.787 E0.05600
G1 X163.927 Y95.005 E0.05600
G1 X164.222 Y96.233 E0.05600
G1 X164.478 Y97.469 E0.05600
G1 X164.695 Y98.713 E0.05600
G1 X164.873 Y99.963 E0.05600
G1 X165.012 Y101.218 E0.05600
G1 X165.111 Y102.476 E0.05600
G1 X165.170 Y103.738 E0.05600
G1 X165.190 Y105.000 E0.05600
G1 X165.170 Y106.262 E0.05600
G1 X165.111 Y107.524 E0.05600
G1 X165.012 Y108.782 E0.05600
G1 X164.873 Y110.037 E0.05600
G1 X164.695 Y111.287 E0.05600
G1 X164.478 Y112.531 E0.05600
G1 X164.222 Y113.767 E0.05600
G1 X163.927 Y114.995 E0.05600
G1 X163.610 Y116.153 E0.05326
G1 X163.223 Y117.420 E0.05875
G1 X162.814 Y118.614 E0.05599
G1 X162.368 Y119.795 E0.05600
G1 X161.885 Y120.961 E0.05600
G1 X161.365 Y122.112 E0.05600
G1 X160.810 Y123.246 E0.05600
G1 X160.219 Y124.362 E0.05600
G1 X159.593 Y125.458 E0.05600
G1 X158.934 Y126.535 E0.05600
G1 X158.240 Y127.590 E0.05600
G1 X157.514 Y128.623 E0.05600
G1 X156.756 Y129.633 E0.05600
G1 X155.967 Y130.618 E0.05600
G1 X155.147 Y131.578 E0.05600
G1 X154.297 Y132.512 E0.05600
G1 X153.419 Y133.419 E0.05600
G1 X152.512 Y134.297 E0.05600
G1 X151.578 Y135.147 E0.05600
G1 X150.618 Y135.967 E0.05600
G1 X149.633 Y136.756 E0.05600
G1 X148.623 Y137.514 E0.05600
G1 X147.590 Y138.240 E0.05600
G1 X146.535 Y138.934 E0.05600
G1 X145.458 Y139.593 E0.05600
G1 X144.362 Y140.219 E0.05600
G1 X143.246 Y140.810 E0.05600
G1 X142.112 Y141.365 E0.05600
G1 X140.961 Y141.885 E0.05600
G1 X139.795 Y142.368 E0.05600
G1 X138.614 Y142.814 E0.05600
G1 X137.419 Y143.223 E0.05600
G1 X136.213 Y143.594 E0.05600
G1 X134.995 Y143.927 E0.05600
G1 X133.767 Y144.222 E0.05600
G1 X132.531 Y144.478 E0.05600
G1 X131.287 Y144.695 E0.05600
G1 X130.037 Y144.873 E0.05600
G1 X128.782 Y145.012 E0.05600
G1 X127.524 Y145.111 E0.05600
G1 X126.262 Y145.170 E0.05600
G1 X125.000 Y145.190 E0.05600
G1 X123.738 Y145.170 E0.05600
G1 X122.476 Y145.111 E0.05600
G1 X121.218 Y145.012 E0.05600
G1 X119.963 Y144.873 E0.05600
G1 X118.713 Y144.695 E0.05600
G1 X117.469 Y144.478 E0.05600
G1 X116.233 Y144.222 E0.05600
G1 X115.005 Y143.927 E0.05600
G1 X113.787 Y143.594 E0.05600
G1 X112.581 Y143.223 E0.05600
G1 X111.386 Y142.814 E0.05600
G1 X110.205 Y142.368 E0.05600
G1 X109.039 Y141.885 E0.05600
G1 X107.888 Y141.365 E0.05600
