; generated by PrusaSlicer 2.0.0 on 2019-08-30 at 23:33:02

; 

; external perimeters extrusion width = 0.45mm
; perimeters extrusion width = 0.45mm
; infill extrusion width = 0.45mm
; solid infill extrusion width = 0.45mm
; top infill extrusion width = 0.40mm
; first layer extrusion width = 0.42mm

M73 P0 R145
M73 Q0 S147
M201 X1000 Y1000 Z1000 E5000 ; sets maximum accelerations, mm/sec^2
M203 X200 Y200 Z12 E120 ; sets maximum feedrates, mm/sec
M204 P1250 R1250 T1250 ; sets acceleration (P, T) and retract acceleration (R), mm/sec^2
M205 X8.00 Y8.00 Z0.40 E1.50 ; sets the jerk limits, mm/sec
M205 S0 T0 ; sets the minimum extruding and travel feed rate, mm/sec
M107
M115 U3.4.0 ; tell printer latest fw version
M83  ; extruder relative mode
M104 S140 ; set extruder to warm-up temp
M140 S80 ; set bed temp
M190 S80 ; wait for bed temp
G28 W ; home all without mesh bed level
G80 ; mesh bed leveling
M104 S250 ; set extruder temp
M109 S250 ; wait for extruder temp
G1 Y-3.0 F1000.0 ; go outside print area
G92 E0.0
G1 X60.0 E9.0  F1000.0 ; intro line
M73 Q0 S147
M73 P0 R145
G1 X100.0 E12.5  F1000.0 ; intro line
G92 E0.0
M221 S95
M900 K45; Filament gcode
G21 ; set units to millimeters
G90 ; use absolute coordinates
M83 ; use relative distances for extrusion
;BEFORE_LAYER_CHANGE
G92 E0.0
;0.2


G1 E-0.80000 F2100.00000
G1 Z0.600 F10800.000
;AFTER_LAYER_CHANGE
;0.2
G1 X89.230 Y91.283
G1 Z0.200
G1 E0.80000 F2100.00000
M204 S20
G1 F1800
G1 X90.801 Y90.988 E0.05012
G1 X91.480 Y90.934 E0.02133
G1 X158.505 Y90.934 E2.10154
G1 X160.204 Y91.148 E0.05367
G1 X161.023 Y91.369 E0.02661
G1 X162.566 Y92.131 E0.05395
G1 X163.412 Y92.767 E0.03319
G1 X164.609 Y94.039 E0.05478
G1 X165.445 Y95.549 E0.05410
G1 X165.796 Y96.525 E0.03254
G1 X166.049 Y98.119 E0.05060
G1 X166.065 Y111.579 E0.42201
G1 X165.777 Y113.554 E0.06259
G1 X165.528 Y114.271 E0.02381
G1 X164.940 Y115.441 E0.04103
G1 X164.207 Y116.437 E0.03878
G1 X163.341 Y117.299 E0.03831
G1 X162.789 Y117.731 E0.02199
G1 X161.429 Y118.456 E0.04832
G1 X160.772 Y118.716 E0.02216
G1 X159.198 Y119.012 E0.05020
G1 X158.520 Y119.066 E0.02133
G1 X91.205 Y119.056 E2.11064
G1 X89.744 Y118.843 E0.04627
G1 X89.052 Y118.658 E0.02249
G1 X87.603 Y117.963 E0.05038
G1 X86.967 Y117.557 E0.02364
G1 X85.815 Y116.462 E0.04983
G1 X85.352 Y115.908 E0.02265
G1 X84.565 Y114.473 E0.05131
G1 X84.285 Y113.773 E0.02364
G1 X83.990 Y112.211 E0.04985
G1 X83.936 Y111.532 E0.02133
G1 X83.935 Y98.421 E0.41109
G1 X84.187 Y96.596 E0.05777
G1 X84.445 Y95.788 E0.02661
G1 X85.027 Y94.622 E0.04084
G1 X85.758 Y93.599 E0.03943
G1 X86.647 Y92.712 E0.03937
G1 X87.199 Y92.279 E0.02199
G1 X88.564 Y91.547 E0.04856
G1 X89.175 Y91.305 E0.02061
M204 S1000
G1 X89.312 Y91.657 F10800.000
M204 S20
G1 F1800
G1 X91.479 Y91.312 E0.06879
G1 X158.505 Y91.311 E2.10155
G1 X160.137 Y91.519 E0.05158
G1 X160.888 Y91.721 E0.02438
G1 X162.372 Y92.454 E0.05189
G1 X163.154 Y93.042 E0.03069
G1 X164.304 Y94.260 E0.05253
G1 X165.108 Y95.718 E0.05221
G1 X165.432 Y96.626 E0.03021
G1 X165.674 Y98.159 E0.04868
G1 X165.688 Y111.570 E0.42050
G1 X165.419 Y113.433 E0.05902
G1 X165.184 Y114.116 E0.02264
G1 X164.613 Y115.252 E0.03985
G1 X163.937 Y116.174 E0.03587
G1 X163.092 Y117.016 E0.03740
G1 X162.579 Y117.418 E0.02043
G1 X161.261 Y118.119 E0.04681
G1 X160.640 Y118.362 E0.02090
G1 X158.521 Y118.688 E0.06723
G1 X91.242 Y118.681 E2.10947
G1 X89.818 Y118.473 E0.04512
G1 X89.184 Y118.305 E0.02059
G1 X87.781 Y117.631 E0.04879
G1 X87.194 Y117.255 E0.02185
G1 X86.083 Y116.197 E0.04810
G1 X85.656 Y115.685 E0.02090
G1 X84.900 Y114.298 E0.04953
G1 X84.639 Y113.641 E0.02217
G1 X84.313 Y111.533 E0.06690
G1 X84.312 Y98.435 E0.41068
G1 X84.551 Y96.696 E0.05503
G1 X84.794 Y95.931 E0.02517
G1 X85.359 Y94.800 E0.03965
G1 X86.037 Y93.853 E0.03650
G1 X86.897 Y92.995 E0.03809
G1 X87.409 Y92.592 E0.02043
G1 X88.732 Y91.884 E0.04705
G1 X89.257 Y91.679 E0.01766
M204 S1000
G1 F8640
G1 X91.479 Y91.312 E-0.52015
G1 X92.518 Y91.312 E-0.23985
G1 E-0.04000 F2100.00000
G1 Z0.800 F10800.000
G1 X96.122 Y102.415
G1 Z0.200
G1 E0.80000 F2100.00000
M204 S20
G1 F1800
G1 X97.012 Y101.961 E0.03135
G1 X98.000 Y101.804 E0.03135
G1 X98.987 Y101.961 E0.03135
G1 X99.878 Y102.415 E0.03135
G1 X100.585 Y103.122 E0.03135
G1 X101.039 Y104.012 E0.03135
G1 X101.196 Y105.000 E0.03135
G1 X101.039 Y105.987 E0.03135
G1 X100.585 Y106.878 E0.03135
G1 X99.878 Y107.585 E0.03135
G1 X98.987 Y108.039 E0.03135
G1 X98.000 Y108.196 E0.03135
G1 X97.012 Y108.039 E0.03135
G1 X96.122 Y107.585 E0.03135
G1 X95.415 Y106.878 E0.03135
G1 X94.961 Y105.987 E0.03135
G1 X94.804 Y105.000 E0.03135
G1 X94.961 Y104.012 E0.03135
G1 X95.415 Y103.122 E0.03135
G1 X96.079 Y102.457 E0.02947
M204 S1000
G1 X96.346 Y102.724 F10800.000
M204 S20
G1 F1800
G1 X97.130 Y102.324 E0.02761
G1 X98.000 Y102.186 E0.02760
G1 X98.869 Y102.324 E0.02760
G1 X99.654 Y102.724 E0.02761
G1 X100.276 Y103.346 E0.02760
G1 X100.676 Y104.130 E0.02760
G1 X100.814 Y105.000 E0.02760
G1 X100.676 Y105.869 E0.02760
G1 X100.276 Y106.654 E0.02761
G1 X99.654 Y107.276 E0.02760
G1 X98.869 Y107.676 E0.02761
G1 X98.000 Y107.814 E0.02760
G1 X97.130 Y107.676 E0.02760
G1 X96.346 Y107.276 E0.02760
G1 X95.724 Y106.654 E0.02760
G1 X95.324 Y105.869 E0.02761
G1 X95.186 Y105.000 E0.02760
G1 X95.324 Y104.130 E0.02760
G1 X95.724 Y103.346 E0.02760
G1 X96.303 Y102.766 E0.02571
M204 S1000
G1 X96.304 Y102.326 F10800.000
G1 F8640
G1 X97.130 Y102.324 E-0.21656
G1 X98.000 Y102.186 E-0.20328
G1 X98.869 Y102.324 E-0.20327
G1 X99.398 Y102.593 E-0.13689
G1 E-0.04000 F2100.00000
G1 Z0.800 F10800.000
G1 X148.804 Y105.000
G1 Z0.200
G1 E0.80000 F2100.00000
M204 S20
G1 F1800
G1 X148.961 Y104.012 E0.03135
G1 X149.415 Y103.122 E0.03135
G1 X150.122 Y102.415 E0.03135
G1 X151.013 Y101.961 E0.03135
G1 X152.000 Y101.804 E0.03135
G1 X152.987 Y101.961 E0.03135
G1 X153.878 Y102.415 E0.03135
G1 X154.585 Y103.122 E0.03135
G1 X155.039 Y104.012 E0.03135
G1 X155.196 Y105.000 E0.03135
G1 X155.039 Y105.987 E0.03135
G1 X154.585 Y106.878 E0.03135
G1 X153.878 Y107.585 E0.03135
G1 X152.987 Y108.039 E0.03135
G1 X152.000 Y108.196 E0.03135
G1 X151.013 Y108.039 E0.03135
G1 X150.122 Y107.585 E0.03135
G1 X149.415 Y106.878 E0.03135
G1 X148.961 Y105.987 E0.03135
G1 X148.814 Y105.059 E0.02947
M204 S1000
G1 X149.186 Y105.000 F10800.000
M204 S20
G1 F1800
G1 X149.324 Y104.130 E0.02761
G1 X149.724 Y103.346 E0.02760
G1 X150.346 Y102.724 E0.02760
G1 X151.131 Y102.324 E0.02761
G1 X152.000 Y102.186 E0.02760
G1 X152.869 Y102.324 E0.02760
G1 X153.654 Y102.724 E0.02761
G1 X154.276 Y103.346 E0.02760
G1 X154.676 Y104.130 E0.02760
G1 X154.814 Y105.000 E0.02760
G1 X154.676 Y105.869 E0.02760
G1 X154.276 Y106.654 E0.02761
G1 X153.654 Y107.276 E0.02760
G1 X152.869 Y107.676 E0.02761
G1 X152.000 Y107.814 E0.02760
G1 X151.131 Y107.676 E0.02760
G1 X150.346 Y107.276 E0.02761
G1 X149.724 Y106.654 E0.02760
G1 X149.324 Y105.869 E0.02761
G1 X149.196 Y105.060 E0.02571
M204 S1000
G1 X148.840 Y104.800 F10800.000
G1 F8640
G1 X149.324 Y104.130 E-0.21656
G1 X149.724 Y103.346 E-0.20327
G1 X150.346 Y102.724 E-0.20327
G1 X150.874 Y102.454 E-0.13690
G1 E-0.04000 F2100.00000
G1 Z0.800 F10800.000
G1 X143.187 Y110.813
G1 Z0.200
G1 E0.80000 F2100.00000
M204 S20
G1 F1800
G1 X106.813 Y110.813 E1.14049
G1 X106.813 Y113.813 E0.09406
G1 X91.554 Y113.813 E0.47843
G1 X90.788 Y113.692 E0.02432
G1 X90.146 Y113.364 E0.02261
G1 X89.636 Y112.855 E0.02260
G1 X89.308 Y112.212 E0.02261
G1 X89.187 Y111.446 E0.02432
G1 X89.187 Y98.554 E0.40422
G1 X89.308 Y97.788 E0.02432
G1 X89.636 Y97.146 E0.02261
G1 X90.146 Y96.636 E0.02261
G1 X90.788 Y96.308 E0.02261
G1 X91.554 Y96.187 E0.02432
G1 X106.813 Y96.187 E0.47843
G1 X106.813 Y99.187 E0.09406
G1 X143.187 Y99.187 E1.14049
G1 X143.187 Y96.187 E0.09406
G1 X158.446 Y96.187 E0.47843
G1 X159.212 Y96.308 E0.02432
G1 X159.855 Y96.636 E0.02261
G1 X160.364 Y97.146 E0.02260
G1 X160.692 Y97.788 E0.02261
G1 X160.813 Y98.554 E0.02432
G1 X160.813 Y111.446 E0.40422
G1 X160.692 Y112.212 E0.02432
G1 X160.364 Y112.855 E0.02261
G1 X159.855 Y113.364 E0.02260
G1 X159.212 Y113.692 E0.02261
G1 X158.446 Y113.813 E0.02432
G1 X143.187 Y113.813 E0.47843
G1 X143.187 Y110.873 E0.09218
M204 S1000
G1 X142.810 Y111.190 F10800.000
M204 S20
G1 F1800
G1 X107.190 Y111.190 E1.11684
G1 X107.190 Y114.190 E0.09406
G1 X91.524 Y114.190 E0.49118
G1 X90.670 Y114.055 E0.02712
G1 X89.921 Y113.673 E0.02635
G1 X89.327 Y113.079 E0.02635
G1 X88.945 Y112.330 E0.02635
G1 X88.810 Y111.476 E0.02712
G1 X88.810 Y98.524 E0.40608
G1 X88.945 Y97.670 E0.02713
G1 X89.327 Y96.921 E0.02635
G1 X89.921 Y96.327 E0.02635
G1 X90.670 Y95.945 E0.02635
G1 X91.524 Y95.810 E0.02713
G1 X107.190 Y95.810 E0.49118
G1 X107.190 Y98.810 E0.09406
G1 X142.810 Y98.810 E1.11684
G1 X142.810 Y95.810 E0.09406
G1 X158.476 Y95.810 E0.49118
G1 X159.330 Y95.945 E0.02712
G1 X160.079 Y96.327 E0.02635
G1 X160.673 Y96.921 E0.02635
G1 X161.055 Y97.670 E0.02635
G1 X161.190 Y98.524 E0.02712
G1 X161.190 Y111.476 E0.40608
G1 X161.055 Y112.330 E0.02712
G1 X160.673 Y113.079 E0.02635
G1 X160.079 Y113.673 E0.02635
G1 X159.330 Y114.055 E0.02635
G1 X158.476 Y114.190 E0.02712
G1 X142.810 Y114.190 E0.49118
G1 X142.810 Y111.250 E0.09218
M204 S1000
G1 X142.632 Y110.832 F10800.000
G1 F8640
G1 X139.519 Y111.244 E-0.76000
G1 E-0.04000 F2100.00000
G1 Z0.800 F10800.000
G1 X143.300 Y113.131
G1 Z0.200
G1 E0.80000 F2100.00000
M204 S20
G1 F1800
G1 X143.699 Y113.530 E0.01776
G1 X144.235 Y113.530 E0.01684
G1 X143.470 Y112.765 E0.03403
G1 X143.470 Y112.230 E0.01684
G1 X144.770 Y113.530 E0.05785
G1 X145.305 Y113.530 E0.01684
G1 X143.470 Y111.695 E0.08167
G1 X143.470 Y111.160 E0.01684
G1 X146.010 Y113.700 E0.11304
M204 S1000
G1 F8640
G1 X143.683 Y111.372 E-0.76000
G1 E-0.04000 F2100.00000
G1 Z0.800 F10800.000
G1 X155.109 Y113.700
G1 Z0.200
G1 E0.80000 F2100.00000
M204 S20
G1 F1800
G1 X140.879 Y99.470 E0.63329
G1 X140.344 Y99.470 E0.01684
G1 X154.404 Y113.530 E0.62574
G1 X153.869 Y113.530 E0.01684
G1 X139.808 Y99.470 E0.62574
G1 X139.273 Y99.470 E0.01684
G1 X153.333 Y113.530 E0.62574
G1 X152.798 Y113.530 E0.01684
G1 X138.738 Y99.470 E0.62574
G1 X138.203 Y99.470 E0.01684
G1 X152.263 Y113.530 E0.62574
G1 X151.728 Y113.530 E0.01684
G1 X137.667 Y99.470 E0.62574
G1 X137.132 Y99.470 E0.01684
G1 X151.192 Y113.530 E0.62574
G1 X150.657 Y113.530 E0.01684
G1 X136.597 Y99.470 E0.62574
M73 Q0 S146
M73 P0 R144
G1 X136.062 Y99.470 E0.01684
G1 X150.122 Y113.530 E0.62574
G1 X149.587 Y113.530 E0.01684
G1 X135.527 Y99.470 E0.62574
G1 X134.991 Y99.470 E0.01684
G1 X149.052 Y113.530 E0.62574
G1 X148.516 Y113.530 E0.01684
G1 X134.456 Y99.470 E0.62574
G1 X133.921 Y99.470 E0.01684
G1 X147.981 Y113.530 E0.62574
G1 X147.446 Y113.530 E0.01684
G1 X133.386 Y99.470 E0.62574
G1 X132.850 Y99.470 E0.01684
G1 X146.911 Y113.530 E0.62574
G1 X146.375 Y113.530 E0.01684
G1 X132.315 Y99.470 E0.62574
G1 X131.780 Y99.470 E0.01684
G1 X142.840 Y110.530 E0.49223
G1 X142.305 Y110.530 E0.01684
G1 X131.245 Y99.470 E0.49223
G1 X130.709 Y99.470 E0.01684
G1 X141.770 Y110.530 E0.49223
G1 X141.235 Y110.530 E0.01684
G1 X130.174 Y99.470 E0.49223
G1 X129.639 Y99.470 E0.01684
G1 X140.699 Y110.530 E0.49223
G1 X140.164 Y110.530 E0.01684
G1 X129.104 Y99.470 E0.49223
G1 X128.569 Y99.470 E0.01684
G1 X139.629 Y110.530 E0.49223
G1 X139.094 Y110.530 E0.01684
G1 X128.033 Y99.470 E0.49223
G1 X127.498 Y99.470 E0.01684
G1 X138.558 Y110.530 E0.49223
G1 X138.023 Y110.530 E0.01684
G1 X126.963 Y99.470 E0.49223
G1 X126.428 Y99.470 E0.01684
G1 X137.488 Y110.530 E0.49223
G1 X136.953 Y110.530 E0.01684
G1 X125.892 Y99.470 E0.49223
G1 X125.357 Y99.470 E0.01684
G1 X136.418 Y110.530 E0.49223
G1 X135.882 Y110.530 E0.01684
G1 X124.822 Y99.470 E0.49223
G1 X124.287 Y99.470 E0.01684
G1 X135.347 Y110.530 E0.49223
G1 X134.812 Y110.530 E0.01684
G1 X123.752 Y99.470 E0.49223
G1 X123.216 Y99.470 E0.01684
G1 X134.277 Y110.530 E0.49223
G1 X133.741 Y110.530 E0.01684
G1 X122.681 Y99.470 E0.49223
G1 X122.146 Y99.470 E0.01684
G1 X133.206 Y110.530 E0.49223
G1 X132.671 Y110.530 E0.01684
G1 X121.611 Y99.470 E0.49223
G1 X121.075 Y99.470 E0.01684
G1 X132.136 Y110.530 E0.49223
G1 X131.601 Y110.530 E0.01684
G1 X120.540 Y99.470 E0.49223
G1 X120.005 Y99.470 E0.01684
G1 X131.065 Y110.530 E0.49223
G1 X130.530 Y110.530 E0.01684
G1 X119.470 Y99.470 E0.49223
G1 X118.935 Y99.470 E0.01684
G1 X129.995 Y110.530 E0.49223
G1 X129.460 Y110.530 E0.01684
G1 X118.399 Y99.470 E0.49223
G1 X117.864 Y99.470 E0.01684
G1 X128.924 Y110.530 E0.49223
G1 X128.389 Y110.530 E0.01684
G1 X117.329 Y99.470 E0.49223
G1 X116.794 Y99.470 E0.01684
G1 X127.854 Y110.530 E0.49223
G1 X127.319 Y110.530 E0.01684
G1 X116.258 Y99.470 E0.49223
G1 X115.723 Y99.470 E0.01684
G1 X126.784 Y110.530 E0.49223
G1 X126.248 Y110.530 E0.01684
G1 X115.188 Y99.470 E0.49223
G1 X114.653 Y99.470 E0.01684
G1 X125.713 Y110.530 E0.49223
G1 X125.178 Y110.530 E0.01684
G1 X114.118 Y99.470 E0.49223
G1 X113.582 Y99.470 E0.01684
G1 X124.643 Y110.530 E0.49223
G1 X124.107 Y110.530 E0.01684
G1 X113.047 Y99.470 E0.49223
G1 X112.512 Y99.470 E0.01684
G1 X123.572 Y110.530 E0.49223
G1 X123.037 Y110.530 E0.01684
G1 X111.977 Y99.470 E0.49223
G1 X111.441 Y99.470 E0.01684
G1 X122.502 Y110.530 E0.49223
G1 X121.967 Y110.530 E0.01684
G1 X110.906 Y99.470 E0.49223
G1 X110.371 Y99.470 E0.01684
G1 X121.431 Y110.530 E0.49223
G1 X120.896 Y110.530 E0.01684
G1 X109.836 Y99.470 E0.49223
G1 X109.301 Y99.470 E0.01684
G1 X120.361 Y110.530 E0.49223
G1 X119.826 Y110.530 E0.01684
M73 Q1 S145
M73 P1 R143
G1 X108.765 Y99.470 E0.49223
G1 X108.230 Y99.470 E0.01684
G1 X119.290 Y110.530 E0.49223
G1 X118.755 Y110.530 E0.01684
G1 X107.695 Y99.470 E0.49223
G1 X107.160 Y99.470 E0.01684
G1 X118.220 Y110.530 E0.49223
G1 X117.685 Y110.530 E0.01684
G1 X103.624 Y96.470 E0.62574
G1 X104.160 Y96.470 E0.01684
G1 X106.530 Y98.840 E0.10550
G1 X106.530 Y98.305 E0.01684
G1 X104.695 Y96.470 E0.08168
G1 X105.230 Y96.470 E0.01684
G1 X106.530 Y97.770 E0.05786
G1 X106.530 Y97.235 E0.01684
G1 X105.765 Y96.470 E0.03404
G1 X106.301 Y96.470 E0.01684
G1 X106.700 Y96.869 E0.01777
M204 S1000
G1 F8640
G1 X106.301 Y96.470 E-0.13038
G1 X105.765 Y96.470 E-0.12358
G1 X106.530 Y97.235 E-0.24974
G1 X106.530 Y97.770 E-0.12358
G1 X106.124 Y97.363 E-0.13272
G1 E-0.04000 F2100.00000
G1 Z0.800 F10800.000
G1 X108.220 Y110.700
G1 Z0.200
G1 E0.80000 F2100.00000
M204 S20
G1 F1800
G1 X101.173 Y103.653 E0.31363
G1 X101.311 Y103.924 E0.00958
G1 X101.387 Y104.402 E0.01523
G1 X107.515 Y110.530 E0.27273
G1 X106.980 Y110.530 E0.01684
G1 X101.478 Y105.027 E0.24489
G1 X101.404 Y105.490 E0.01472
G1 X106.530 Y110.615 E0.22812
G1 X106.530 Y111.150 E0.01684
G1 X101.331 Y105.952 E0.23137
G1 X101.311 Y106.076 E0.00396
G1 X101.179 Y106.335 E0.00915
G1 X106.530 Y111.686 E0.23813
G1 X106.530 Y112.221 E0.01684
G1 X100.999 Y106.690 E0.24616
G1 X100.818 Y107.044 E0.01252
G1 X106.530 Y112.756 E0.25420
G1 X106.530 Y113.291 E0.01684
G1 X100.551 Y107.312 E0.26609
G1 X100.284 Y107.580 E0.01191
G1 X106.234 Y113.530 E0.26480
G1 X105.698 Y113.530 E0.01684
G1 X100.006 Y107.838 E0.25334
G1 X99.651 Y108.018 E0.01252
G1 X105.163 Y113.530 E0.24530
G1 X104.628 Y113.530 E0.01684
G1 X99.297 Y108.199 E0.23726
G1 X99.076 Y108.311 E0.00780
G1 X98.902 Y108.339 E0.00555
G1 X104.093 Y113.530 E0.23102
G1 X103.558 Y113.530 E0.01684
G1 X98.440 Y108.412 E0.22776
G1 X97.969 Y108.477 E0.01494
G1 X103.022 Y113.530 E0.22488
G1 X102.487 Y113.530 E0.01684
G1 X97.333 Y108.376 E0.22936
G1 X96.924 Y108.311 E0.01304
G1 X96.535 Y108.113 E0.01373
G1 X101.952 Y113.530 E0.24107
G1 X101.417 Y113.530 E0.01684
G1 X89.470 Y101.583 E0.53168
G1 X89.470 Y101.048 E0.01684
G1 X94.887 Y106.465 E0.24107
G1 X94.688 Y106.076 E0.01374
G1 X94.624 Y105.667 E0.01304
G1 X89.470 Y100.513 E0.22936
G1 X89.470 Y99.978 E0.01684
G1 X94.523 Y105.031 E0.22488
G1 X94.588 Y104.560 E0.01494
G1 X89.470 Y99.442 E0.22776
G1 X89.470 Y98.907 E0.01684
G1 X94.661 Y104.098 E0.23102
G1 X94.688 Y103.924 E0.00555
G1 X94.801 Y103.703 E0.00780
G1 X89.498 Y98.400 E0.23601
G1 X89.571 Y97.938 E0.01472
G1 X94.982 Y103.349 E0.24080
G1 X95.162 Y102.994 E0.01252
G1 X89.737 Y97.569 E0.24143
G1 X89.867 Y97.314 E0.00901
G1 X89.942 Y97.239 E0.00334
G1 X95.420 Y102.716 E0.24378
G1 X95.688 Y102.449 E0.01191
