; generated by PrusaSlicer 2.0.0 on 2019-08-31 at 13:36:21

; 

; external perimeters extrusion width = 0.45mm
; perimeters extrusion width = 0.45mm
; infill extrusion width = 0.45mm
; solid infill extrusion width = 0.45mm
; top infill extrusion width = 0.40mm
; first layer extrusion width = 0.42mm

M73 P0 R219
M73 Q0 S221
M201 X1000 Y1000 Z1000 E5000 ; sets maximum accelerations, mm/sec^2
M203 X200 Y200 Z12 E120 ; sets maximum feedrates, mm/sec
M204 P1250 R1250 T1250 ; sets acceleration (P, T) and retract acceleration (R), mm/sec^2
M205 X8.00 Y8.00 Z0.40 E1.50 ; sets the jerk limits, mm/sec
M205 S0 T0 ; sets the minimum extruding and travel feed rate, mm/sec
M107
M115 U3.4.0 ; tell printer latest fw version
M83  ; extruder relative mode
M104 S140 ; set extruder to warm-up temp
M140 S80 ; set bed temp
M190 S80 ; wait for bed temp
G28 W ; home all without mesh bed level
G80 ; mesh bed leveling
M104 S250 ; set extruder temp
M109 S250 ; wait for extruder temp
G1 Y-3.0 F1000.0 ; go outside print area
G92 E0.0
G1 X60.0 E9.0  F1000.0 ; intro line
M73 Q0 S221
M73 P0 R219
G1 X100.0 E12.5  F1000.0 ; intro line
G92 E0.0
M221 S95
M900 K45; Filament gcode
G21 ; set units to millimeters
G90 ; use absolute coordinates
M83 ; use relative distances for extrusion
;BEFORE_LAYER_CHANGE
G92 E0.0
;0.2


G1 E-0.80000 F2100.00000
G1 Z0.600 F10800.000
;AFTER_LAYER_CHANGE
;0.2
G1 X83.842 Y89.053
G1 Z0.200
G1 E0.80000 F2100.00000
M204 S20
G1 F1800
G1 X84.843 Y87.105 E0.06869
G1 X85.284 Y86.572 E0.02166
G1 X86.383 Y85.509 E0.04795
G1 X86.959 Y85.118 E0.02183
G1 X88.026 Y84.566 E0.03766
G1 X89.113 Y84.183 E0.03615
G1 X90.959 Y83.935 E0.05838
G1 X159.005 Y83.934 E2.13356
G1 X160.704 Y84.148 E0.05367
G1 X161.528 Y84.371 E0.02677
G1 X163.070 Y85.133 E0.05395
G1 X163.919 Y85.774 E0.03336
G1 X165.113 Y87.043 E0.05461
G1 X165.952 Y88.563 E0.05444
G1 X166.299 Y89.541 E0.03254
G1 X166.553 Y91.167 E0.05159
G1 X166.525 Y119.105 E0.87599
G1 X166.329 Y120.328 E0.03883
G1 X166.144 Y120.983 E0.02133
G1 X165.137 Y122.923 E0.06855
G1 X163.600 Y124.504 E0.06914
G1 X163.028 Y124.891 E0.02166
G1 X161.972 Y125.435 E0.03726
G1 X160.889 Y125.816 E0.03599
G1 X159.041 Y126.065 E0.05845
G1 X90.768 Y126.060 E2.14067
G1 X88.636 Y125.687 E0.06784
G1 X86.660 Y124.696 E0.06932
G1 X86.082 Y124.228 E0.02331
G1 X85.021 Y123.131 E0.04786
G1 X84.622 Y122.548 E0.02216
G1 X84.064 Y121.471 E0.03802
G1 X83.687 Y120.404 E0.03549
G1 X83.437 Y118.601 E0.05706
G1 X83.460 Y91.016 E0.86493
G1 X83.830 Y89.112 E0.06080
M204 S1000
G1 X84.196 Y89.183 F10800.000
M204 S20
G1 F1800
G1 X85.155 Y87.317 E0.06576
G1 X86.631 Y85.794 E0.06650
G1 X88.214 Y84.893 E0.05711
G1 X89.205 Y84.549 E0.03289
G1 X90.964 Y84.312 E0.05565
G1 X159.005 Y84.311 E2.13338
G1 X160.637 Y84.519 E0.05158
G1 X161.393 Y84.723 E0.02454
G1 X162.876 Y85.456 E0.05189
G1 X163.665 Y86.053 E0.03100
G1 X164.810 Y87.268 E0.05237
G1 X165.615 Y88.732 E0.05237
G1 X165.935 Y89.640 E0.03021
G1 X166.177 Y91.205 E0.04963
G1 X166.154 Y119.039 E0.87274
G1 X165.794 Y120.844 E0.05771
G1 X164.829 Y122.705 E0.06573
G1 X163.357 Y124.216 E0.06613
G1 X161.788 Y125.106 E0.05655
G1 X160.797 Y125.450 E0.03289
G1 X159.036 Y125.688 E0.05573
G1 X90.793 Y125.683 E2.13972
G1 X88.755 Y125.329 E0.06484
G1 X86.866 Y124.380 E0.06630
G1 X86.337 Y123.950 E0.02138
G1 X85.305 Y122.883 E0.04653
G1 X84.939 Y122.344 E0.02043
G1 X84.394 Y121.287 E0.03728
G1 X84.053 Y120.311 E0.03242
G1 X83.814 Y118.588 E0.05454
G1 X83.835 Y91.061 E0.86310
G1 X84.185 Y89.242 E0.05810
M204 S1000
G1 F8640
G1 X85.155 Y87.317 E-0.49759
G1 X85.946 Y86.501 E-0.26241
G1 E-0.04000 F2100.00000
G1 Z0.800 F10800.000
G1 X95.622 Y109.415
G1 Z0.200
G1 E0.80000 F2100.00000
M204 S20
G1 F1800
G1 X96.512 Y108.961 E0.03135
G1 X97.500 Y108.804 E0.03135
G1 X98.487 Y108.961 E0.03135
G1 X99.378 Y109.415 E0.03135
G1 X100.085 Y110.122 E0.03135
G1 X100.539 Y111.013 E0.03135
G1 X100.696 Y112.000 E0.03135
G1 X100.539 Y112.987 E0.03135
G1 X100.085 Y113.878 E0.03135
G1 X99.378 Y114.585 E0.03135
G1 X98.487 Y115.039 E0.03135
G1 X97.500 Y115.196 E0.03135
G1 X96.512 Y115.039 E0.03135
G1 X95.622 Y114.585 E0.03135
G1 X94.915 Y113.878 E0.03135
G1 X94.461 Y112.987 E0.03135
G1 X94.304 Y112.000 E0.03135
G1 X94.461 Y111.013 E0.03135
G1 X94.915 Y110.122 E0.03135
G1 X95.579 Y109.457 E0.02947
M204 S1000
G1 X95.846 Y109.724 F10800.000
M204 S20
G1 F1800
G1 X96.630 Y109.324 E0.02761
G1 X97.500 Y109.186 E0.02760
G1 X98.369 Y109.324 E0.02760
G1 X99.154 Y109.724 E0.02761
G1 X99.776 Y110.346 E0.02760
G1 X100.176 Y111.131 E0.02761
G1 X100.314 Y112.000 E0.02760
G1 X100.176 Y112.869 E0.02760
G1 X99.776 Y113.654 E0.02761
G1 X99.154 Y114.276 E0.02760
G1 X98.369 Y114.676 E0.02761
G1 X97.500 Y114.814 E0.02760
G1 X96.630 Y114.676 E0.02760
G1 X95.846 Y114.276 E0.02760
G1 X95.224 Y113.654 E0.02760
G1 X94.824 Y112.869 E0.02761
G1 X94.686 Y112.000 E0.02760
G1 X94.824 Y111.131 E0.02760
G1 X95.224 Y110.346 E0.02761
G1 X95.803 Y109.766 E0.02571
M204 S1000
G1 X95.804 Y109.326 F10800.000
G1 F8640
G1 X96.630 Y109.324 E-0.21656
G1 X97.500 Y109.186 E-0.20328
G1 X98.369 Y109.324 E-0.20327
G1 X98.898 Y109.593 E-0.13689
G1 E-0.04000 F2100.00000
G1 Z0.800 F10800.000
G1 X97.500 Y101.196
G1 Z0.200
G1 E0.80000 F2100.00000
M204 S20
G1 F1800
G1 X96.512 Y101.039 E0.03135
G1 X95.622 Y100.585 E0.03135
G1 X94.915 Y99.878 E0.03135
G1 X94.461 Y98.987 E0.03135
G1 X94.304 Y98.000 E0.03135
G1 X94.461 Y97.012 E0.03135
G1 X94.915 Y96.122 E0.03135
G1 X95.622 Y95.415 E0.03135
G1 X96.512 Y94.961 E0.03135
G1 X97.500 Y94.804 E0.03135
G1 X98.487 Y94.961 E0.03135
G1 X99.378 Y95.415 E0.03135
G1 X100.085 Y96.122 E0.03135
G1 X100.539 Y97.012 E0.03135
G1 X100.696 Y98.000 E0.03135
G1 X100.539 Y98.987 E0.03135
G1 X100.085 Y99.878 E0.03135
G1 X99.378 Y100.585 E0.03135
G1 X98.487 Y101.039 E0.03135
G1 X97.559 Y101.186 E0.02947
M204 S1000
G1 X97.500 Y100.814 F10800.000
M204 S20
G1 F1800
G1 X96.630 Y100.676 E0.02761
G1 X95.846 Y100.276 E0.02760
G1 X95.224 Y99.654 E0.02760
G1 X94.824 Y98.869 E0.02761
G1 X94.686 Y98.000 E0.02760
G1 X94.824 Y97.130 E0.02760
G1 X95.224 Y96.346 E0.02760
G1 X95.846 Y95.724 E0.02760
G1 X96.630 Y95.324 E0.02760
G1 X97.500 Y95.186 E0.02760
G1 X98.369 Y95.324 E0.02760
G1 X99.154 Y95.724 E0.02761
G1 X99.776 Y96.346 E0.02760
G1 X100.176 Y97.130 E0.02760
G1 X100.314 Y98.000 E0.02760
G1 X100.176 Y98.869 E0.02760
G1 X99.776 Y99.654 E0.02761
G1 X99.154 Y100.276 E0.02760
G1 X98.369 Y100.676 E0.02761
G1 X97.560 Y100.804 E0.02571
M204 S1000
G1 X97.300 Y101.160 F10800.000
G1 F8640
G1 X96.630 Y100.676 E-0.21656
G1 X95.846 Y100.276 E-0.20327
G1 X95.224 Y99.654 E-0.20327
G1 X94.954 Y99.126 E-0.13690
G1 E-0.04000 F2100.00000
G1 Z0.800 F10800.000
G1 X149.304 Y98.000
G1 Z0.200
G1 E0.80000 F2100.00000
M204 S20
G1 F1800
G1 X149.461 Y97.012 E0.03135
G1 X149.915 Y96.122 E0.03135
G1 X150.622 Y95.415 E0.03135
G1 X151.513 Y94.961 E0.03135
G1 X152.500 Y94.804 E0.03135
G1 X153.487 Y94.961 E0.03135
G1 X154.378 Y95.415 E0.03135
G1 X155.085 Y96.122 E0.03135
G1 X155.539 Y97.012 E0.03135
G1 X155.696 Y98.000 E0.03135
G1 X155.539 Y98.987 E0.03135
G1 X155.085 Y99.878 E0.03135
G1 X154.378 Y100.585 E0.03135
G1 X153.487 Y101.039 E0.03135
G1 X152.500 Y101.196 E0.03135
G1 X151.513 Y101.039 E0.03135
G1 X150.622 Y100.585 E0.03135
G1 X149.915 Y99.878 E0.03135
G1 X149.461 Y98.987 E0.03135
G1 X149.314 Y98.059 E0.02947
M204 S1000
G1 X149.686 Y98.000 F10800.000
M204 S20
G1 F1800
G1 X149.824 Y97.130 E0.02761
G1 X150.224 Y96.346 E0.02760
G1 X150.846 Y95.724 E0.02760
G1 X151.631 Y95.324 E0.02761
G1 X152.500 Y95.186 E0.02760
G1 X153.369 Y95.324 E0.02760
G1 X154.154 Y95.724 E0.02761
G1 X154.776 Y96.346 E0.02760
G1 X155.176 Y97.130 E0.02760
G1 X155.314 Y98.000 E0.02760
G1 X155.176 Y98.869 E0.02760
G1 X154.776 Y99.654 E0.02761
G1 X154.154 Y100.276 E0.02760
G1 X153.369 Y100.676 E0.02761
G1 X152.500 Y100.814 E0.02760
G1 X151.631 Y100.676 E0.02760
G1 X150.846 Y100.276 E0.02761
G1 X150.224 Y99.654 E0.02760
G1 X149.824 Y98.869 E0.02761
G1 X149.696 Y98.060 E0.02571
M204 S1000
G1 X149.340 Y97.800 F10800.000
G1 F8640
G1 X149.824 Y97.130 E-0.21656
G1 X150.224 Y96.346 E-0.20327
G1 X150.846 Y95.724 E-0.20327
G1 X151.374 Y95.454 E-0.13690
G1 E-0.04000 F2100.00000
G1 Z0.800 F10800.000
G1 X151.513 Y108.961
G1 Z0.200
G1 E0.80000 F2100.00000
M204 S20
G1 F1800
G1 X152.500 Y108.804 E0.03135
G1 X153.487 Y108.961 E0.03135
G1 X154.378 Y109.415 E0.03135
G1 X155.085 Y110.122 E0.03135
G1 X155.539 Y111.013 E0.03135
G1 X155.696 Y112.000 E0.03135
G1 X155.539 Y112.987 E0.03135
G1 X155.085 Y113.878 E0.03135
G1 X154.378 Y114.585 E0.03135
G1 X153.487 Y115.039 E0.03135
G1 X152.500 Y115.196 E0.03135
G1 X151.513 Y115.039 E0.03135
G1 X150.622 Y114.585 E0.03135
G1 X149.915 Y113.878 E0.03135
G1 X149.461 Y112.987 E0.03135
G1 X149.304 Y112.000 E0.03135
G1 X149.461 Y111.013 E0.03135
G1 X149.915 Y110.122 E0.03135
G1 X150.622 Y109.415 E0.03135
G1 X151.459 Y108.988 E0.02947
M204 S1000
G1 X151.630 Y109.324 F10800.000
M204 S20
G1 F1800
G1 X152.500 Y109.186 E0.02761
G1 X153.369 Y109.324 E0.02760
G1 X154.154 Y109.724 E0.02761
G1 X154.776 Y110.346 E0.02760
G1 X155.176 Y111.131 E0.02761
G1 X155.314 Y112.000 E0.02760
G1 X155.176 Y112.869 E0.02760
G1 X154.776 Y113.654 E0.02761
G1 X154.154 Y114.276 E0.02760
G1 X153.369 Y114.676 E0.02761
G1 X152.500 Y114.814 E0.02760
G1 X151.631 Y114.676 E0.02760
G1 X150.846 Y114.276 E0.02761
G1 X150.224 Y113.654 E0.02760
G1 X149.824 Y112.869 E0.02761
G1 X149.686 Y112.000 E0.02760
G1 X149.824 Y111.131 E0.02760
G1 X150.224 Y110.346 E0.02761
G1 X150.846 Y109.724 E0.02760
G1 X151.577 Y109.351 E0.02571
M204 S1000
G1 X151.713 Y108.933 F10800.000
G1 F8640
G1 X152.500 Y109.186 E-0.21656
G1 X153.369 Y109.324 E-0.20327
G1 X154.154 Y109.724 E-0.20329
G1 X154.573 Y110.143 E-0.13688
G1 E-0.04000 F2100.00000
G1 Z0.800 F10800.000
G1 X106.313 Y92.187
G1 Z0.200
G1 E0.80000 F2100.00000
M204 S20
G1 F1800
G1 X143.687 Y92.187 E1.17184
G1 X143.687 Y89.187 E0.09406
G1 X158.946 Y89.187 E0.47843
G1 X159.712 Y89.308 E0.02432
G1 X160.355 Y89.636 E0.02261
G1 X160.864 Y90.146 E0.02260
G1 X161.192 Y90.788 E0.02261
G1 X161.313 Y91.554 E0.02432
G1 X161.313 Y118.446 E0.84318
G1 X161.192 Y119.212 E0.02432
G1 X160.864 Y119.855 E0.02261
G1 X160.355 Y120.364 E0.02260
G1 X159.712 Y120.692 E0.02261
G1 X158.946 Y120.813 E0.02432
G1 X143.687 Y120.813 E0.47843
G1 X143.687 Y117.813 E0.09406
G1 X106.313 Y117.813 E1.17184
G1 X106.313 Y120.813 E0.09406
G1 X91.054 Y120.813 E0.47843
G1 X90.288 Y120.692 E0.02432
G1 X89.646 Y120.364 E0.02261
G1 X89.136 Y119.855 E0.02260
G1 X88.808 Y119.212 E0.02261
G1 X88.687 Y118.446 E0.02432
G1 X88.687 Y91.554 E0.84318
G1 X88.808 Y90.788 E0.02432
G1 X89.136 Y90.146 E0.02261
G1 X89.646 Y89.636 E0.02261
G1 X90.288 Y89.308 E0.02261
G1 X91.054 Y89.187 E0.02432
G1 X106.313 Y89.187 E0.47843
G1 X106.313 Y92.127 E0.09218
M204 S1000
G1 X106.690 Y91.810 F10800.000
M204 S20
G1 F1800
G1 X143.310 Y91.810 E1.14819
G1 X143.310 Y88.810 E0.09406
G1 X158.976 Y88.810 E0.49118
G1 X159.830 Y88.945 E0.02712
G1 X160.579 Y89.327 E0.02635
G1 X161.173 Y89.921 E0.02635
G1 X161.555 Y90.670 E0.02635
G1 X161.690 Y91.524 E0.02712
G1 X161.690 Y118.476 E0.84504
G1 X161.555 Y119.330 E0.02712
G1 X161.173 Y120.079 E0.02635
G1 X160.579 Y120.673 E0.02635
G1 X159.830 Y121.055 E0.02635
G1 X158.976 Y121.190 E0.02712
G1 X143.310 Y121.190 E0.49118
G1 X143.310 Y118.190 E0.09406
G1 X106.690 Y118.190 E1.14819
G1 X106.690 Y121.190 E0.09406
G1 X91.024 Y121.190 E0.49118
G1 X90.170 Y121.055 E0.02712
G1 X89.421 Y120.673 E0.02635
G1 X88.827 Y120.079 E0.02635
G1 X88.445 Y119.330 E0.02635
G1 X88.310 Y118.476 E0.02712
G1 X88.310 Y91.524 E0.84504
G1 X88.445 Y90.670 E0.02713
G1 X88.827 Y89.921 E0.02635
G1 X89.421 Y89.327 E0.02635
G1 X90.170 Y88.945 E0.02635
G1 X91.024 Y88.810 E0.02713
G1 X106.690 Y88.810 E0.49118
G1 X106.690 Y91.750 E0.09218
M204 S1000
G1 X106.868 Y92.168 F10800.000
G1 X106.412 Y92.300
M204 S20
G1 F1800
G1 X131.642 Y117.530 E1.12299
G1 X132.177 Y117.530 E0.01685
G1 X107.117 Y92.470 E1.11543
M73 Q0 S220
M73 P0 R218
G1 X107.652 Y92.470 E0.01685
G1 X132.712 Y117.530 E1.11543
G1 X133.248 Y117.530 E0.01685
G1 X108.188 Y92.470 E1.11543
G1 X108.723 Y92.470 E0.01685
G1 X133.783 Y117.530 E1.11543
G1 X134.318 Y117.530 E0.01685
G1 X109.258 Y92.470 E1.11543
G1 X109.793 Y92.470 E0.01685
G1 X134.854 Y117.530 E1.11543
G1 X135.389 Y117.530 E0.01685
G1 X110.329 Y92.470 E1.11543
G1 X110.864 Y92.470 E0.01685
G1 X135.924 Y117.530 E1.11543
G1 X136.460 Y117.530 E0.01685
G1 X111.399 Y92.470 E1.11543
G1 X111.935 Y92.470 E0.01685
G1 X136.995 Y117.530 E1.11543
G1 X137.530 Y117.530 E0.01685
G1 X112.470 Y92.470 E1.11543
G1 X113.005 Y92.470 E0.01685
G1 X138.065 Y117.530 E1.11543
G1 X138.601 Y117.530 E0.01685
G1 X113.540 Y92.470 E1.11543
G1 X114.076 Y92.470 E0.01685
G1 X139.136 Y117.530 E1.11543
G1 X139.671 Y117.530 E0.01685
G1 X114.611 Y92.470 E1.11543
G1 X115.146 Y92.470 E0.01685
G1 X140.207 Y117.530 E1.11543
G1 X140.742 Y117.530 E0.01685
G1 X115.682 Y92.470 E1.11543
G1 X116.217 Y92.470 E0.01685
G1 X141.277 Y117.530 E1.11543
G1 X141.812 Y117.530 E0.01685
G1 X116.752 Y92.470 E1.11543
G1 X117.288 Y92.470 E0.01685
G1 X142.348 Y117.530 E1.11543
G1 X142.883 Y117.530 E0.01685
G1 X117.823 Y92.470 E1.11543
G1 X118.358 Y92.470 E0.01685
G1 X143.588 Y117.700 E1.12299
M204 S1000
G1 F8640
G1 X141.261 Y115.372 E-0.76000
G1 E-0.04000 F2100.00000
G1 Z0.800 F10800.000
G1 X143.800 Y120.053
G1 Z0.200
G1 E0.80000 F2100.00000
M204 S20
G1 F1800
G1 X144.277 Y120.530 E0.02123
G1 X144.812 Y120.530 E0.01685
G1 X143.970 Y119.688 E0.03751
G1 X143.970 Y119.152 E0.01685
G1 X145.348 Y120.530 E0.06133
G1 X145.883 Y120.530 E0.01685
G1 X143.970 Y118.617 E0.08516
G1 X143.970 Y118.082 E0.01685
G1 X146.418 Y120.530 E0.10898
G1 X146.954 Y120.530 E0.01685
G1 X118.893 Y92.470 E1.24896
G1 X119.429 Y92.470 E0.01685
G1 X147.489 Y120.530 E1.24896
G1 X148.024 Y120.530 E0.01685
G1 X119.964 Y92.470 E1.24896
G1 X120.499 Y92.470 E0.01685
G1 X148.560 Y120.530 E1.24896
G1 X149.095 Y120.530 E0.01685
G1 X121.035 Y92.470 E1.24896
G1 X121.570 Y92.470 E0.01685
G1 X149.630 Y120.530 E1.24896
G1 X150.165 Y120.530 E0.01685
G1 X122.105 Y92.470 E1.24896
G1 X122.640 Y92.470 E0.01685
G1 X150.701 Y120.530 E1.24896
M73 Q0 S219
M73 P0 R217
G1 X151.236 Y120.530 E0.01685
G1 X123.176 Y92.470 E1.24896
G1 X123.711 Y92.470 E0.01685
G1 X151.771 Y120.530 E1.24896
G1 X152.307 Y120.530 E0.01685
G1 X124.246 Y92.470 E1.24896
G1 X124.782 Y92.470 E0.01685
G1 X152.842 Y120.530 E1.24896
G1 X153.377 Y120.530 E0.01685
G1 X125.317 Y92.470 E1.24896
G1 X125.852 Y92.470 E0.01685
G1 X153.913 Y120.530 E1.24896
G1 X154.448 Y120.530 E0.01685
G1 X126.388 Y92.470 E1.24896
G1 X126.923 Y92.470 E0.01685
G1 X154.983 Y120.530 E1.24896
G1 X155.518 Y120.530 E0.01685
G1 X127.458 Y92.470 E1.24896
G1 X127.993 Y92.470 E0.01685
G1 X156.223 Y120.700 E1.25652
M204 S1000
G1 F8640
G1 X153.896 Y118.372 E-0.76000
G1 E-0.04000 F2100.00000
G1 Z0.800 F10800.000
G1 X151.315 Y115.256
G1 Z0.200
G1 E0.80000 F2100.00000
M204 S20
G1 F1800
G1 X156.589 Y120.530 E0.23476
G1 X157.124 Y120.530 E0.01685
G1 X151.996 Y115.402 E0.22825
G1 X152.500 Y115.482 E0.01605
G1 X152.596 Y115.467 E0.00306
G1 X157.660 Y120.530 E0.22537
G1 X158.195 Y120.530 E0.01685
G1 X153.058 Y115.394 E0.22863
G1 X153.520 Y115.320 E0.01472
G1 X158.730 Y120.530 E0.23189
G1 X158.924 Y120.530 E0.00609
G1 X159.219 Y120.483 E0.00940
G1 X153.888 Y115.153 E0.23728
G1 X154.243 Y114.972 E0.01253
G1 X159.668 Y120.397 E0.24147
G1 X160.022 Y120.216 E0.01253
G1 X154.585 Y114.779 E0.24202
G1 X154.852 Y114.511 E0.01191
G1 X160.330 Y119.989 E0.24381
G1 X160.598 Y119.721 E0.01191
G1 X155.120 Y114.244 E0.24381
G1 X155.317 Y114.047 E0.00876
G1 X155.365 Y113.953 E0.00331
G1 X160.790 Y119.378 E0.24147
G1 X160.919 Y119.124 E0.00898
G1 X160.940 Y118.993 E0.00416
G1 X155.545 Y113.598 E0.24011
G1 X155.726 Y113.244 E0.01253
G1 X161.013 Y118.531 E0.23533
G1 X161.030 Y118.424 E0.00341
G1 X161.030 Y118.012 E0.01294
G1 X155.850 Y112.832 E0.23056
G1 X155.923 Y112.370 E0.01472
G1 X161.030 Y117.477 E0.22731
G1 X161.030 Y116.942 E0.01685
G1 X155.962 Y111.874 E0.22559
G1 X155.861 Y111.238 E0.02027
G1 X161.030 Y116.407 E0.23007
G1 X161.030 Y115.871 E0.01685
