; generated by PrusaSlicer 2.0.0 on 2019-08-19 at 12:27:51

; 

; external perimeters extrusion width = 0.45mm
; perimeters extrusion width = 0.45mm
; infill extrusion width = 0.45mm
; solid infill extrusion width = 0.45mm
; top infill extrusion width = 0.40mm
; support material extrusion width = 0.35mm
; first layer extrusion width = 0.42mm

M73 P0 R395
M73 Q0 S400
M201 X1000 Y1000 Z1000 E5000 ; sets maximum accelerations, mm/sec^2
M203 X200 Y200 Z12 E120 ; sets maximum feedrates, mm/sec
M204 P1250 R1250 T1250 ; sets acceleration (P, T) and retract acceleration (R), mm/sec^2
M205 X8.00 Y8.00 Z0.40 E1.50 ; sets the jerk limits, mm/sec
M205 S0 T0 ; sets the minimum extruding and travel feed rate, mm/sec
M107
M115 U3.4.0 ; tell printer latest fw version
M83  ; extruder relative mode
M104 S140 ; set extruder to warm-up temp
M140 S80 ; set bed temp
M190 S80 ; wait for bed temp
G28 W ; home all without mesh bed level
G80 ; mesh bed leveling
M104 S250 ; set extruder temp
M109 S250 ; wait for extruder temp
G1 Y-3.0 F1000.0 ; go outside print area
G92 E0.0
G1 X60.0 E9.0  F1000.0 ; intro line
M73 Q0 S400
M73 P0 R395
G1 X100.0 E12.5  F1000.0 ; intro line
G92 E0.0
M221 S95
M900 K45; Filament gcode
G21 ; set units to millimeters
G90 ; use absolute coordinates
M83 ; use relative distances for extrusion
;BEFORE_LAYER_CHANGE
G92 E0.0
;0.2


G1 E-0.80000 F2100.00000
G1 Z0.600 F10800.000
;AFTER_LAYER_CHANGE
;0.2
G1 X94.923 Y35.752
G1 Z0.200
G1 E0.80000 F2100.00000
M204 S20
G1 F1800
G1 X95.541 Y34.829 E0.03484
G1 X96.363 Y34.081 E0.03484
G1 X97.341 Y33.555 E0.03484
G1 X126.609 Y23.960 E0.96571
G1 X127.302 Y23.796 E0.02232
G1 X128.006 Y23.743 E0.02216
G1 X149.201 Y23.913 E0.66455
G1 X149.904 Y23.981 E0.02216
G1 X150.594 Y24.158 E0.02232
G1 X151.358 Y24.501 E0.02628
G1 X152.052 Y24.981 E0.02644
G1 X152.645 Y25.581 E0.02644
G1 X153.118 Y26.279 E0.02644
G1 X153.402 Y26.903 E0.02150
G1 X155.308 Y32.239 E0.17766
G1 X155.525 Y33.141 E0.02908
G1 X155.562 Y176.424 E4.49255
G1 X155.446 Y177.286 E0.02727
G1 X155.172 Y178.106 E0.02710
G1 X152.809 Y182.609 E0.15944
G1 X152.198 Y183.292 E0.02875
G1 X151.458 Y183.843 E0.02892
G1 X150.628 Y184.232 E0.02875
G1 X149.731 Y184.448 E0.02892
G1 X127.947 Y184.319 E0.68302
G1 X126.949 Y184.197 E0.03155
G1 X97.329 Y175.046 E0.97202
G1 X96.275 Y174.461 E0.03779
G1 X95.408 Y173.616 E0.03796
G1 X94.794 Y172.573 E0.03796
G1 X94.476 Y171.410 E0.03779
G1 X94.434 Y37.808 E4.18899
G1 X94.548 Y36.798 E0.03188
G1 X94.903 Y35.809 E0.03296
M204 S1000
G1 X95.255 Y35.935 F10800.000
M204 S20
G1 F1800
G1 X95.826 Y35.075 E0.03237
G1 X96.588 Y34.384 E0.03226
G1 X97.491 Y33.901 E0.03210
G1 X126.720 Y24.320 E0.96443
G1 X127.354 Y24.170 E0.02043
G1 X128.004 Y24.120 E0.02043
G1 X149.185 Y24.290 E0.66416
G1 X150.442 Y24.505 E0.03995
G1 X151.162 Y24.823 E0.02469
G1 X151.810 Y25.270 E0.02469
G1 X152.360 Y25.827 E0.02454
G1 X152.799 Y26.481 E0.02469
G1 X154.953 Y32.365 E0.19644
G1 X155.151 Y33.189 E0.02659
G1 X155.186 Y176.402 E4.49033
G1 X155.080 Y177.197 E0.02517
G1 X154.824 Y177.958 E0.02517
G1 X152.520 Y182.365 E0.15592
G1 X151.958 Y183.000 E0.02659
G1 X151.276 Y183.512 E0.02675
G1 X150.504 Y183.875 E0.02675
G1 X149.680 Y184.074 E0.02659
G1 X127.956 Y183.942 E0.68114
G1 X127.054 Y183.834 E0.02848
G1 X97.487 Y174.703 E0.97027
G1 X96.511 Y174.166 E0.03493
G1 X95.711 Y173.391 E0.03493
G1 X95.144 Y172.432 E0.03493
G1 X94.849 Y171.357 E0.03493
G1 X94.811 Y37.808 E4.18733
G1 X94.913 Y36.891 E0.02895
G1 X95.235 Y35.991 E0.02995
M204 S1000
G1 F8640
G1 X95.826 Y35.075 E-0.25182
G1 X96.588 Y34.384 E-0.23756
G1 X97.491 Y33.901 E-0.23641
G1 X97.632 Y33.855 E-0.03421
G1 E-0.04000 F2100.00000
G1 Z0.800 F10800.000
G1 X99.000 Y37.808
G1 Z0.200
G1 E0.80000 F2100.00000
M204 S20
G1 F1800
G1 X99.000 Y42.891 E0.15938
G1 X99.754 Y42.891 E0.02365
G1 X99.754 Y37.978 E0.15406
G1 X100.508 Y37.978 E0.02365
G1 X100.508 Y42.891 E0.15406
G1 X100.965 Y42.891 E0.01432
G1 X100.965 Y40.601 E0.07182
G1 X101.262 Y40.601 E0.00933
G1 X101.262 Y37.978 E0.08224
G1 X102.017 Y37.978 E0.02365
G1 X102.017 Y40.601 E0.08224
G1 X102.771 Y40.601 E0.02365
G1 X102.771 Y37.978 E0.08224
G1 X103.525 Y37.978 E0.02365
G1 X103.525 Y40.601 E0.08224
G1 X104.279 Y40.601 E0.02365
G1 X104.279 Y37.978 E0.08224
G1 X105.033 Y37.978 E0.02365
G1 X105.033 Y40.601 E0.08224
G1 X105.787 Y40.601 E0.02365
G1 X105.787 Y37.978 E0.08224
G1 X106.542 Y37.978 E0.02365
G1 X106.542 Y40.601 E0.08224
G1 X107.296 Y40.601 E0.02365
G1 X107.296 Y37.978 E0.08224
G1 X108.050 Y37.978 E0.02365
G1 X108.050 Y40.601 E0.08224
G1 X108.804 Y40.601 E0.02365
G1 X108.804 Y37.978 E0.08224
G1 X109.558 Y37.978 E0.02365
G1 X109.558 Y40.601 E0.08224
G1 X110.312 Y40.601 E0.02365
G1 X110.312 Y37.978 E0.08224
G1 X111.067 Y37.978 E0.02365
G1 X111.067 Y40.601 E0.08224
G1 X111.821 Y40.601 E0.02365
G1 X111.821 Y37.978 E0.08224
G1 X112.575 Y37.978 E0.02365
G1 X112.575 Y40.601 E0.08224
G1 X113.329 Y40.601 E0.02365
G1 X113.329 Y37.978 E0.08224
G1 X114.083 Y37.978 E0.02365
G1 X114.083 Y40.601 E0.08224
G1 X114.837 Y40.601 E0.02365
G1 X114.837 Y37.978 E0.08224
G1 X115.591 Y37.978 E0.02365
G1 X115.591 Y40.601 E0.08224
G1 X116.346 Y40.601 E0.02365
G1 X116.346 Y37.978 E0.08224
G1 X117.100 Y37.978 E0.02365
G1 X117.100 Y40.601 E0.08224
G1 X117.799 Y40.601 E0.02191
G1 X117.799 Y42.891 E0.07182
G1 X117.854 Y42.891 E0.00173
G1 X117.854 Y37.978 E0.15406
G1 X118.608 Y37.978 E0.02365
G1 X118.608 Y42.891 E0.15406
G1 X119.362 Y42.891 E0.02365
G1 X119.362 Y37.978 E0.15406
G1 X120.116 Y37.978 E0.02365
G1 X120.116 Y43.061 E0.15938
M204 S1000
G1 F8640
G1 X120.116 Y39.770 E-0.76000
G1 E-0.04000 F2100.00000
G1 Z0.800 F10800.000
G1 X117.271 Y42.965
G1 Z0.200
G1 E0.80000 F2100.00000
M204 S20
G1 F1800
G1 X117.271 Y40.943 E0.05162
G1 X116.964 Y40.943 E0.00784
G1 X116.964 Y42.987 E0.05219
G1 X116.876 Y43.075 E0.00316
G1 X116.876 Y45.557 E0.06339
G1 X116.657 Y45.557 E0.00560
G1 X116.657 Y40.943 E0.11782
G1 X116.350 Y40.943 E0.00784
G1 X116.350 Y45.557 E0.11782
G1 X116.043 Y45.557 E0.00784
G1 X116.043 Y40.943 E0.11782
G1 X115.736 Y40.943 E0.00784
G1 X115.736 Y45.557 E0.11782
G1 X115.429 Y45.557 E0.00784
G1 X115.429 Y40.943 E0.11782
G1 X115.122 Y40.943 E0.00784
G1 X115.122 Y45.557 E0.11782
G1 X114.815 Y45.557 E0.00784
G1 X114.815 Y40.943 E0.11782
G1 X114.507 Y40.943 E0.00784
G1 X114.507 Y45.557 E0.11782
G1 X114.200 Y45.557 E0.00784
G1 X114.200 Y40.943 E0.11782
G1 X113.893 Y40.943 E0.00784
G1 X113.893 Y45.557 E0.11782
G1 X113.586 Y45.557 E0.00784
G1 X113.586 Y40.943 E0.11782
G1 X113.279 Y40.943 E0.00784
G1 X113.279 Y45.557 E0.11782
G1 X112.972 Y45.557 E0.00784
G1 X112.972 Y40.943 E0.11782
G1 X112.665 Y40.943 E0.00784
G1 X112.665 Y45.557 E0.11782
G1 X112.358 Y45.557 E0.00784
G1 X112.358 Y40.943 E0.11782
G1 X112.051 Y40.943 E0.00784
G1 X112.051 Y45.557 E0.11782
G1 X111.744 Y45.557 E0.00784
G1 X111.744 Y40.943 E0.11782
G1 X111.437 Y40.943 E0.00784
G1 X111.437 Y45.557 E0.11782
G1 X111.130 Y45.557 E0.00784
G1 X111.130 Y40.943 E0.11782
G1 X110.822 Y40.943 E0.00784
G1 X110.822 Y45.557 E0.11782
G1 X110.515 Y45.557 E0.00784
G1 X110.515 Y40.943 E0.11782
G1 X110.208 Y40.943 E0.00784
G1 X110.208 Y45.557 E0.11782
G1 X109.901 Y45.557 E0.00784
G1 X109.901 Y40.943 E0.11782
G1 X109.594 Y40.943 E0.00784
G1 X109.594 Y45.557 E0.11782
G1 X109.287 Y45.557 E0.00784
G1 X109.287 Y40.943 E0.11782
G1 X108.980 Y40.943 E0.00784
G1 X108.980 Y45.557 E0.11782
G1 X108.673 Y45.557 E0.00784
G1 X108.673 Y40.943 E0.11782
G1 X108.366 Y40.943 E0.00784
G1 X108.366 Y45.557 E0.11782
M73 Q0 S399
M73 P0 R394
G1 X108.059 Y45.557 E0.00784
G1 X108.059 Y40.943 E0.11782
G1 X107.752 Y40.943 E0.00784
G1 X107.752 Y45.557 E0.11782
G1 X107.445 Y45.557 E0.00784
G1 X107.445 Y40.943 E0.11782
G1 X107.138 Y40.943 E0.00784
G1 X107.138 Y45.557 E0.11782
G1 X106.830 Y45.557 E0.00784
G1 X106.830 Y40.943 E0.11782
G1 X106.523 Y40.943 E0.00784
G1 X106.523 Y45.557 E0.11782
G1 X106.216 Y45.557 E0.00784
G1 X106.216 Y40.943 E0.11782
G1 X105.909 Y40.943 E0.00784
G1 X105.909 Y45.557 E0.11782
G1 X105.602 Y45.557 E0.00784
G1 X105.602 Y40.943 E0.11782
G1 X105.295 Y40.943 E0.00784
G1 X105.295 Y45.557 E0.11782
G1 X104.988 Y45.557 E0.00784
G1 X104.988 Y40.943 E0.11782
G1 X104.681 Y40.943 E0.00784
G1 X104.681 Y45.557 E0.11782
G1 X104.374 Y45.557 E0.00784
G1 X104.374 Y40.943 E0.11782
G1 X104.067 Y40.943 E0.00784
G1 X104.067 Y45.557 E0.11782
G1 X103.760 Y45.557 E0.00784
G1 X103.760 Y40.943 E0.11782
G1 X103.453 Y40.943 E0.00784
G1 X103.453 Y45.557 E0.11782
G1 X103.146 Y45.557 E0.00784
G1 X103.146 Y40.943 E0.11782
G1 X102.838 Y40.943 E0.00784
G1 X102.838 Y45.557 E0.11782
G1 X102.531 Y45.557 E0.00784
G1 X102.531 Y40.943 E0.11782
G1 X102.224 Y40.943 E0.00784
G1 X102.224 Y42.875 E0.04934
G1 X102.175 Y42.826 E0.00176
G1 X101.917 Y42.826 E0.00659
G1 X101.917 Y40.943 E0.04810
G1 X101.610 Y40.943 E0.00784
G1 X101.610 Y42.965 E0.05162
M204 S1000
G1 F8640
G1 X101.610 Y40.943 E-0.46683
G1 X101.917 Y40.943 E-0.07091
G1 X101.917 Y41.905 E-0.22226
G1 E-0.04000 F2100.00000
G1 Z0.800 F10800.000
G1 X103.760 Y54.924
G1 Z0.200
G1 E0.80000 F2100.00000
M204 S20
G1 F1800
G1 X103.760 Y50.171 E0.12135
G1 X104.067 Y50.171 E0.00784
G1 X104.067 Y54.785 E0.11782
G1 X104.374 Y54.785 E0.00784
G1 X104.374 Y50.171 E0.11782
G1 X104.681 Y50.171 E0.00784
G1 X104.681 Y54.785 E0.11782
G1 X104.988 Y54.785 E0.00784
G1 X104.988 Y50.171 E0.11782
G1 X105.295 Y50.171 E0.00784
G1 X105.295 Y54.785 E0.11782
G1 X105.602 Y54.785 E0.00784
G1 X105.602 Y50.171 E0.11782
G1 X105.909 Y50.171 E0.00784
G1 X105.921 Y57.092 E0.17673
G1 X106.216 Y57.092 E0.00754
G1 X106.216 Y47.864 E0.23564
G1 X106.523 Y47.864 E0.00784
G1 X106.523 Y57.092 E0.23564
G1 X106.830 Y57.092 E0.00784
G1 X106.830 Y47.864 E0.23564
G1 X107.138 Y47.864 E0.00784
G1 X107.138 Y57.092 E0.23564
G1 X107.445 Y57.092 E0.00784
G1 X107.445 Y47.864 E0.23564
G1 X107.752 Y47.864 E0.00784
G1 X107.752 Y57.092 E0.23564
G1 X108.059 Y57.092 E0.00784
G1 X108.059 Y47.864 E0.23564
G1 X108.366 Y47.864 E0.00784
G1 X108.366 Y57.092 E0.23564
G1 X108.673 Y57.092 E0.00784
G1 X108.673 Y47.864 E0.23564
G1 X108.980 Y47.864 E0.00784
G1 X108.980 Y57.092 E0.23564
G1 X109.287 Y57.092 E0.00784
G1 X109.287 Y47.864 E0.23564
G1 X109.594 Y47.864 E0.00784
G1 X109.594 Y57.092 E0.23564
G1 X109.901 Y57.092 E0.00784
G1 X109.901 Y47.864 E0.23564
G1 X110.208 Y47.864 E0.00784
G1 X110.208 Y57.092 E0.23564
G1 X110.515 Y57.092 E0.00784
G1 X110.515 Y47.864 E0.23564
G1 X110.822 Y47.864 E0.00784
G1 X110.822 Y57.092 E0.23564
G1 X111.130 Y57.092 E0.00784
G1 X111.130 Y47.864 E0.23564
G1 X111.437 Y47.864 E0.00784
G1 X111.437 Y57.092 E0.23564
G1 X111.744 Y57.092 E0.00784
G1 X111.744 Y47.864 E0.23564
G1 X112.051 Y47.864 E0.00784
G1 X112.051 Y57.092 E0.23564
G1 X112.358 Y57.092 E0.00784
G1 X112.358 Y47.864 E0.23564
G1 X112.665 Y47.864 E0.00784
G1 X112.665 Y57.092 E0.23564
G1 X112.842 Y57.092 E0.00453
G1 X112.842 Y54.785 E0.05891
G1 X112.972 Y54.785 E0.00331
G1 X112.972 Y50.171 E0.11782
G1 X113.279 Y50.171 E0.00784
G1 X113.279 Y54.785 E0.11782
G1 X113.586 Y54.785 E0.00784
G1 X113.586 Y50.171 E0.11782
G1 X113.893 Y50.171 E0.00784
G1 X113.893 Y54.785 E0.11782
G1 X114.200 Y54.785 E0.00784
G1 X114.200 Y50.171 E0.11782
G1 X114.507 Y50.171 E0.00784
G1 X114.507 Y54.785 E0.11782
G1 X114.815 Y54.785 E0.00784
G1 X114.815 Y50.171 E0.11782
G1 X115.122 Y50.171 E0.00784
G1 X115.122 Y54.924 E0.12135
M204 S1000
G1 X116.346 Y57.920 F10800.000
M204 S20
G1 F1800
G1 X116.346 Y45.899 E0.37690
G1 X115.591 Y45.899 E0.02365
G1 X115.591 Y60.057 E0.44392
G1 X114.837 Y60.057 E0.02365
G1 X114.837 Y55.127 E0.15457
G1 X114.083 Y55.127 E0.02365
G1 X114.083 Y60.057 E0.15457
G1 X113.329 Y60.057 E0.02365
G1 X113.329 Y55.127 E0.15457
G1 X113.185 Y55.127 E0.00453
G1 X113.185 Y57.435 E0.07234
G1 X112.575 Y57.435 E0.01912
G1 X112.575 Y60.057 E0.08224
G1 X111.821 Y60.057 E0.02365
G1 X111.821 Y57.435 E0.08224
G1 X111.067 Y57.435 E0.02365
G1 X111.067 Y60.057 E0.08224
G1 X110.312 Y60.057 E0.02365
G1 X110.312 Y57.435 E0.08224
G1 X109.558 Y57.435 E0.02365
G1 X109.558 Y60.057 E0.08224
G1 X108.804 Y60.057 E0.02365
G1 X108.804 Y57.435 E0.08224
G1 X108.050 Y57.435 E0.02365
G1 X108.050 Y60.057 E0.08224
G1 X107.296 Y60.057 E0.02365
G1 X107.296 Y57.435 E0.08224
G1 X106.542 Y57.435 E0.02365
G1 X106.542 Y60.057 E0.08224
G1 X105.787 Y60.057 E0.02365
G1 X105.787 Y57.435 E0.08224
G1 X105.579 Y57.435 E0.00653
G1 X105.579 Y55.127 E0.07234
G1 X105.033 Y55.127 E0.01711
G1 X105.033 Y60.057 E0.15457
G1 X104.279 Y60.057 E0.02365
G1 X104.279 Y55.127 E0.15457
G1 X103.525 Y55.127 E0.02365
G1 X103.525 Y60.057 E0.15457
G1 X102.956 Y60.057 E0.01783
G1 X102.956 Y57.750 E0.07234
G1 X102.771 Y57.750 E0.00582
G1 X102.771 Y47.206 E0.33060
G1 X102.956 Y47.206 E0.00582
G1 X102.956 Y45.899 E0.04098
G1 X103.525 Y45.899 E0.01783
G1 X103.525 Y49.829 E0.12322
G1 X104.279 Y49.829 E0.02365
G1 X104.279 Y45.899 E0.12322
G1 X105.033 Y45.899 E0.02365
G1 X105.033 Y49.829 E0.12322
G1 X105.579 Y49.829 E0.01711
G1 X105.579 Y47.522 E0.07234
G1 X105.787 Y47.522 E0.00653
G1 X105.787 Y45.899 E0.05088
G1 X106.542 Y45.899 E0.02365
G1 X106.542 Y47.522 E0.05088
G1 X107.296 Y47.522 E0.02365
G1 X107.296 Y45.899 E0.05088
G1 X108.050 Y45.899 E0.02365
G1 X108.050 Y47.522 E0.05088
G1 X108.804 Y47.522 E0.02365
G1 X108.804 Y45.899 E0.05088
G1 X109.558 Y45.899 E0.02365
G1 X109.558 Y47.522 E0.05088
G1 X110.312 Y47.522 E0.02365
G1 X110.312 Y45.899 E0.05088
G1 X111.067 Y45.899 E0.02365
G1 X111.067 Y47.522 E0.05088
G1 X111.821 Y47.522 E0.02365
G1 X111.821 Y45.899 E0.05088
G1 X112.575 Y45.899 E0.02365
G1 X112.575 Y47.522 E0.05088
G1 X113.185 Y47.522 E0.01912
G1 X113.185 Y49.829 E0.07234
G1 X113.329 Y49.829 E0.00453
G1 X113.329 Y45.899 E0.12322
G1 X114.083 Y45.899 E0.02365
G1 X114.083 Y49.829 E0.12322
G1 X114.837 Y49.829 E0.02365
G1 X114.837 Y45.729 E0.12854
M204 S1000
G1 F8640
G1 X114.837 Y49.021 E-0.76000
G1 E-0.04000 F2100.00000
G1 Z0.800 F10800.000
G1 X114.837 Y139.320
G1 Z0.200
G1 E0.80000 F2100.00000
M204 S20
G1 F1800
G1 X114.837 Y144.419 E0.15989
G1 X114.083 Y144.419 E0.02365
G1 X114.083 Y139.489 E0.15457
G1 X113.329 Y139.489 E0.02365
G1 X113.329 Y144.419 E0.15457
G1 X113.185 Y144.419 E0.00453
G1 X113.185 Y142.112 E0.07234
G1 X112.575 Y142.112 E0.01912
G1 X112.575 Y139.489 E0.08224
G1 X111.821 Y139.489 E0.02365
G1 X111.821 Y142.112 E0.08224
G1 X111.067 Y142.112 E0.02365
G1 X111.067 Y139.489 E0.08224
G1 X110.312 Y139.489 E0.02365
G1 X110.312 Y142.112 E0.08224
G1 X109.558 Y142.112 E0.02365
G1 X109.558 Y139.489 E0.08224
G1 X108.804 Y139.489 E0.02365
G1 X108.804 Y142.112 E0.08224
M73 Q0 S398
G1 X108.050 Y142.112 E0.02365
G1 X108.050 Y139.489 E0.08224
M73 P0 R393
G1 X107.296 Y139.489 E0.02365
G1 X107.296 Y142.112 E0.08224
G1 X106.542 Y142.112 E0.02365
G1 X106.542 Y139.489 E0.08224
G1 X105.787 Y139.489 E0.02365
G1 X105.787 Y142.112 E0.08224
G1 X105.579 Y142.112 E0.00653
G1 X105.579 Y144.419 E0.07234
G1 X105.033 Y144.419 E0.01712
G1 X105.033 Y139.489 E0.15457
G1 X104.279 Y139.489 E0.02365
G1 X104.279 Y144.419 E0.15457
G1 X103.525 Y144.419 E0.02365
G1 X103.525 Y139.489 E0.15457
G1 X102.956 Y139.489 E0.01783
G1 X102.956 Y141.797 E0.07234
G1 X102.771 Y141.797 E0.00582
G1 X102.771 Y152.341 E0.33060
G1 X102.956 Y152.341 E0.00582
G1 X102.956 Y154.648 E0.07234
G1 X103.525 Y154.648 E0.01783
G1 X103.525 Y149.718 E0.15457
G1 X104.279 Y149.718 E0.02365
G1 X104.279 Y154.648 E0.15457
G1 X105.033 Y154.648 E0.02365
G1 X105.033 Y149.718 E0.15457
G1 X105.579 Y149.718 E0.01712
G1 X105.579 Y152.025 E0.07234
G1 X105.787 Y152.025 E0.00653
G1 X105.787 Y154.648 E0.08224
G1 X106.542 Y154.648 E0.02365
G1 X106.542 Y152.025 E0.08224
G1 X107.296 Y152.025 E0.02365
G1 X107.296 Y154.648 E0.08224
G1 X108.050 Y154.648 E0.02365
G1 X108.050 Y152.025 E0.08224
G1 X108.804 Y152.025 E0.02365
G1 X108.804 Y154.648 E0.08224
G1 X109.558 Y154.648 E0.02365
G1 X109.558 Y152.025 E0.08224
G1 X110.312 Y152.025 E0.02365
G1 X110.312 Y154.648 E0.08224
G1 X111.067 Y154.648 E0.02365
G1 X111.067 Y152.025 E0.08224
G1 X111.821 Y152.025 E0.02365
G1 X111.821 Y154.648 E0.08224
G1 X112.575 Y154.648 E0.02365
G1 X112.575 Y152.025 E0.08224
G1 X113.329 Y152.025 E0.02365
G1 X113.329 Y154.648 E0.08224
G1 X114.083 Y154.648 E0.02365
