; generated by PrusaSlicer 2.0.0 on 2019-08-18 at 15:45:30

; 

; external perimeters extrusion width = 0.45mm
; perimeters extrusion width = 0.45mm
; infill extrusion width = 0.45mm
; solid infill extrusion width = 0.45mm
; top infill extrusion width = 0.40mm
; support material extrusion width = 0.35mm
; first layer extrusion width = 0.42mm

M73 P0 R127
M73 Q0 S128
M201 X1000 Y1000 Z1000 E5000 ; sets maximum accelerations, mm/sec^2
M203 X200 Y200 Z12 E120 ; sets maximum feedrates, mm/sec
M204 P1250 R1250 T1250 ; sets acceleration (P, T) and retract acceleration (R), mm/sec^2
M205 X8.00 Y8.00 Z0.40 E1.50 ; sets the jerk limits, mm/sec
M205 S0 T0 ; sets the minimum extruding and travel feed rate, mm/sec
M107
M115 U3.4.0 ; tell printer latest fw version
M83  ; extruder relative mode
M104 S140 ; set extruder to warm-up temp
M140 S80 ; set bed temp
M190 S80 ; wait for bed temp
G28 W ; home all without mesh bed level
G80 ; mesh bed leveling
M104 S250 ; set extruder temp
M109 S250 ; wait for extruder temp
G1 Y-3.0 F1000.0 ; go outside print area
G92 E0.0
G1 X60.0 E9.0  F1000.0 ; intro line
M73 Q0 S127
M73 P0 R127
G1 X100.0 E12.5  F1000.0 ; intro line
G92 E0.0
M221 S95
M900 K45; Filament gcode
G21 ; set units to millimeters
G90 ; use absolute coordinates
M83 ; use relative distances for extrusion
;BEFORE_LAYER_CHANGE
G92 E0.0
;0.2


G1 E-0.80000 F2100.00000
G1 Z0.600 F10800.000
;AFTER_LAYER_CHANGE
;0.2
G1 X85.157 Y81.890
G1 Z0.200
G1 E0.80000 F2100.00000
M204 S20
G1 F1800
G1 X85.841 Y81.288 E0.02859
G1 X86.627 Y80.836 E0.02842
G1 X107.689 Y71.617 E0.72086
G1 X108.604 Y71.331 E0.03007
G1 X109.485 Y71.243 E0.02776
G1 X138.505 Y71.243 E0.90991
G1 X160.174 Y71.447 E0.67945
G1 X161.370 Y71.763 E0.03878
G1 X162.437 Y72.388 E0.03878
G1 X163.297 Y73.277 E0.03878
G1 X163.887 Y74.363 E0.03878
G1 X165.842 Y79.839 E0.18229
G1 X166.062 Y81.066 E0.03910
G1 X166.065 Y128.819 E1.49724
G1 X165.963 Y129.714 E0.02826
G1 X165.686 Y130.572 E0.02826
G1 X163.689 Y134.898 E0.14940
G1 X162.960 Y135.942 E0.03992
G1 X162.276 Y136.544 E0.02859
G1 X161.490 Y136.997 E0.02842
G1 X160.626 Y137.286 E0.02859
G1 X159.721 Y137.398 E0.02859
G1 X130.601 Y137.399 E0.91304
G1 X109.052 Y137.207 E0.67566
G1 X107.963 Y136.963 E0.03500
G1 X86.900 Y129.276 E0.70301
G1 X86.100 Y128.884 E0.02793
G1 X85.392 Y128.344 E0.02793
G1 X84.777 Y127.643 E0.02925
G1 X84.318 Y126.831 E0.02925
G1 X84.033 Y125.943 E0.02925
G1 X83.934 Y125.021 E0.02908
G1 X83.936 Y84.868 E1.25896
G1 X84.034 Y84.051 E0.02579
G1 X84.277 Y83.266 E0.02579
G1 X84.653 Y82.541 E0.02562
G1 X85.120 Y81.938 E0.02390
M204 S1000
G1 X85.417 Y82.169 F10800.000
M204 S20
G1 F1800
G1 X86.068 Y81.590 E0.02731
G1 X86.786 Y81.178 E0.02596
G1 X107.834 Y71.965 E0.72041
G1 X108.687 Y71.699 E0.02801
G1 X109.491 Y71.620 E0.02533
G1 X138.505 Y71.620 E0.90972
G1 X160.094 Y71.817 E0.67693
G1 X161.202 Y72.101 E0.03587
G1 X162.192 Y72.675 E0.03587
G1 X162.990 Y73.495 E0.03587
G1 X163.536 Y74.501 E0.03587
G1 X165.482 Y79.951 E0.18145
G1 X165.685 Y81.082 E0.03603
G1 X165.688 Y128.811 E1.49650
G1 X165.593 Y129.638 E0.02611
G1 X165.337 Y130.431 E0.02611
G1 X163.354 Y134.724 E0.14829
G1 X162.672 Y135.698 E0.03729
G1 X162.044 Y136.246 E0.02611
G1 X161.321 Y136.659 E0.02611
G1 X160.530 Y136.921 E0.02611
G1 X159.703 Y137.021 E0.02611
G1 X130.601 Y137.022 E0.91248
G1 X109.088 Y136.832 E0.67457
G1 X108.084 Y136.606 E0.03226
G1 X87.031 Y128.922 E0.70269
G1 X86.288 Y128.557 E0.02596
G1 X85.635 Y128.056 E0.02580
G1 X85.076 Y127.412 E0.02675
G1 X84.660 Y126.673 E0.02659
G1 X84.401 Y125.860 E0.02675
G1 X84.311 Y125.017 E0.02659
G1 X84.313 Y84.889 E1.25820
G1 X84.401 Y84.137 E0.02375
G1 X84.626 Y83.408 E0.02391
G1 X84.976 Y82.736 E0.02375
G1 X85.380 Y82.217 E0.02065
M204 S1000
G1 F8640
G1 X86.068 Y81.590 E-0.21475
G1 X86.786 Y81.178 E-0.19115
G1 X88.191 Y80.563 E-0.35410
G1 E-0.04000 F2100.00000
G1 Z0.800 F10800.000
G1 X109.500 Y75.808
G1 Z0.200
G1 E0.80000 F2100.00000
M204 S20
G1 F1800
G1 X109.500 Y80.891 E0.15938
G1 X110.254 Y80.891 E0.02365
G1 X110.254 Y75.978 E0.15406
G1 X111.008 Y75.978 E0.02365
G1 X111.008 Y80.891 E0.15406
G1 X111.465 Y80.891 E0.01432
G1 X111.465 Y78.601 E0.07182
G1 X111.762 Y78.601 E0.00933
G1 X111.762 Y75.978 E0.08224
G1 X112.517 Y75.978 E0.02365
G1 X112.517 Y78.601 E0.08224
G1 X113.271 Y78.601 E0.02365
G1 X113.271 Y75.978 E0.08224
G1 X114.025 Y75.978 E0.02365
G1 X114.025 Y78.601 E0.08224
G1 X114.779 Y78.601 E0.02365
G1 X114.779 Y75.978 E0.08224
G1 X115.533 Y75.978 E0.02365
G1 X115.533 Y78.601 E0.08224
G1 X116.287 Y78.601 E0.02365
G1 X116.287 Y75.978 E0.08224
G1 X117.042 Y75.978 E0.02365
G1 X117.042 Y78.601 E0.08224
G1 X117.796 Y78.601 E0.02365
G1 X117.796 Y75.978 E0.08224
G1 X118.550 Y75.978 E0.02365
G1 X118.550 Y78.601 E0.08224
G1 X119.304 Y78.601 E0.02365
G1 X119.304 Y75.978 E0.08224
G1 X120.058 Y75.978 E0.02365
G1 X120.058 Y78.601 E0.08224
G1 X120.812 Y78.601 E0.02365
G1 X120.812 Y75.978 E0.08224
G1 X121.567 Y75.978 E0.02365
G1 X121.567 Y78.601 E0.08224
G1 X122.321 Y78.601 E0.02365
G1 X122.321 Y75.978 E0.08224
G1 X123.075 Y75.978 E0.02365
G1 X123.075 Y78.601 E0.08224
G1 X123.829 Y78.601 E0.02365
G1 X123.829 Y75.978 E0.08224
G1 X124.583 Y75.978 E0.02365
G1 X124.583 Y78.601 E0.08224
G1 X125.337 Y78.601 E0.02365
G1 X125.337 Y75.978 E0.08224
G1 X126.091 Y75.978 E0.02365
G1 X126.091 Y78.601 E0.08224
G1 X126.846 Y78.601 E0.02365
G1 X126.846 Y75.978 E0.08224
G1 X127.600 Y75.978 E0.02365
G1 X127.600 Y78.601 E0.08224
G1 X128.299 Y78.601 E0.02191
G1 X128.299 Y80.891 E0.07182
G1 X128.354 Y80.891 E0.00173
G1 X128.354 Y75.978 E0.15406
G1 X129.108 Y75.978 E0.02365
G1 X129.108 Y80.891 E0.15406
G1 X129.862 Y80.891 E0.02365
G1 X129.862 Y75.978 E0.15406
G1 X130.616 Y75.978 E0.02365
G1 X130.616 Y81.061 E0.15938
M204 S1000
G1 F8640
G1 X130.616 Y77.770 E-0.76000
G1 E-0.04000 F2100.00000
G1 Z0.800 F10800.000
G1 X127.771 Y80.965
G1 Z0.200
G1 E0.80000 F2100.00000
M204 S20
G1 F1800
G1 X127.771 Y78.943 E0.05162
G1 X127.464 Y78.943 E0.00784
G1 X127.464 Y80.887 E0.04964
G1 X127.276 Y81.075 E0.00677
G1 X127.276 Y83.557 E0.06339
G1 X127.157 Y83.557 E0.00305
G1 X127.157 Y78.943 E0.11782
G1 X126.850 Y78.943 E0.00784
G1 X126.850 Y83.557 E0.11782
G1 X126.543 Y83.557 E0.00784
G1 X126.543 Y78.943 E0.11782
G1 X126.236 Y78.943 E0.00784
G1 X126.236 Y83.557 E0.11782
G1 X125.929 Y83.557 E0.00784
G1 X125.929 Y78.943 E0.11782
G1 X125.622 Y78.943 E0.00784
G1 X125.622 Y83.557 E0.11782
G1 X125.315 Y83.557 E0.00784
G1 X125.315 Y78.943 E0.11782
G1 X125.007 Y78.943 E0.00784
G1 X125.007 Y83.557 E0.11782
G1 X124.700 Y83.557 E0.00784
G1 X124.700 Y78.943 E0.11782
G1 X124.393 Y78.943 E0.00784
G1 X124.393 Y83.557 E0.11782
G1 X124.086 Y83.557 E0.00784
G1 X124.086 Y78.943 E0.11782
G1 X123.779 Y78.943 E0.00784
G1 X123.779 Y83.557 E0.11782
G1 X123.472 Y83.557 E0.00784
G1 X123.472 Y78.943 E0.11782
G1 X123.165 Y78.943 E0.00784
G1 X123.165 Y83.557 E0.11782
G1 X122.858 Y83.557 E0.00784
G1 X122.858 Y78.943 E0.11782
G1 X122.551 Y78.943 E0.00784
G1 X122.551 Y83.557 E0.11782
G1 X122.244 Y83.557 E0.00784
G1 X122.244 Y78.943 E0.11782
G1 X121.937 Y78.943 E0.00784
G1 X121.937 Y83.557 E0.11782
G1 X121.630 Y83.557 E0.00784
G1 X121.630 Y78.943 E0.11782
G1 X121.322 Y78.943 E0.00784
G1 X121.322 Y83.557 E0.11782
G1 X121.015 Y83.557 E0.00784
G1 X121.015 Y78.943 E0.11782
G1 X120.708 Y78.943 E0.00784
G1 X120.708 Y83.557 E0.11782
G1 X120.401 Y83.557 E0.00784
G1 X120.401 Y78.943 E0.11782
G1 X120.094 Y78.943 E0.00784
G1 X120.094 Y83.557 E0.11782
G1 X119.787 Y83.557 E0.00784
G1 X119.787 Y78.943 E0.11782
G1 X119.480 Y78.943 E0.00784
G1 X119.480 Y83.557 E0.11782
G1 X119.173 Y83.557 E0.00784
G1 X119.173 Y78.943 E0.11782
G1 X118.866 Y78.943 E0.00784
G1 X118.866 Y83.557 E0.11782
G1 X118.559 Y83.557 E0.00784
G1 X118.559 Y78.943 E0.11782
G1 X118.252 Y78.943 E0.00784
G1 X118.252 Y83.557 E0.11782
G1 X117.945 Y83.557 E0.00784
G1 X117.945 Y78.943 E0.11782
G1 X117.638 Y78.943 E0.00784
G1 X117.638 Y83.557 E0.11782
G1 X117.330 Y83.557 E0.00784
G1 X117.330 Y78.943 E0.11782
G1 X117.023 Y78.943 E0.00784
G1 X117.023 Y83.557 E0.11782
G1 X116.716 Y83.557 E0.00784
G1 X116.716 Y78.943 E0.11782
G1 X116.409 Y78.943 E0.00784
G1 X116.409 Y83.557 E0.11782
G1 X116.102 Y83.557 E0.00784
G1 X116.102 Y78.943 E0.11782
G1 X115.795 Y78.943 E0.00784
G1 X115.795 Y83.557 E0.11782
G1 X115.488 Y83.557 E0.00784
G1 X115.488 Y78.943 E0.11782
G1 X115.181 Y78.943 E0.00784
G1 X115.181 Y83.557 E0.11782
G1 X114.874 Y83.557 E0.00784
G1 X114.874 Y78.943 E0.11782
G1 X114.567 Y78.943 E0.00784
G1 X114.567 Y83.557 E0.11782
G1 X114.260 Y83.557 E0.00784
G1 X114.260 Y78.943 E0.11782
G1 X113.953 Y78.943 E0.00784
G1 X113.953 Y83.557 E0.11782
G1 X113.646 Y83.557 E0.00784
G1 X113.646 Y78.943 E0.11782
G1 X113.338 Y78.943 E0.00784
G1 X113.338 Y83.557 E0.11782
M73 Q0 S126
G1 X113.031 Y83.557 E0.00784
G1 X113.031 Y78.943 E0.11782
M73 P0 R126
G1 X112.724 Y78.943 E0.00784
G1 X112.724 Y80.875 E0.04934
G1 X112.675 Y80.826 E0.00176
G1 X112.417 Y80.826 E0.00659
G1 X112.417 Y78.943 E0.04810
G1 X112.110 Y78.943 E0.00784
G1 X112.110 Y80.965 E0.05162
M204 S1000
G1 F8640
G1 X112.110 Y78.943 E-0.46683
G1 X112.417 Y78.943 E-0.07091
G1 X112.417 Y79.905 E-0.22226
G1 E-0.04000 F2100.00000
G1 Z0.800 F10800.000
G1 X114.260 Y92.924
G1 Z0.200
G1 E0.80000 F2100.00000
M204 S20
G1 F1800
G1 X114.260 Y88.171 E0.12135
G1 X114.567 Y88.171 E0.00784
G1 X114.567 Y92.785 E0.11782
G1 X114.874 Y92.785 E0.00784
G1 X114.874 Y88.171 E0.11782
G1 X115.181 Y88.171 E0.00784
G1 X115.181 Y92.785 E0.11782
G1 X115.488 Y92.785 E0.00784
G1 X115.488 Y88.171 E0.11782
G1 X115.795 Y88.171 E0.00784
G1 X115.795 Y92.785 E0.11782
G1 X116.102 Y92.785 E0.00784
G1 X116.102 Y88.171 E0.11782
G1 X116.409 Y88.171 E0.00784
G1 X116.421 Y95.092 E0.17673
G1 X116.716 Y95.092 E0.00754
G1 X116.716 Y85.864 E0.23564
G1 X117.023 Y85.864 E0.00784
G1 X117.023 Y95.092 E0.23564
G1 X117.330 Y95.092 E0.00784
G1 X117.330 Y85.864 E0.23564
G1 X117.638 Y85.864 E0.00784
G1 X117.638 Y95.092 E0.23564
G1 X117.945 Y95.092 E0.00784
G1 X117.945 Y85.864 E0.23564
G1 X118.252 Y85.864 E0.00784
G1 X118.252 Y95.092 E0.23564
G1 X118.559 Y95.092 E0.00784
G1 X118.559 Y85.864 E0.23564
G1 X118.866 Y85.864 E0.00784
G1 X118.866 Y95.092 E0.23564
G1 X119.173 Y95.092 E0.00784
G1 X119.173 Y85.864 E0.23564
G1 X119.480 Y85.864 E0.00784
G1 X119.480 Y95.092 E0.23564
G1 X119.787 Y95.092 E0.00784
G1 X119.787 Y85.864 E0.23564
G1 X120.094 Y85.864 E0.00784
G1 X120.094 Y95.092 E0.23564
G1 X120.401 Y95.092 E0.00784
G1 X120.401 Y85.864 E0.23564
G1 X120.708 Y85.864 E0.00784
G1 X120.708 Y95.092 E0.23564
G1 X121.015 Y95.092 E0.00784
G1 X121.015 Y85.864 E0.23564
G1 X121.322 Y85.864 E0.00784
G1 X121.322 Y95.092 E0.23564
G1 X121.630 Y95.092 E0.00784
G1 X121.630 Y85.864 E0.23564
G1 X121.937 Y85.864 E0.00784
G1 X121.937 Y95.092 E0.23564
G1 X122.244 Y95.092 E0.00784
G1 X122.244 Y85.864 E0.23564
G1 X122.551 Y85.864 E0.00784
G1 X122.551 Y95.092 E0.23564
G1 X122.858 Y95.092 E0.00784
G1 X122.858 Y85.864 E0.23564
G1 X123.165 Y85.864 E0.00784
G1 X123.165 Y95.092 E0.23564
G1 X123.342 Y95.092 E0.00453
G1 X123.342 Y92.785 E0.05891
G1 X123.472 Y92.785 E0.00331
G1 X123.472 Y88.171 E0.11782
G1 X123.779 Y88.171 E0.00784
G1 X123.779 Y92.785 E0.11782
G1 X124.086 Y92.785 E0.00784
G1 X124.086 Y88.171 E0.11782
G1 X124.393 Y88.171 E0.00784
G1 X124.393 Y92.785 E0.11782
G1 X124.700 Y92.785 E0.00784
G1 X124.700 Y88.171 E0.11782
G1 X125.007 Y88.171 E0.00784
G1 X125.007 Y92.785 E0.11782
G1 X125.315 Y92.785 E0.00784
G1 X125.315 Y88.171 E0.11782
G1 X125.622 Y88.171 E0.00784
G1 X125.622 Y92.924 E0.12135
M204 S1000
G1 X126.846 Y95.920 F10800.000
M204 S20
G1 F1800
G1 X126.846 Y83.899 E0.37690
G1 X126.091 Y83.899 E0.02365
G1 X126.091 Y98.057 E0.44392
G1 X125.337 Y98.057 E0.02365
G1 X125.337 Y93.127 E0.15457
G1 X124.583 Y93.127 E0.02365
G1 X124.583 Y98.057 E0.15457
G1 X123.829 Y98.057 E0.02365
G1 X123.829 Y93.127 E0.15457
G1 X123.685 Y93.127 E0.00453
G1 X123.685 Y95.435 E0.07234
G1 X123.075 Y95.435 E0.01912
G1 X123.075 Y98.057 E0.08224
G1 X122.321 Y98.057 E0.02365
G1 X122.321 Y95.435 E0.08224
G1 X121.567 Y95.435 E0.02365
G1 X121.567 Y98.057 E0.08224
G1 X120.812 Y98.057 E0.02365
G1 X120.812 Y95.435 E0.08224
G1 X120.058 Y95.435 E0.02365
G1 X120.058 Y98.057 E0.08224
G1 X119.304 Y98.057 E0.02365
G1 X119.304 Y95.435 E0.08224
G1 X118.550 Y95.435 E0.02365
G1 X118.550 Y98.057 E0.08224
G1 X117.796 Y98.057 E0.02365
G1 X117.796 Y95.435 E0.08224
G1 X117.042 Y95.435 E0.02365
G1 X117.042 Y98.057 E0.08224
G1 X116.287 Y98.057 E0.02365
G1 X116.287 Y95.435 E0.08224
G1 X116.079 Y95.435 E0.00653
G1 X116.079 Y93.127 E0.07234
G1 X115.533 Y93.127 E0.01711
G1 X115.533 Y98.057 E0.15457
G1 X114.779 Y98.057 E0.02365
G1 X114.779 Y93.127 E0.15457
G1 X114.025 Y93.127 E0.02365
G1 X114.025 Y98.057 E0.15457
G1 X113.456 Y98.057 E0.01783
G1 X113.456 Y95.750 E0.07234
G1 X113.271 Y95.750 E0.00582
G1 X113.271 Y85.206 E0.33060
G1 X113.456 Y85.206 E0.00582
G1 X113.456 Y83.899 E0.04098
G1 X114.025 Y83.899 E0.01783
G1 X114.025 Y87.829 E0.12322
G1 X114.779 Y87.829 E0.02365
G1 X114.779 Y83.899 E0.12322
G1 X115.533 Y83.899 E0.02365
G1 X115.533 Y87.829 E0.12322
G1 X116.079 Y87.829 E0.01711
G1 X116.079 Y85.522 E0.07234
G1 X116.287 Y85.522 E0.00653
G1 X116.287 Y83.899 E0.05088
G1 X117.042 Y83.899 E0.02365
G1 X117.042 Y85.522 E0.05088
G1 X117.796 Y85.522 E0.02365
G1 X117.796 Y83.899 E0.05088
G1 X118.550 Y83.899 E0.02365
G1 X118.550 Y85.522 E0.05088
G1 X119.304 Y85.522 E0.02365
G1 X119.304 Y83.899 E0.05088
G1 X120.058 Y83.899 E0.02365
G1 X120.058 Y85.522 E0.05088
G1 X120.812 Y85.522 E0.02365
G1 X120.812 Y83.899 E0.05088
G1 X121.567 Y83.899 E0.02365
G1 X121.567 Y85.522 E0.05088
G1 X122.321 Y85.522 E0.02365
G1 X122.321 Y83.899 E0.05088
G1 X123.075 Y83.899 E0.02365
G1 X123.075 Y85.522 E0.05088
G1 X123.685 Y85.522 E0.01912
G1 X123.685 Y87.829 E0.07234
G1 X123.829 Y87.829 E0.00453
G1 X123.829 Y83.899 E0.12322
G1 X124.583 Y83.899 E0.02365
G1 X124.583 Y87.829 E0.12322
G1 X125.337 Y87.829 E0.02365
G1 X125.337 Y83.729 E0.12854
M204 S1000
G1 F8640
G1 X125.337 Y87.021 E-0.76000
G1 E-0.04000 F2100.00000
G1 Z0.800 F10800.000
G1 X125.337 Y101.186
G1 Z0.200
G1 E0.80000 F2100.00000
M204 S20
G1 F1800
G1 X125.337 Y106.286 E0.15989
G1 X124.583 Y106.286 E0.02365
G1 X124.583 Y101.356 E0.15457
G1 X123.829 Y101.356 E0.02365
G1 X123.829 Y106.286 E0.15457
G1 X123.685 Y106.286 E0.00453
G1 X123.685 Y103.979 E0.07234
G1 X123.075 Y103.979 E0.01912
G1 X123.075 Y101.356 E0.08224
G1 X122.321 Y101.356 E0.02365
G1 X122.321 Y103.979 E0.08224
G1 X121.567 Y103.979 E0.02365
G1 X121.567 Y101.356 E0.08224
G1 X120.812 Y101.356 E0.02365
G1 X120.812 Y103.979 E0.08224
G1 X120.058 Y103.979 E0.02365
G1 X120.058 Y101.356 E0.08224
G1 X119.304 Y101.356 E0.02365
G1 X119.304 Y103.979 E0.08224
G1 X118.550 Y103.979 E0.02365
G1 X118.550 Y101.356 E0.08224
G1 X117.796 Y101.356 E0.02365
G1 X117.796 Y103.979 E0.08224
G1 X117.042 Y103.979 E0.02365
G1 X117.042 Y101.356 E0.08224
G1 X116.287 Y101.356 E0.02365
G1 X116.287 Y103.979 E0.08224
G1 X116.079 Y103.979 E0.00653
G1 X116.079 Y106.286 E0.07234
G1 X115.533 Y106.286 E0.01711
G1 X115.533 Y101.356 E0.15457
G1 X114.779 Y101.356 E0.02365
G1 X114.779 Y106.286 E0.15457
G1 X114.025 Y106.286 E0.02365
G1 X114.025 Y101.356 E0.15457
G1 X113.456 Y101.356 E0.01783
G1 X113.456 Y103.663 E0.07234
G1 X113.271 Y103.663 E0.00582
G1 X113.271 Y114.207 E0.33060
G1 X113.456 Y114.207 E0.00582
G1 X113.456 Y116.514 E0.07234
G1 X114.025 Y116.514 E0.01783
G1 X114.025 Y111.584 E0.15457
G1 X114.779 Y111.584 E0.02365
G1 X114.779 Y116.514 E0.15457
G1 X115.533 Y116.514 E0.02365
G1 X115.533 Y111.584 E0.15457
G1 X116.079 Y111.584 E0.01712
G1 X116.079 Y113.891 E0.07234
G1 X116.287 Y113.891 E0.00653
G1 X116.287 Y116.514 E0.08224
G1 X117.042 Y116.514 E0.02365
G1 X117.042 Y113.891 E0.08224
G1 X117.796 Y113.891 E0.02365
G1 X117.796 Y116.514 E0.08224
G1 X118.550 Y116.514 E0.02365
G1 X118.550 Y113.891 E0.08224
G1 X119.304 Y113.891 E0.02365
G1 X119.304 Y116.514 E0.08224
G1 X120.058 Y116.514 E0.02365
G1 X120.058 Y113.891 E0.08224
G1 X120.812 Y113.891 E0.02365
G1 X120.812 Y116.514 E0.08224
G1 X121.567 Y116.514 E0.02365
G1 X121.567 Y113.891 E0.08224
M73 Q1 S125
G1 X122.321 Y113.891 E0.02365
