; generated by PrusaSlicer 2.0.0 on 2019-08-18 at 19:53:13

; 

; external perimeters extrusion width = 0.45mm
; perimeters extrusion width = 0.45mm
; infill extrusion width = 0.45mm
; solid infill extrusion width = 0.45mm
; top infill extrusion width = 0.40mm
; support material extrusion width = 0.35mm
; first layer extrusion width = 0.42mm

M73 P0 R20
M73 Q0 S20
M201 X1000 Y1000 Z1000 E5000 ; sets maximum accelerations, mm/sec^2
M203 X200 Y200 Z12 E120 ; sets maximum feedrates, mm/sec
M204 P1250 R1250 T1250 ; sets acceleration (P, T) and retract acceleration (R), mm/sec^2
M205 X8.00 Y8.00 Z0.40 E1.50 ; sets the jerk limits, mm/sec
M205 S0 T0 ; sets the minimum extruding and travel feed rate, mm/sec
M107
M115 U3.4.0 ; tell printer latest fw version
M83  ; extruder relative mode
M104 S140 ; set extruder to warm-up temp
M140 S80 ; set bed temp
M190 S80 ; wait for bed temp
G28 W ; home all without mesh bed level
G80 ; mesh bed leveling
M104 S250 ; set extruder temp
M109 S250 ; wait for extruder temp
G1 Y-3.0 F1000.0 ; go outside print area
G92 E0.0
G1 X60.0 E9.0  F1000.0 ; intro line
M73 Q0 S20
M73 P0 R20
G1 X100.0 E12.5  F1000.0 ; intro line
G92 E0.0
M221 S95
M900 K45; Filament gcode
G21 ; set units to millimeters
G90 ; use absolute coordinates
M83 ; use relative distances for extrusion
;BEFORE_LAYER_CHANGE
G92 E0.0
;0.2


G1 E-0.80000 F2100.00000
G1 Z0.600 F10800.000
;AFTER_LAYER_CHANGE
;0.2
G1 X113.536 Y72.735
G1 Z0.200
G1 E0.80000 F2100.00000
M204 S20
G1 F1800
G1 X114.354 Y71.692 E0.04156
G1 X115.432 Y70.930 E0.04140
G1 X116.683 Y70.508 E0.04140
G1 X117.481 Y70.434 E0.02513
G1 X132.505 Y70.434 E0.47107
G1 X133.361 Y70.516 E0.02694
G1 X134.180 Y70.755 E0.02677
G1 X134.942 Y71.142 E0.02677
G1 X135.621 Y71.668 E0.02694
G1 X136.190 Y72.312 E0.02694
G1 X136.626 Y73.046 E0.02677
G1 X136.918 Y73.848 E0.02677
G1 X137.055 Y74.691 E0.02677
G1 X137.066 Y135.011 E1.89127
G1 X136.946 Y136.036 E0.03237
G1 X136.456 Y137.279 E0.04189
G1 X135.623 Y138.330 E0.04205
G1 X134.526 Y139.092 E0.04189
G1 X133.249 Y139.504 E0.04205
G1 X132.519 Y139.566 E0.02298
G1 X117.484 Y139.566 E0.47140
G1 X116.464 Y139.446 E0.03221
G1 X115.761 Y139.221 E0.02315
G1 X115.108 Y138.889 E0.02298
G1 X114.516 Y138.456 E0.02298
G1 X113.998 Y137.930 E0.02315
G1 X113.575 Y137.332 E0.02298
G1 X113.250 Y136.668 E0.02315
G1 X113.037 Y135.962 E0.02315
G1 X112.940 Y135.235 E0.02298
G1 X112.934 Y74.989 E1.88896
G1 X113.054 Y73.964 E0.03237
G1 X113.514 Y72.791 E0.03952
M204 S1000
G1 X113.863 Y72.928 F10800.000
M204 S20
G1 F1800
G1 X114.630 Y71.949 E0.03901
G1 X115.635 Y71.250 E0.03839
G1 X116.799 Y70.870 E0.03839
G1 X117.484 Y70.811 E0.02154
G1 X132.505 Y70.811 E0.47099
G1 X133.289 Y70.886 E0.02469
G1 X134.045 Y71.107 E0.02469
G1 X134.747 Y71.465 E0.02469
G1 X135.369 Y71.948 E0.02469
G1 X135.889 Y72.539 E0.02469
G1 X136.290 Y73.217 E0.02469
G1 X136.558 Y73.963 E0.02485
G1 X136.681 Y74.741 E0.02469
G1 X136.689 Y135.005 E1.88954
G1 X136.579 Y135.952 E0.02990
G1 X136.122 Y137.104 E0.03886
G1 X135.347 Y138.072 E0.03886
G1 X134.329 Y138.768 E0.03870
G1 X133.146 Y139.138 E0.03886
G1 X117.485 Y139.189 E0.49104
G1 X116.548 Y139.079 E0.02958
G1 X115.903 Y138.872 E0.02122
G1 X115.300 Y138.565 E0.02122
G1 X114.755 Y138.164 E0.02122
G1 X114.285 Y137.684 E0.02106
G1 X113.894 Y137.131 E0.02122
G1 X113.598 Y136.523 E0.02122
G1 X113.404 Y135.875 E0.02122
G1 X113.316 Y135.203 E0.02122
G1 X113.311 Y74.995 E1.88780
G1 X113.421 Y74.048 E0.02990
G1 X113.841 Y72.984 E0.03585
M204 S1000
G1 F8640
G1 X114.630 Y71.949 E-0.30062
G1 X115.635 Y71.250 E-0.28268
G1 X116.363 Y71.013 E-0.17670
G1 E-0.04000 F2100.00000
G1 Z0.800 F10800.000
G1 X123.082 Y78.446
G1 Z0.200
G1 E0.80000 F2100.00000
M204 S20
G1 F1800
G1 X123.230 Y78.214 E0.00862
G1 X123.405 Y78.002 E0.00862
G1 X123.605 Y77.814 E0.00862
G1 X123.827 Y77.652 E0.00862
G1 X124.068 Y77.520 E0.00861
G1 X124.324 Y77.419 E0.00862
G1 X124.590 Y77.350 E0.00862
G1 X124.863 Y77.316 E0.00861
G1 X125.137 Y77.316 E0.00862
G1 X125.410 Y77.350 E0.00861
G1 X125.676 Y77.419 E0.00862
G1 X125.932 Y77.520 E0.00862
G1 X126.173 Y77.652 E0.00861
G1 X126.395 Y77.814 E0.00862
G1 X126.595 Y78.002 E0.00862
G1 X126.770 Y78.214 E0.00862
G1 X126.918 Y78.446 E0.00862
G1 X127.035 Y78.694 E0.00861
G1 X127.120 Y78.956 E0.00862
G1 X127.171 Y79.226 E0.00862
G1 X127.187 Y79.478 E0.00794
G1 X127.187 Y130.522 E1.60042
G1 X127.171 Y130.774 E0.00794
G1 X127.120 Y131.044 E0.00862
G1 X127.035 Y131.306 E0.00862
G1 X126.918 Y131.554 E0.00862
G1 X126.770 Y131.786 E0.00862
G1 X126.595 Y131.998 E0.00862
G1 X126.395 Y132.186 E0.00862
G1 X126.173 Y132.348 E0.00862
G1 X125.932 Y132.480 E0.00862
G1 X125.676 Y132.581 E0.00862
G1 X125.410 Y132.650 E0.00862
G1 X125.137 Y132.684 E0.00862
G1 X124.863 Y132.684 E0.00862
G1 X124.590 Y132.650 E0.00862
G1 X124.324 Y132.581 E0.00862
G1 X124.068 Y132.480 E0.00862
G1 X123.827 Y132.348 E0.00862
G1 X123.605 Y132.186 E0.00862
G1 X123.405 Y131.998 E0.00862
G1 X123.230 Y131.786 E0.00862
G1 X123.082 Y131.554 E0.00862
G1 X122.965 Y131.306 E0.00862
G1 X122.880 Y131.044 E0.00862
G1 X122.829 Y130.774 E0.00862
G1 X122.813 Y130.522 E0.00794
G1 X122.813 Y79.478 E1.60042
G1 X122.829 Y79.226 E0.00794
G1 X122.880 Y78.956 E0.00861
G1 X122.965 Y78.694 E0.00862
G1 X123.057 Y78.500 E0.00673
M204 S1000
G1 X123.398 Y78.661 F10800.000
M204 S20
G1 F1800
G1 X123.535 Y78.436 E0.00826
G1 X123.680 Y78.261 E0.00713
G1 X123.846 Y78.105 E0.00713
G1 X124.030 Y77.971 E0.00713
G1 X124.229 Y77.862 E0.00713
G1 X124.440 Y77.778 E0.00713
G1 X124.661 Y77.721 E0.00713
G1 X124.886 Y77.693 E0.00713
G1 X125.114 Y77.693 E0.00713
G1 X125.339 Y77.721 E0.00713
G1 X125.560 Y77.778 E0.00713
G1 X125.771 Y77.862 E0.00713
G1 X125.970 Y77.971 E0.00713
G1 X126.154 Y78.105 E0.00713
G1 X126.320 Y78.261 E0.00713
G1 X126.465 Y78.436 E0.00713
G1 X126.587 Y78.628 E0.00713
G1 X126.683 Y78.833 E0.00713
G1 X126.754 Y79.050 E0.00713
G1 X126.796 Y79.273 E0.00713
G1 X126.810 Y79.490 E0.00682
G1 X126.810 Y130.510 E1.59968
G1 X126.796 Y130.727 E0.00682
G1 X126.754 Y130.950 E0.00713
G1 X126.683 Y131.167 E0.00713
G1 X126.587 Y131.372 E0.00713
G1 X126.465 Y131.564 E0.00713
G1 X126.320 Y131.739 E0.00713
G1 X126.154 Y131.895 E0.00713
G1 X125.970 Y132.029 E0.00713
G1 X125.771 Y132.138 E0.00713
G1 X125.560 Y132.222 E0.00713
G1 X125.339 Y132.279 E0.00713
G1 X125.114 Y132.307 E0.00713
G1 X124.886 Y132.307 E0.00713
G1 X124.661 Y132.279 E0.00713
G1 X124.441 Y132.222 E0.00713
G1 X124.229 Y132.138 E0.00713
G1 X124.030 Y132.029 E0.00713
G1 X123.846 Y131.895 E0.00713
G1 X123.680 Y131.739 E0.00713
G1 X123.535 Y131.564 E0.00713
G1 X123.413 Y131.372 E0.00713
G1 X123.317 Y131.167 E0.00713
G1 X123.246 Y130.950 E0.00713
G1 X123.204 Y130.727 E0.00713
G1 X123.190 Y130.510 E0.00682
G1 X123.190 Y79.490 E1.59968
G1 X123.204 Y79.273 E0.00682
G1 X123.246 Y79.050 E0.00713
G1 X123.372 Y78.715 E0.01122
M204 S1000
G1 X123.254 Y78.440 F10800.000
G1 F8640
G1 X123.535 Y78.436 E-0.07463
G1 X123.680 Y78.261 E-0.05249
G1 X123.846 Y78.105 E-0.05251
G1 X124.030 Y77.971 E-0.05252
G1 X124.229 Y77.862 E-0.05248
G1 X124.440 Y77.778 E-0.05251
G1 X124.661 Y77.721 E-0.05250
G1 X124.886 Y77.693 E-0.05249
G1 X125.114 Y77.693 E-0.05251
G1 X125.339 Y77.721 E-0.05249
G1 X125.560 Y77.778 E-0.05250
G1 X125.771 Y77.862 E-0.05251
G1 X125.970 Y77.971 E-0.05248
G1 X126.154 Y78.105 E-0.05251
G1 X126.163 Y78.113 E-0.00285
G1 E-0.04000 F2100.00000
G1 Z0.800 F10800.000
G1 X118.187 Y75.687
G1 Z0.200
G1 E0.80000 F2100.00000
M204 S20
G1 F1800
G1 X131.813 Y75.687 E0.42723
G1 X131.813 Y134.313 E1.83817
G1 X118.187 Y134.313 E0.42723
G1 X118.187 Y75.747 E1.83629
M204 S1000
G1 X117.810 Y75.310 F10800.000
M204 S20
G1 F1800
G1 X132.190 Y75.310 E0.45087
G1 X132.190 Y134.690 E1.86182
G1 X117.810 Y134.690 E0.45087
G1 X117.810 Y75.370 E1.85994
M204 S1000
G1 X118.171 Y75.482 F10800.000
G1 F8640
G1 X121.101 Y75.356 E-0.76000
G1 E-0.04000 F2100.00000
G1 Z0.800 F10800.000
G1 X124.496 Y75.800
G1 Z0.200
G1 E0.80000 F2100.00000
M204 S20
G1 F1800
G1 X125.899 Y77.203 E0.06255
G1 X125.463 Y77.072 E0.01435
G1 X125.198 Y77.039 E0.00841
G1 X124.130 Y75.970 E0.04766
G1 X123.593 Y75.970 E0.01692
G1 X124.678 Y77.054 E0.04836
G1 X124.236 Y77.149 E0.01424
G1 X123.057 Y75.970 E0.05260
G1 X122.521 Y75.970 E0.01692
G1 X123.861 Y77.311 E0.05981
G1 X123.532 Y77.517 E0.01227
G1 X121.984 Y75.970 E0.06902
G1 X121.448 Y75.970 E0.01692
G1 X123.243 Y77.765 E0.08008
G1 X122.996 Y78.054 E0.01200
G1 X120.911 Y75.970 E0.09296
G1 X120.375 Y75.970 E0.01692
G1 X122.796 Y78.391 E0.10796
G1 X122.702 Y78.590 E0.00695
G1 X122.642 Y78.773 E0.00608
G1 X119.839 Y75.970 E0.12504
G1 X119.302 Y75.970 E0.01692
G1 X122.546 Y79.214 E0.14468
G1 X122.530 Y79.734 E0.01642
G1 X118.766 Y75.970 E0.16788
G1 X118.470 Y75.970 E0.00934
G1 X118.470 Y76.210 E0.00758
G1 X122.530 Y80.270 E0.18109
G1 X122.530 Y80.807 E0.01692
G1 X118.470 Y76.747 E0.18109
G1 X118.470 Y77.283 E0.01692
G1 X122.530 Y81.343 E0.18109
G1 X122.530 Y81.880 E0.01692
G1 X118.470 Y77.819 E0.18109
G1 X118.470 Y78.356 E0.01692
G1 X122.530 Y82.416 E0.18109
G1 X122.530 Y82.952 E0.01692
G1 X118.470 Y78.892 E0.18109
G1 X118.470 Y79.428 E0.01692
G1 X122.530 Y83.489 E0.18109
G1 X122.530 Y84.025 E0.01692
G1 X118.470 Y79.965 E0.18109
G1 X118.470 Y80.501 E0.01692
G1 X122.530 Y84.561 E0.18109
G1 X122.530 Y85.098 E0.01692
G1 X118.470 Y81.038 E0.18109
G1 X118.470 Y81.574 E0.01692
G1 X122.530 Y85.634 E0.18109
G1 X122.530 Y86.171 E0.01692
G1 X118.470 Y82.110 E0.18109
G1 X118.470 Y82.647 E0.01692
G1 X122.530 Y86.707 E0.18109
G1 X122.530 Y87.243 E0.01692
G1 X118.470 Y83.183 E0.18109
G1 X118.470 Y83.719 E0.01692
G1 X122.530 Y87.780 E0.18109
G1 X122.530 Y88.316 E0.01692
G1 X118.470 Y84.256 E0.18109
G1 X118.470 Y84.792 E0.01692
G1 X122.530 Y88.853 E0.18109
G1 X122.530 Y89.389 E0.01692
G1 X118.470 Y85.329 E0.18109
G1 X118.470 Y85.865 E0.01692
G1 X122.530 Y89.925 E0.18109
G1 X122.530 Y90.462 E0.01692
G1 X118.470 Y86.401 E0.18109
G1 X118.470 Y86.938 E0.01692
G1 X122.530 Y90.998 E0.18109
G1 X122.530 Y91.534 E0.01692
G1 X118.470 Y87.474 E0.18109
G1 X118.470 Y88.011 E0.01692
G1 X122.530 Y92.071 E0.18109
G1 X122.530 Y92.607 E0.01692
G1 X118.470 Y88.547 E0.18109
G1 X118.470 Y89.083 E0.01692
G1 X122.530 Y93.144 E0.18109
M73 Q5 S19
G1 X122.530 Y93.680 E0.01692
M73 P5 R19
G1 X118.470 Y89.620 E0.18109
G1 X118.470 Y90.156 E0.01692
G1 X122.530 Y94.216 E0.18109
G1 X122.530 Y94.753 E0.01692
G1 X118.470 Y90.692 E0.18109
G1 X118.470 Y91.229 E0.01692
G1 X122.530 Y95.289 E0.18109
G1 X122.530 Y95.825 E0.01692
G1 X118.470 Y91.765 E0.18109
G1 X118.470 Y92.302 E0.01692
G1 X122.530 Y96.362 E0.18109
G1 X122.530 Y96.898 E0.01692
G1 X118.470 Y92.838 E0.18109
G1 X118.470 Y93.374 E0.01692
G1 X122.530 Y97.435 E0.18109
G1 X122.530 Y97.971 E0.01692
G1 X118.470 Y93.911 E0.18109
G1 X118.470 Y94.447 E0.01692
G1 X122.530 Y98.507 E0.18109
G1 X122.530 Y99.044 E0.01692
G1 X118.470 Y94.983 E0.18109
G1 X118.470 Y95.520 E0.01692
G1 X122.530 Y99.580 E0.18109
G1 X122.530 Y100.116 E0.01692
G1 X118.470 Y96.056 E0.18109
G1 X118.470 Y96.593 E0.01692
G1 X122.530 Y100.653 E0.18109
G1 X122.530 Y101.189 E0.01692
G1 X118.470 Y97.129 E0.18109
G1 X118.470 Y97.665 E0.01692
G1 X122.530 Y101.726 E0.18109
G1 X122.530 Y102.262 E0.01692
G1 X118.470 Y98.202 E0.18109
G1 X118.470 Y98.738 E0.01692
G1 X122.530 Y102.798 E0.18109
G1 X122.530 Y103.335 E0.01692
G1 X118.470 Y99.274 E0.18109
G1 X118.470 Y99.811 E0.01692
G1 X122.530 Y103.871 E0.18109
G1 X122.530 Y104.407 E0.01692
G1 X118.470 Y100.347 E0.18109
G1 X118.470 Y100.884 E0.01692
G1 X122.530 Y104.944 E0.18109
G1 X122.530 Y105.480 E0.01692
G1 X118.470 Y101.420 E0.18109
G1 X118.470 Y101.956 E0.01692
G1 X122.530 Y106.017 E0.18109
G1 X122.530 Y106.553 E0.01692
G1 X118.470 Y102.493 E0.18109
G1 X118.470 Y103.029 E0.01692
G1 X122.530 Y107.089 E0.18109
G1 X122.530 Y107.626 E0.01692
G1 X118.470 Y103.565 E0.18109
G1 X118.470 Y104.102 E0.01692
G1 X122.530 Y108.162 E0.18109
G1 X122.530 Y108.698 E0.01692
G1 X118.470 Y104.638 E0.18109
G1 X118.470 Y105.175 E0.01692
G1 X122.530 Y109.235 E0.18109
G1 X122.530 Y109.771 E0.01692
G1 X118.470 Y105.711 E0.18109
G1 X118.470 Y106.247 E0.01692
G1 X122.530 Y110.308 E0.18109
G1 X122.530 Y110.844 E0.01692
G1 X118.470 Y106.784 E0.18109
G1 X118.470 Y107.320 E0.01692
G1 X122.530 Y111.380 E0.18109
G1 X122.530 Y111.917 E0.01692
G1 X118.470 Y107.856 E0.18109
G1 X118.470 Y108.393 E0.01692
G1 X122.530 Y112.453 E0.18109
G1 X122.530 Y112.989 E0.01692
G1 X118.470 Y108.929 E0.18109
G1 X118.470 Y109.466 E0.01692
G1 X122.530 Y113.526 E0.18109
G1 X122.530 Y114.062 E0.01692
G1 X118.470 Y110.002 E0.18109
G1 X118.470 Y110.538 E0.01692
G1 X122.530 Y114.599 E0.18109
G1 X122.530 Y115.135 E0.01692
G1 X118.470 Y111.075 E0.18109
G1 X118.470 Y111.611 E0.01692
G1 X122.530 Y115.671 E0.18109
G1 X122.530 Y116.208 E0.01692
G1 X118.470 Y112.147 E0.18109
G1 X118.470 Y112.684 E0.01692
G1 X122.530 Y116.744 E0.18109
G1 X122.530 Y117.281 E0.01692
G1 X118.470 Y113.220 E0.18109
G1 X118.470 Y113.757 E0.01692
G1 X122.530 Y117.817 E0.18109
G1 X122.530 Y118.353 E0.01692
G1 X118.470 Y114.293 E0.18109
G1 X118.470 Y114.829 E0.01692
G1 X122.530 Y118.890 E0.18109
G1 X122.530 Y119.426 E0.01692
G1 X118.470 Y115.366 E0.18109
G1 X118.470 Y115.902 E0.01692
G1 X122.530 Y119.962 E0.18109
G1 X122.530 Y120.499 E0.01692
G1 X118.470 Y116.439 E0.18109
G1 X118.470 Y116.975 E0.01692
G1 X122.530 Y121.035 E0.18109
G1 X122.530 Y121.572 E0.01692
G1 X118.470 Y117.511 E0.18109
G1 X118.470 Y118.048 E0.01692
G1 X122.530 Y122.108 E0.18109
G1 X122.530 Y122.644 E0.01692
G1 X118.470 Y118.584 E0.18109
G1 X118.470 Y119.120 E0.01692
G1 X122.530 Y123.181 E0.18109
G1 X122.530 Y123.717 E0.01692
G1 X118.470 Y119.657 E0.18109
G1 X118.470 Y120.193 E0.01692
G1 X122.530 Y124.253 E0.18109
G1 X122.530 Y124.790 E0.01692
G1 X118.470 Y120.730 E0.18109
G1 X118.470 Y121.266 E0.01692
G1 X122.530 Y125.326 E0.18109
G1 X122.530 Y125.863 E0.01692
G1 X118.470 Y121.802 E0.18109
G1 X118.470 Y122.339 E0.01692
G1 X122.530 Y126.399 E0.18109
G1 X122.530 Y126.935 E0.01692
G1 X118.470 Y122.875 E0.18109
G1 X118.470 Y123.411 E0.01692
G1 X122.530 Y127.472 E0.18109
G1 X122.530 Y128.008 E0.01692
G1 X118.470 Y123.948 E0.18109
G1 X118.470 Y124.484 E0.01692
G1 X122.530 Y128.544 E0.18109
G1 X122.530 Y129.081 E0.01692
G1 X118.470 Y125.021 E0.18109
G1 X118.470 Y125.557 E0.01692
G1 X122.530 Y129.617 E0.18109
G1 X122.530 Y130.154 E0.01692
G1 X118.470 Y126.093 E0.18109
G1 X118.470 Y126.630 E0.01692
G1 X122.541 Y130.701 E0.18157
G1 X122.606 Y131.115 E0.01322
G1 X122.696 Y131.392 E0.00920
G1 X118.470 Y127.166 E0.18849
G1 X118.470 Y127.702 E0.01692
G1 X124.798 Y134.030 E0.28222
G1 X125.334 Y134.030 E0.01692
G1 X124.101 Y132.797 E0.05498
G1 X124.537 Y132.928 E0.01434
G1 X124.802 Y132.961 E0.00842
G1 X125.870 Y134.030 E0.04766
G1 X126.407 Y134.030 E0.01692
G1 X125.322 Y132.946 E0.04836
G1 X125.764 Y132.851 E0.01424
G1 X126.943 Y134.030 E0.05260
G1 X127.479 Y134.030 E0.01692
G1 X126.139 Y132.689 E0.05981
G1 X126.468 Y132.483 E0.01227
G1 X128.016 Y134.030 E0.06902
G1 X128.552 Y134.030 E0.01692
G1 X126.757 Y132.235 E0.08008
G1 X127.004 Y131.946 E0.01200
G1 X129.089 Y134.030 E0.09296
G1 X129.625 Y134.030 E0.01692
G1 X127.204 Y131.609 E0.10796
G1 X127.298 Y131.410 E0.00695
G1 X127.358 Y131.227 E0.00608
G1 X130.161 Y134.030 E0.12504
G1 X130.698 Y134.030 E0.01692
G1 X127.454 Y130.786 E0.14468
G1 X127.470 Y130.266 E0.01642
G1 X131.234 Y134.030 E0.16788
G1 X131.530 Y134.030 E0.00934
G1 X131.530 Y133.790 E0.00758
G1 X127.470 Y129.730 E0.18109
G1 X127.470 Y129.193 E0.01692
G1 X131.530 Y133.253 E0.18109
G1 X131.530 Y132.717 E0.01692
G1 X127.470 Y128.657 E0.18109
G1 X127.470 Y128.120 E0.01692
G1 X131.530 Y132.181 E0.18109
G1 X131.530 Y131.644 E0.01692
G1 X127.470 Y127.584 E0.18109
G1 X127.470 Y127.048 E0.01692
G1 X131.530 Y131.108 E0.18109
G1 X131.530 Y130.572 E0.01692
G1 X127.470 Y126.511 E0.18109
G1 X127.470 Y125.975 E0.01692
G1 X131.530 Y130.035 E0.18109
G1 X131.530 Y129.499 E0.01692
G1 X127.470 Y125.439 E0.18109
G1 X127.470 Y124.902 E0.01692
G1 X131.530 Y128.962 E0.18109
G1 X131.530 Y128.426 E0.01692
G1 X127.470 Y124.366 E0.18109
G1 X127.470 Y123.829 E0.01692
G1 X131.530 Y127.890 E0.18109
