; generated by PrusaSlicer 2.0.0 on 2019-08-18 at 21:51:50

; 

; external perimeters extrusion width = 0.45mm
; perimeters extrusion width = 0.45mm
; infill extrusion width = 0.45mm
; solid infill extrusion width = 0.45mm
; top infill extrusion width = 0.40mm
; support material extrusion width = 0.35mm
; first layer extrusion width = 0.42mm

M73 P0 R53
M73 Q0 S53
M201 X1000 Y1000 Z1000 E5000 ; sets maximum accelerations, mm/sec^2
M203 X200 Y200 Z12 E120 ; sets maximum feedrates, mm/sec
M204 P1250 R1250 T1250 ; sets acceleration (P, T) and retract acceleration (R), mm/sec^2
M205 X8.00 Y8.00 Z0.40 E1.50 ; sets the jerk limits, mm/sec
M205 S0 T0 ; sets the minimum extruding and travel feed rate, mm/sec
M107
M115 U3.4.0 ; tell printer latest fw version
M83  ; extruder relative mode
M104 S140 ; set extruder to warm-up temp
M140 S80 ; set bed temp
M190 S80 ; wait for bed temp
G28 W ; home all without mesh bed level
G80 ; mesh bed leveling
M104 S250 ; set extruder temp
M109 S250 ; wait for extruder temp
G1 Y-3.0 F1000.0 ; go outside print area
G92 E0.0
G1 X60.0 E9.0  F1000.0 ; intro line
M73 Q0 S53
M73 P0 R53
G1 X100.0 E12.5  F1000.0 ; intro line
G92 E0.0
M221 S95
M900 K45; Filament gcode
G21 ; set units to millimeters
G90 ; use absolute coordinates
M83 ; use relative distances for extrusion
;BEFORE_LAYER_CHANGE
G92 E0.0
;0.2


G1 E-0.80000 F2100.00000
G1 Z0.600 F10800.000
;AFTER_LAYER_CHANGE
;0.2
G1 X102.945 Y70.402
G1 Z0.200
G1 E0.80000 F2100.00000
M204 S20
G1 F1800
G1 X103.614 Y69.437 E0.03681
G1 X104.507 Y68.675 E0.03681
G1 X105.565 Y68.166 E0.03681
G1 X106.717 Y67.943 E0.03681
G1 X143.005 Y67.934 E1.13778
G1 X143.866 Y68.017 E0.02710
G1 X144.695 Y68.261 E0.02710
G1 X145.459 Y68.653 E0.02694
G1 X146.140 Y69.186 E0.02710
G1 X146.709 Y69.837 E0.02710
G1 X147.142 Y70.579 E0.02694
G1 X147.428 Y71.389 E0.02694
G1 X147.558 Y72.244 E0.02710
G1 X147.566 Y137.532 E2.04706
G1 X147.433 Y138.593 E0.03352
G1 X147.055 Y139.598 E0.03369
G1 X146.375 Y140.575 E0.03730
G1 X145.466 Y141.342 E0.03730
G1 X144.385 Y141.850 E0.03746
G1 X143.214 Y142.061 E0.03730
G1 X106.942 Y142.065 E1.13729
G1 X105.892 Y141.929 E0.03319
G1 X104.902 Y141.555 E0.03319
G1 X103.906 Y140.857 E0.03812
G1 X103.132 Y139.926 E0.03796
G1 X102.629 Y138.819 E0.03812
G1 X102.436 Y137.624 E0.03796
G1 X102.434 Y72.468 E2.04292
G1 X102.567 Y71.407 E0.03352
G1 X102.924 Y70.458 E0.03181
M204 S1000
G1 X103.275 Y70.591 F10800.000
M204 S20
G1 F1800
G1 X103.903 Y69.680 E0.03471
G1 X104.727 Y68.982 E0.03383
G1 X105.701 Y68.518 E0.03383
G1 X106.761 Y68.318 E0.03383
G1 X143.005 Y68.311 E1.13640
G1 X143.794 Y68.387 E0.02485
G1 X144.555 Y68.611 E0.02485
G1 X145.259 Y68.973 E0.02485
G1 X145.883 Y69.462 E0.02485
G1 X146.404 Y70.060 E0.02485
G1 X146.803 Y70.745 E0.02485
G1 X147.067 Y71.497 E0.02501
G1 X147.183 Y72.281 E0.02485
G1 X147.188 Y137.530 E2.04583
G1 X147.065 Y138.511 E0.03100
G1 X146.714 Y139.436 E0.03100
G1 X146.086 Y140.332 E0.03430
G1 X145.248 Y141.034 E0.03430
G1 X144.256 Y141.496 E0.03430
G1 X143.178 Y141.685 E0.03430
G1 X106.949 Y141.688 E1.13593
G1 X105.979 Y141.562 E0.03069
G1 X105.064 Y141.214 E0.03069
G1 X104.157 Y140.576 E0.03477
G1 X103.447 Y139.718 E0.03493
G1 X102.988 Y138.703 E0.03493
G1 X102.813 Y137.607 E0.03477
G1 X102.812 Y72.470 E2.04235
G1 X102.935 Y71.489 E0.03100
G1 X103.254 Y70.647 E0.02822
M204 S1000
G1 F8640
G1 X103.903 Y69.680 E-0.26906
G1 X104.727 Y68.982 E-0.24915
G1 X105.672 Y68.532 E-0.24179
G1 E-0.04000 F2100.00000
G1 Z0.800 F10800.000
G1 X133.279 Y77.123
G1 Z0.200
G1 E0.80000 F2100.00000
M204 S20
G1 F1800
G1 X133.279 Y127.424 E1.57714
G1 X133.449 Y127.828 E0.01373
G1 X133.606 Y128.076 E0.00922
G1 X133.794 Y128.302 E0.00921
G1 X134.033 Y128.527 E0.01030
G1 X134.033 Y76.388 E1.63477
G1 X134.055 Y76.429 E0.00144
G1 X134.503 Y76.182 E0.01603
G1 X134.787 Y76.070 E0.00958
G1 X134.787 Y128.929 E1.65735
G1 X135.061 Y128.999 E0.00887
G1 X135.542 Y129.049 E0.01514
G1 X135.542 Y75.899 E1.66649
G1 X136.296 Y76.103 E0.02449
G1 X136.296 Y128.907 E1.65565
G1 X136.360 Y128.891 E0.00209
G1 X136.364 Y128.906 E0.00049
G1 X136.708 Y128.770 E0.01160
G1 X137.050 Y128.449 E0.01470
G1 X137.050 Y76.539 E1.62761
G1 X137.177 Y76.631 E0.00492
G1 X137.196 Y76.604 E0.00105
G1 X137.243 Y76.638 E0.00181
G1 X137.374 Y76.796 E0.00642
G1 X137.676 Y77.438 E0.02227
G1 X137.767 Y77.718 E0.00922
G1 X137.804 Y77.912 E0.00620
G1 X137.804 Y127.688 E1.56070
M204 S1000
G1 F8640
G1 X137.804 Y124.397 E-0.76000
G1 E-0.04000 F2100.00000
G1 Z0.800 F10800.000
G1 X136.149 Y130.128
G1 Z0.200
G1 E0.80000 F2100.00000
M204 S20
G1 F1800
G1 X135.630 Y130.184 E0.01638
G1 X135.278 Y130.181 E0.01101
G1 X134.846 Y130.127 E0.01366
G1 X134.422 Y130.018 E0.01373
G1 X134.015 Y129.856 E0.01373
G1 X133.631 Y129.645 E0.01374
G1 X133.276 Y129.388 E0.01374
G1 X132.957 Y129.088 E0.01373
G1 X132.678 Y128.750 E0.01374
G1 X132.443 Y128.381 E0.01374
G1 X132.257 Y127.984 E0.01374
G1 X132.121 Y127.568 E0.01373
G1 X132.039 Y127.137 E0.01374
G1 X132.013 Y126.722 E0.01306
G1 X132.013 Y78.278 E1.51890
G1 X132.039 Y77.863 E0.01306
G1 X132.121 Y77.432 E0.01374
G1 X132.257 Y77.016 E0.01374
G1 X132.443 Y76.619 E0.01374
G1 X132.678 Y76.250 E0.01374
G1 X132.957 Y75.912 E0.01374
G1 X133.276 Y75.612 E0.01374
G1 X133.631 Y75.355 E0.01374
G1 X134.015 Y75.144 E0.01374
G1 X134.422 Y74.982 E0.01374
G1 X134.851 Y74.872 E0.01389
G1 X135.370 Y74.816 E0.01637
G1 X135.722 Y74.819 E0.01102
G1 X136.154 Y74.873 E0.01365
G1 X136.578 Y74.982 E0.01374
G1 X136.985 Y75.144 E0.01374
G1 X137.369 Y75.355 E0.01374
G1 X137.724 Y75.612 E0.01374
G1 X138.043 Y75.912 E0.01374
G1 X138.322 Y76.250 E0.01374
G1 X138.557 Y76.619 E0.01373
G1 X138.744 Y77.016 E0.01374
G1 X138.879 Y77.433 E0.01374
G1 X138.961 Y77.863 E0.01373
G1 X138.987 Y78.278 E0.01306
G1 X138.987 Y126.722 E1.51890
G1 X138.961 Y127.137 E0.01306
G1 X138.879 Y127.567 E0.01373
G1 X138.744 Y127.984 E0.01373
G1 X138.557 Y128.381 E0.01374
G1 X138.322 Y128.750 E0.01374
G1 X138.043 Y129.088 E0.01374
G1 X137.724 Y129.388 E0.01373
G1 X137.369 Y129.645 E0.01374
G1 X136.985 Y129.856 E0.01374
G1 X136.578 Y130.018 E0.01373
G1 X136.207 Y130.113 E0.01201
M204 S1000
G1 X136.113 Y129.748 F10800.000
M204 S20
G1 F1800
G1 X135.611 Y129.807 E0.01586
G1 X135.304 Y129.804 E0.00963
G1 X134.917 Y129.756 E0.01222
G1 X134.539 Y129.658 E0.01225
G1 X134.176 Y129.515 E0.01225
G1 X133.833 Y129.326 E0.01225
G1 X133.517 Y129.097 E0.01225
G1 X133.232 Y128.829 E0.01225
G1 X132.983 Y128.528 E0.01225
G1 X132.774 Y128.199 E0.01225
G1 X132.608 Y127.845 E0.01225
G1 X132.487 Y127.474 E0.01225
G1 X132.414 Y127.090 E0.01225
G1 X132.390 Y126.710 E0.01194
G1 X132.390 Y78.290 E1.51816
G1 X132.414 Y77.910 E0.01194
G1 X132.487 Y77.526 E0.01225
G1 X132.608 Y77.155 E0.01225
G1 X132.774 Y76.801 E0.01225
G1 X132.983 Y76.472 E0.01225
G1 X133.232 Y76.171 E0.01225
G1 X133.517 Y75.903 E0.01225
G1 X133.833 Y75.674 E0.01225
G1 X134.176 Y75.485 E0.01225
G1 X134.539 Y75.342 E0.01225
G1 X134.919 Y75.244 E0.01230
G1 X135.389 Y75.193 E0.01483
G1 X135.696 Y75.196 E0.00963
G1 X136.083 Y75.244 E0.01222
G1 X136.461 Y75.342 E0.01225
G1 X136.824 Y75.485 E0.01225
G1 X137.167 Y75.674 E0.01225
G1 X137.483 Y75.903 E0.01225
G1 X137.768 Y76.171 E0.01225
G1 X138.017 Y76.472 E0.01225
G1 X138.226 Y76.801 E0.01225
G1 X138.392 Y77.155 E0.01225
G1 X138.513 Y77.526 E0.01225
G1 X138.586 Y77.910 E0.01225
G1 X138.610 Y78.290 E0.01194
G1 X138.610 Y126.710 E1.51816
G1 X138.586 Y127.090 E0.01194
G1 X138.513 Y127.474 E0.01225
G1 X138.392 Y127.845 E0.01225
G1 X138.226 Y128.199 E0.01225
G1 X138.017 Y128.528 E0.01225
G1 X137.768 Y128.829 E0.01225
G1 X137.483 Y129.097 E0.01225
G1 X137.167 Y129.326 E0.01225
G1 X136.824 Y129.515 E0.01225
G1 X136.461 Y129.658 E0.01225
G1 X136.171 Y129.733 E0.00939
M204 S1000
G1 X135.980 Y130.125 F10800.000
G1 F8640
G1 X135.611 Y129.807 E-0.13053
G1 X135.304 Y129.804 E-0.07089
G1 X134.917 Y129.756 E-0.08999
G1 X134.539 Y129.658 E-0.09019
G1 X134.176 Y129.515 E-0.09019
G1 X133.833 Y129.326 E-0.09021
G1 X133.517 Y129.097 E-0.09020
G1 X133.232 Y128.829 E-0.09020
G1 X133.184 Y128.771 E-0.01761
G1 E-0.04000 F2100.00000
G1 Z0.800 F10800.000
G1 X142.313 Y136.813
G1 Z0.200
G1 E0.80000 F2100.00000
M204 S20
G1 F1800
G1 X128.687 Y136.813 E0.42723
G1 X128.687 Y73.187 E1.99494
G1 X142.313 Y73.187 E0.42723
G1 X142.313 Y136.753 E1.99306
M204 S1000
G1 X142.690 Y137.190 F10800.000
M204 S20
G1 F1800
G1 X128.310 Y137.190 E0.45087
G1 X128.310 Y72.810 E2.01859
M73 Q2 S52
M73 P2 R52
G1 X142.690 Y72.810 E0.45087
G1 X142.690 Y137.130 E2.01671
M204 S1000
G1 X142.330 Y137.016 F10800.000
G1 F8640
G1 X139.399 Y137.144 E-0.76000
G1 E-0.04000 F2100.00000
G1 Z0.800 F10800.000
G1 X139.706 Y136.700
G1 Z0.200
G1 E0.80000 F2100.00000
M204 S20
G1 F1800
G1 X128.970 Y125.963 E0.47660
G1 X128.970 Y126.497 E0.01676
G1 X139.003 Y136.530 E0.44537
G1 X138.469 Y136.530 E0.01676
G1 X128.970 Y127.031 E0.42167
G1 X128.970 Y127.565 E0.01676
G1 X137.935 Y136.530 E0.39797
G1 X137.401 Y136.530 E0.01676
G1 X128.970 Y128.099 E0.37427
G1 X128.970 Y128.633 E0.01676
G1 X136.867 Y136.530 E0.35058
G1 X136.334 Y136.530 E0.01676
G1 X128.970 Y129.166 E0.32688
G1 X128.970 Y129.700 E0.01676
G1 X135.800 Y136.530 E0.30318
G1 X135.266 Y136.530 E0.01676
G1 X128.970 Y130.234 E0.27948
G1 X128.970 Y130.768 E0.01676
G1 X134.732 Y136.530 E0.25578
G1 X134.198 Y136.530 E0.01676
G1 X128.970 Y131.302 E0.23209
G1 X128.970 Y131.836 E0.01676
G1 X133.664 Y136.530 E0.20839
G1 X133.131 Y136.530 E0.01676
G1 X128.970 Y132.369 E0.18469
G1 X128.970 Y132.903 E0.01676
G1 X132.597 Y136.530 E0.16099
G1 X132.063 Y136.530 E0.01676
G1 X128.970 Y133.437 E0.13730
G1 X128.970 Y133.971 E0.01676
G1 X131.529 Y136.530 E0.11360
G1 X130.995 Y136.530 E0.01676
G1 X128.970 Y134.505 E0.08990
G1 X128.970 Y135.039 E0.01676
G1 X130.461 Y136.530 E0.06620
G1 X129.927 Y136.530 E0.01676
G1 X128.970 Y135.573 E0.04251
G1 X128.970 Y136.106 E0.01676
G1 X129.563 Y136.700 E0.02634
M204 S1000
G1 F8640
G1 X128.970 Y136.106 E-0.19377
G1 X128.970 Y135.573 E-0.12327
G1 X129.927 Y136.530 E-0.31269
G1 X130.461 Y136.530 E-0.12327
G1 X130.440 Y136.509 E-0.00700
G1 E-0.04000 F2100.00000
G1 Z0.800 F10800.000
G1 X142.200 Y79.936
G1 Z0.200
G1 E0.80000 F2100.00000
M204 S20
G1 F1800
G1 X138.857 Y76.593 E0.14839
G1 X139.007 Y76.912 E0.01106
G1 X139.168 Y77.437 E0.01726
G1 X142.030 Y80.300 E0.12707
G1 X142.030 Y80.834 E0.01676
G1 X139.257 Y78.060 E0.12311
G1 X139.270 Y78.607 E0.01718
G1 X142.030 Y81.368 E0.12253
G1 X142.030 Y81.901 E0.01676
G1 X139.270 Y79.141 E0.12253
G1 X139.270 Y79.675 E0.01676
G1 X142.030 Y82.435 E0.12253
G1 X142.030 Y82.969 E0.01676
G1 X139.270 Y80.209 E0.12253
G1 X139.270 Y80.743 E0.01676
G1 X142.030 Y83.503 E0.12253
G1 X142.030 Y84.037 E0.01676
G1 X139.270 Y81.277 E0.12253
G1 X139.270 Y81.810 E0.01676
G1 X142.030 Y84.571 E0.12253
G1 X142.030 Y85.105 E0.01676
G1 X139.270 Y82.344 E0.12253
G1 X139.270 Y82.878 E0.01676
G1 X142.030 Y85.638 E0.12253
G1 X142.030 Y86.172 E0.01676
G1 X139.270 Y83.412 E0.12253
G1 X139.270 Y83.946 E0.01676
G1 X142.030 Y86.706 E0.12253
G1 X142.030 Y87.240 E0.01676
G1 X139.270 Y84.480 E0.12253
G1 X139.270 Y85.014 E0.01676
G1 X142.030 Y87.774 E0.12253
G1 X142.030 Y88.308 E0.01676
G1 X139.270 Y85.547 E0.12253
G1 X139.270 Y86.081 E0.01676
G1 X142.030 Y88.841 E0.12253
G1 X142.030 Y89.375 E0.01676
G1 X139.270 Y86.615 E0.12253
G1 X139.270 Y87.149 E0.01676
G1 X142.030 Y89.909 E0.12253
G1 X142.030 Y90.443 E0.01676
G1 X139.270 Y87.683 E0.12253
G1 X139.270 Y88.217 E0.01676
G1 X142.030 Y90.977 E0.12253
G1 X142.030 Y91.511 E0.01676
G1 X139.270 Y88.750 E0.12253
G1 X139.270 Y89.284 E0.01676
G1 X142.030 Y92.045 E0.12253
G1 X142.030 Y92.578 E0.01676
G1 X139.270 Y89.818 E0.12253
G1 X139.270 Y90.352 E0.01676
G1 X142.030 Y93.112 E0.12253
G1 X142.030 Y93.646 E0.01676
G1 X139.270 Y90.886 E0.12253
G1 X139.270 Y91.420 E0.01676
G1 X142.030 Y94.180 E0.12253
G1 X142.030 Y94.714 E0.01676
G1 X139.270 Y91.954 E0.12253
G1 X139.270 Y92.487 E0.01676
G1 X142.030 Y95.248 E0.12253
G1 X142.030 Y95.782 E0.01676
G1 X139.270 Y93.021 E0.12253
G1 X139.270 Y93.555 E0.01676
G1 X142.030 Y96.315 E0.12253
G1 X142.030 Y96.849 E0.01676
G1 X139.270 Y94.089 E0.12253
G1 X139.270 Y94.623 E0.01676
G1 X142.030 Y97.383 E0.12253
G1 X142.030 Y97.917 E0.01676
G1 X139.270 Y95.157 E0.12253
G1 X139.270 Y95.691 E0.01676
G1 X142.030 Y98.451 E0.12253
G1 X142.030 Y98.985 E0.01676
G1 X139.270 Y96.224 E0.12253
G1 X139.270 Y96.758 E0.01676
G1 X142.030 Y99.519 E0.12253
G1 X142.030 Y100.052 E0.01676
G1 X139.270 Y97.292 E0.12253
G1 X139.270 Y97.826 E0.01676
G1 X142.030 Y100.586 E0.12253
G1 X142.030 Y101.120 E0.01676
G1 X139.270 Y98.360 E0.12253
G1 X139.270 Y98.894 E0.01676
G1 X142.030 Y101.654 E0.12253
G1 X142.030 Y102.188 E0.01676
G1 X139.270 Y99.427 E0.12253
G1 X139.270 Y99.961 E0.01676
G1 X142.030 Y102.722 E0.12253
G1 X142.030 Y103.255 E0.01676
G1 X139.270 Y100.495 E0.12253
G1 X139.270 Y101.029 E0.01676
G1 X142.030 Y103.789 E0.12253
G1 X142.030 Y104.323 E0.01676
G1 X139.270 Y101.563 E0.12253
G1 X139.270 Y102.097 E0.01676
G1 X142.030 Y104.857 E0.12253
G1 X142.030 Y105.391 E0.01676
G1 X139.270 Y102.631 E0.12253
G1 X139.270 Y103.164 E0.01676
G1 X142.030 Y105.925 E0.12253
G1 X142.030 Y106.459 E0.01676
G1 X139.270 Y103.698 E0.12253
G1 X139.270 Y104.232 E0.01676
G1 X142.030 Y106.992 E0.12253
G1 X142.030 Y107.526 E0.01676
G1 X139.270 Y104.766 E0.12253
G1 X139.270 Y105.300 E0.01676
G1 X142.030 Y108.060 E0.12253
G1 X142.030 Y108.594 E0.01676
G1 X139.270 Y105.834 E0.12253
G1 X139.270 Y106.368 E0.01676
G1 X142.030 Y109.128 E0.12253
G1 X142.030 Y109.662 E0.01676
G1 X139.270 Y106.901 E0.12253
G1 X139.270 Y107.435 E0.01676
G1 X142.030 Y110.196 E0.12253
G1 X142.030 Y110.729 E0.01676
G1 X139.270 Y107.969 E0.12253
G1 X139.270 Y108.503 E0.01676
G1 X142.030 Y111.263 E0.12253
G1 X142.030 Y111.797 E0.01676
G1 X139.270 Y109.037 E0.12253
G1 X139.270 Y109.571 E0.01676
G1 X142.030 Y112.331 E0.12253
G1 X142.030 Y112.865 E0.01676
G1 X139.270 Y110.105 E0.12253
G1 X139.270 Y110.638 E0.01676
G1 X142.030 Y113.399 E0.12253
G1 X142.030 Y113.932 E0.01676
G1 X139.270 Y111.172 E0.12253
G1 X139.270 Y111.706 E0.01676
G1 X142.030 Y114.466 E0.12253
G1 X142.030 Y115.000 E0.01676
G1 X139.270 Y112.240 E0.12253
G1 X139.270 Y112.774 E0.01676
G1 X142.030 Y115.534 E0.12253
G1 X142.030 Y116.068 E0.01676
G1 X139.270 Y113.308 E0.12253
G1 X139.270 Y113.841 E0.01676
G1 X142.030 Y116.602 E0.12253
G1 X142.030 Y117.136 E0.01676
G1 X139.270 Y114.375 E0.12253
G1 X139.270 Y114.909 E0.01676
G1 X142.030 Y117.669 E0.12253
G1 X142.030 Y118.203 E0.01676
G1 X139.270 Y115.443 E0.12253
G1 X139.270 Y115.977 E0.01676
G1 X142.030 Y118.737 E0.12253
G1 X142.030 Y119.271 E0.01676
G1 X139.270 Y116.511 E0.12253
G1 X139.270 Y117.045 E0.01676
G1 X142.030 Y119.805 E0.12253
G1 X142.030 Y120.339 E0.01676
G1 X139.270 Y117.578 E0.12253
G1 X139.270 Y118.112 E0.01676
G1 X142.030 Y120.873 E0.12253
G1 X142.030 Y121.406 E0.01676
G1 X139.270 Y118.646 E0.12253
G1 X139.270 Y119.180 E0.01676
G1 X142.030 Y121.940 E0.12253
G1 X142.030 Y122.474 E0.01676
G1 X139.270 Y119.714 E0.12253
G1 X139.270 Y120.248 E0.01676
G1 X142.030 Y123.008 E0.12253
G1 X142.030 Y123.542 E0.01676
G1 X139.270 Y120.782 E0.12253
G1 X139.270 Y121.315 E0.01676
G1 X142.030 Y124.076 E0.12253
G1 X142.030 Y124.610 E0.01676
G1 X139.270 Y121.849 E0.12253
G1 X139.270 Y122.383 E0.01676
G1 X142.030 Y125.143 E0.12253
G1 X142.030 Y125.677 E0.01676
G1 X139.270 Y122.917 E0.12253
G1 X139.270 Y123.451 E0.01676
G1 X142.030 Y126.211 E0.12253
G1 X142.030 Y126.745 E0.01676
G1 X139.270 Y123.985 E0.12253
G1 X139.270 Y124.519 E0.01676
G1 X142.030 Y127.279 E0.12253
G1 X142.030 Y127.813 E0.01676
G1 X139.270 Y125.052 E0.12253
G1 X139.270 Y125.586 E0.01676
G1 X142.030 Y128.346 E0.12253
G1 X142.030 Y128.880 E0.01676
G1 X139.270 Y126.120 E0.12253
G1 X139.270 Y126.654 E0.01676
G1 X142.030 Y129.414 E0.12253
G1 X142.030 Y129.948 E0.01676
G1 X139.243 Y127.161 E0.12373
G1 X139.159 Y127.610 E0.01436
G1 X142.030 Y130.482 E0.12747
G1 X142.030 Y131.016 E0.01676
G1 X139.030 Y128.016 E0.13316
M73 Q3 S51
M73 P3 R51
G1 X138.867 Y128.386 E0.01270
G1 X142.030 Y131.550 E0.14042
G1 X142.030 Y132.083 E0.01676
G1 X138.673 Y128.726 E0.14904
