; generated by Slic3r Prusa Edition 1.41.2 on 2019-03-04 at 20:35:05

; 

; external perimeters extrusion width = 0.45mm
; perimeters extrusion width = 0.45mm
; infill extrusion width = 0.45mm
; solid infill extrusion width = 0.45mm
; top infill extrusion width = 0.40mm
; first layer extrusion width = 0.42mm

M73 P0 R112
M73 Q0 S113
M201 X1000 Y1000 Z1000 E5000 ; sets maximum accelerations, mm/sec^2
M203 X200 Y200 Z12 E120 ; sets maximum feedrates, mm/sec
M204 P1250 R1250 T1250 ; sets acceleration (P, T) and retract acceleration (R), mm/sec^2
M205 X8.00 Y8.00 Z0.40 E1.50 ; sets the jerk limits, mm/sec
M205 S0 T0 ; sets the minimum extruding and travel feed rate, mm/sec
M107
M115 U3.4.0 ; tell printer latest fw version
M83  ; extruder relative mode
M104 S140 ; set extruder to warm-up temp
M140 S80 ; set bed temp
M190 S80 ; wait for bed temp
G28 W ; home all without mesh bed level
G80 ; mesh bed leveling
M104 S250 ; set extruder temp
M109 S250 ; wait for extruder temp
G1 Y-3.0 F1000.0 ; go outside print area
G92 E0.0
G1 X60.0 E9.0  F1000.0 ; intro line
M73 Q0 S113
M73 P0 R112
G1 X100.0 E12.5  F1000.0 ; intro line
G92 E0.0
M221 S95
M900 K45; Filament gcode
G21 ; set units to millimeters
G90 ; use absolute coordinates
M83 ; use relative distances for extrusion
;BEFORE_LAYER_CHANGE
G92 E0.0
;0.2


G1 E-0.80000 F2100.00000
G1 Z0.600 F10800.000
;AFTER_LAYER_CHANGE
;0.2
G1 X130.667 Y106.895
G1 Z0.200
G1 E0.80000 F2100.00000
M204 S20
G1 F1800
G1 X131.584 Y105.975 E0.04074
G1 X132.728 Y105.348 E0.04091
G1 X133.505 Y105.133 E0.02529
G1 X134.314 Y105.058 E0.02546
G1 X234.333 Y105.058 E3.13602
G1 X235.198 Y105.142 E0.02727
G1 X236.037 Y105.390 E0.02743
G1 X236.809 Y105.791 E0.02727
G1 X237.494 Y106.335 E0.02743
G1 X238.061 Y106.995 E0.02727
G1 X238.493 Y107.756 E0.02743
G1 X238.773 Y108.585 E0.02743
G1 X238.890 Y109.447 E0.02727
G1 X238.878 Y142.798 E1.04572
G1 X238.595 Y144.056 E0.04042
G1 X237.972 Y145.184 E0.04042
G1 X237.058 Y146.093 E0.04042
G1 X235.927 Y146.711 E0.04042
G1 X235.149 Y146.926 E0.02529
G1 X234.341 Y147.000 E0.02546
G1 X134.211 Y146.999 E3.13949
G1 X133.539 Y146.932 E0.02117
G1 X132.880 Y146.765 E0.02133
G1 X132.257 Y146.504 E0.02117
G1 X131.676 Y146.151 E0.02133
G1 X130.707 Y145.216 E0.04222
G1 X130.334 Y144.647 E0.02133
G1 X130.051 Y144.034 E0.02117
G1 X129.837 Y143.262 E0.02513
G1 X129.762 Y142.469 E0.02496
G1 X129.773 Y109.307 E1.03977
G1 X130.046 Y108.037 E0.04074
G1 X130.638 Y106.948 E0.03886
M204 S1000
G1 X130.966 Y107.125 F10800.000
M204 S20
G1 F1800
G1 X131.818 Y106.270 E0.03783
G1 X132.875 Y105.695 E0.03776
G1 X133.582 Y105.502 E0.02296
G1 X134.316 Y105.435 E0.02312
G1 X234.332 Y105.435 E3.13595
G1 X235.131 Y105.513 E0.02517
G1 X235.896 Y105.740 E0.02501
G1 X236.608 Y106.111 E0.02517
G1 X237.236 Y106.610 E0.02517
G1 X237.758 Y107.221 E0.02517
G1 X238.153 Y107.919 E0.02517
G1 X238.408 Y108.680 E0.02517
G1 X238.513 Y109.476 E0.02517
G1 X238.505 Y142.743 E1.04306
G1 X238.248 Y143.909 E0.03744
G1 X237.672 Y144.956 E0.03744
G1 X236.829 Y145.794 E0.03729
G1 X235.779 Y146.363 E0.03744
G1 X235.073 Y146.556 E0.02296
G1 X234.339 Y146.623 E0.02312
G1 X134.231 Y146.622 E3.13880
G1 X133.005 Y146.409 E0.03901
G1 X131.892 Y145.842 E0.03917
G1 X130.998 Y144.977 E0.03901
G1 X130.399 Y143.887 E0.03901
G1 X130.208 Y143.190 E0.02264
G1 X130.139 Y142.466 E0.02280
G1 X130.147 Y109.356 E1.03815
G1 X130.395 Y108.183 E0.03760
G1 X130.938 Y107.178 E0.03580
M204 S1000
; PURGING FINISHED
G1 F8640
G1 X131.818 Y106.270 E-0.29189
G1 X132.875 Y105.695 E-0.27806
G1 X133.582 Y105.502 E-0.16907
G1 X133.672 Y105.494 E-0.02098
G1 E-0.04000 F2100.00000
G1 Z0.800 F10800.000
G1 X135.014 Y110.311
G1 Z0.200
G1 E0.80000 F2100.00000
M204 S20
G1 F1800
G1 X233.640 Y110.311 E3.09234
G1 X233.640 Y141.748 E0.98567
G1 X223.214 Y141.748 E0.32690
G1 X223.214 Y140.422 E0.04157
G1 X225.214 Y140.422 E0.06271
G1 X225.214 Y135.148 E0.16537
G1 X143.440 Y135.148 E2.56397
G1 X143.440 Y140.422 E0.16537
G1 X145.440 Y140.422 E0.06271
G1 X145.440 Y141.748 E0.04157
G1 X135.014 Y141.748 E0.32690
G1 X135.014 Y110.371 E0.98379
M204 S1000
G1 F8640
G1 X138.306 Y110.369 E-0.76000
G1 E-0.04000 F2100.00000
G1 Z0.800 F10800.000
G1 X224.837 Y140.045
G1 Z0.200
G1 E0.80000 F2100.00000
M204 S20
G1 F1800
G1 X224.837 Y135.525 E0.14172
G1 X143.817 Y135.525 E2.54033
G1 X143.817 Y140.045 E0.14172
G1 X145.817 Y140.045 E0.06271
G1 X145.817 Y142.125 E0.06522
G1 X134.637 Y142.125 E0.35054
G1 X134.637 Y109.934 E1.00932
G1 X234.017 Y109.934 E3.11599
G1 X234.017 Y142.125 E1.00932
G1 X222.837 Y142.125 E0.35054
G1 X222.837 Y140.045 E0.06522
G1 X224.777 Y140.045 E0.06083
M204 S1000
G1 X225.223 Y139.939 F10800.000
G1 F8640
G1 X224.821 Y136.753 E-0.76000
G1 E-0.04000 F2100.00000
G1 Z0.800 F10800.000
G1 X223.328 Y141.014
G1 Z0.200
G1 E0.80000 F2100.00000
M204 S20
G1 F1800
G1 X223.779 Y141.465 E0.02002
G1 X224.312 Y141.465 E0.01675
G1 X223.552 Y140.704 E0.03374
G1 X224.086 Y140.704 E0.01675
G1 X224.846 Y141.465 E0.03374
G1 X225.380 Y141.465 E0.01675
G1 X224.619 Y140.704 E0.03374
G1 X225.153 Y140.704 E0.01675
G1 X225.913 Y141.465 E0.03374
G1 X226.447 Y141.465 E0.01675
G1 X225.497 Y140.515 E0.04215
G1 X225.497 Y139.981 E0.01675
G1 X226.981 Y141.465 E0.06584
G1 X227.514 Y141.465 E0.01675
G1 X225.497 Y139.447 E0.08952
G1 X225.497 Y138.914 E0.01675
G1 X228.048 Y141.465 E0.11320
G1 X228.582 Y141.465 E0.01675
G1 X225.497 Y138.380 E0.13688
G1 X225.497 Y137.846 E0.01675
G1 X229.116 Y141.465 E0.16057
M73 Q0 S112
G1 X229.649 Y141.465 E0.01675
G1 X225.497 Y137.313 E0.18425
M73 P0 R111
G1 X225.497 Y136.779 E0.01675
G1 X230.183 Y141.465 E0.20793
G1 X230.717 Y141.465 E0.01675
G1 X225.497 Y136.245 E0.23161
G1 X225.497 Y135.712 E0.01675
G1 X231.420 Y141.634 E0.26283
M204 S1000
G1 F8640
G1 X229.093 Y139.307 E-0.76000
G1 E-0.04000 F2100.00000
G1 Z0.800 F10800.000
G1 X233.527 Y111.187
G1 Z0.200
G1 E0.80000 F2100.00000
M204 S20
G1 F1800
G1 X232.934 Y110.594 E0.02632
G1 X232.400 Y110.594 E0.01675
G1 X233.357 Y111.551 E0.04248
G1 X233.357 Y112.085 E0.01675
G1 X231.867 Y110.594 E0.06616
G1 X231.333 Y110.594 E0.01675
G1 X233.357 Y112.618 E0.08984
G1 X233.357 Y113.152 E0.01675
G1 X230.799 Y110.594 E0.11353
G1 X230.266 Y110.594 E0.01675
G1 X233.357 Y113.686 E0.13721
G1 X233.357 Y114.219 E0.01675
G1 X229.732 Y110.594 E0.16089
G1 X229.198 Y110.594 E0.01675
G1 X233.357 Y114.753 E0.18457
G1 X233.357 Y115.287 E0.01675
G1 X228.664 Y110.594 E0.20826
G1 X228.131 Y110.594 E0.01675
G1 X233.357 Y115.820 E0.23194
G1 X233.357 Y116.354 E0.01675
G1 X227.597 Y110.594 E0.25562
G1 X227.063 Y110.594 E0.01675
G1 X233.357 Y116.888 E0.27931
G1 X233.357 Y117.421 E0.01675
G1 X226.530 Y110.594 E0.30299
G1 X225.996 Y110.594 E0.01675
G1 X233.357 Y117.955 E0.32667
G1 X233.357 Y118.489 E0.01675
G1 X225.462 Y110.594 E0.35035
G1 X224.929 Y110.594 E0.01675
G1 X233.357 Y119.022 E0.37404
G1 X233.357 Y119.556 E0.01675
G1 X224.395 Y110.594 E0.39772
G1 X223.861 Y110.594 E0.01675
G1 X233.357 Y120.090 E0.42140
G1 X233.357 Y120.624 E0.01675
G1 X223.328 Y110.594 E0.44508
G1 X222.794 Y110.594 E0.01675
G1 X233.357 Y121.157 E0.46877
G1 X233.357 Y121.691 E0.01675
G1 X222.260 Y110.594 E0.49245
G1 X221.727 Y110.594 E0.01675
G1 X233.357 Y122.225 E0.51613
G1 X233.357 Y122.758 E0.01675
G1 X221.193 Y110.594 E0.53982
G1 X220.659 Y110.594 E0.01675
G1 X233.357 Y123.292 E0.56350
G1 X233.357 Y123.826 E0.01675
G1 X220.126 Y110.594 E0.58718
G1 X219.592 Y110.594 E0.01675
G1 X233.357 Y124.359 E0.61086
G1 X233.357 Y124.893 E0.01675
G1 X219.058 Y110.594 E0.63455
G1 X218.524 Y110.594 E0.01675
G1 X233.357 Y125.427 E0.65823
G1 X233.357 Y125.960 E0.01675
G1 X217.991 Y110.594 E0.68191
G1 X217.457 Y110.594 E0.01675
G1 X233.357 Y126.494 E0.70560
G1 X233.357 Y127.028 E0.01675
G1 X216.923 Y110.594 E0.72928
G1 X216.390 Y110.594 E0.01675
G1 X233.357 Y127.561 E0.75296
G1 X233.357 Y128.095 E0.01675
G1 X215.856 Y110.594 E0.77664
G1 X215.322 Y110.594 E0.01675
G1 X233.357 Y128.629 E0.80033
G1 X233.357 Y129.162 E0.01675
G1 X214.789 Y110.594 E0.82401
G1 X214.255 Y110.594 E0.01675
G1 X233.357 Y129.696 E0.84769
G1 X233.357 Y130.230 E0.01675
G1 X213.721 Y110.594 E0.87138
G1 X213.188 Y110.594 E0.01675
G1 X233.357 Y130.764 E0.89506
G1 X233.357 Y131.297 E0.01675
G1 X212.654 Y110.594 E0.91874
G1 X212.120 Y110.594 E0.01675
G1 X233.357 Y131.831 E0.94242
G1 X233.357 Y132.365 E0.01675
G1 X211.587 Y110.594 E0.96611
G1 X211.053 Y110.594 E0.01675
G1 X233.357 Y132.898 E0.98979
G1 X233.357 Y133.432 E0.01675
G1 X210.519 Y110.594 E1.01347
G1 X209.986 Y110.594 E0.01675
G1 X233.357 Y133.966 E1.03716
G1 X233.357 Y134.499 E0.01675
G1 X209.452 Y110.594 E1.06084
G1 X208.918 Y110.594 E0.01675
G1 X233.357 Y135.033 E1.08452
G1 X233.357 Y135.567 E0.01675
G1 X208.384 Y110.594 E1.10820
M73 Q1 S111
M73 P1 R110
G1 X207.851 Y110.594 E0.01675
G1 X233.357 Y136.100 E1.13189
G1 X233.357 Y136.634 E0.01675
G1 X207.317 Y110.594 E1.15557
G1 X206.783 Y110.594 E0.01675
G1 X233.357 Y137.168 E1.17925
G1 X233.357 Y137.701 E0.01675
G1 X206.250 Y110.594 E1.20294
G1 X205.716 Y110.594 E0.01675
G1 X233.357 Y138.235 E1.22662
G1 X233.357 Y138.769 E0.01675
G1 X205.182 Y110.594 E1.25030
G1 X204.649 Y110.594 E0.01675
G1 X233.357 Y139.302 E1.27398
G1 X233.357 Y139.836 E0.01675
G1 X204.115 Y110.594 E1.29767
G1 X203.581 Y110.594 E0.01675
G1 X233.357 Y140.370 E1.32135
G1 X233.357 Y140.904 E0.01675
G1 X203.048 Y110.594 E1.34503
G1 X202.514 Y110.594 E0.01675
G1 X233.357 Y141.437 E1.36871
G1 X233.357 Y141.465 E0.00086
G1 X232.851 Y141.465 E0.01588
G1 X201.980 Y110.594 E1.36994
G1 X201.447 Y110.594 E0.01675
G1 X232.318 Y141.465 E1.36994
G1 X231.784 Y141.465 E0.01675
G1 X200.913 Y110.594 E1.36994
G1 X200.379 Y110.594 E0.01675
G1 X224.650 Y134.865 E1.07705
G1 X224.117 Y134.865 E0.01675
G1 X199.846 Y110.594 E1.07705
G1 X199.312 Y110.594 E0.01675
G1 X223.583 Y134.865 E1.07705
G1 X223.049 Y134.865 E0.01675
G1 X198.778 Y110.594 E1.07705
G1 X198.244 Y110.594 E0.01675
G1 X222.516 Y134.865 E1.07705
G1 X221.982 Y134.865 E0.01675
G1 X197.711 Y110.594 E1.07705
G1 X197.177 Y110.594 E0.01675
G1 X221.448 Y134.865 E1.07705
G1 X220.914 Y134.865 E0.01675
G1 X196.643 Y110.594 E1.07705
G1 X196.110 Y110.594 E0.01675
G1 X220.381 Y134.865 E1.07705
G1 X219.847 Y134.865 E0.01675
G1 X195.576 Y110.594 E1.07705
G1 X195.042 Y110.594 E0.01675
G1 X219.313 Y134.865 E1.07705
G1 X218.780 Y134.865 E0.01675
G1 X194.509 Y110.594 E1.07705
G1 X193.975 Y110.594 E0.01675
G1 X218.246 Y134.865 E1.07705
G1 X217.712 Y134.865 E0.01675
G1 X193.441 Y110.594 E1.07705
G1 X192.908 Y110.594 E0.01675
G1 X217.179 Y134.865 E1.07705
G1 X216.645 Y134.865 E0.01675
G1 X192.374 Y110.594 E1.07705
M73 Q2 S110
M73 P2 R109
G1 X191.840 Y110.594 E0.01675
G1 X216.111 Y134.865 E1.07705
G1 X215.578 Y134.865 E0.01675
G1 X191.307 Y110.594 E1.07705
G1 X190.773 Y110.594 E0.01675
G1 X215.044 Y134.865 E1.07705
G1 X214.510 Y134.865 E0.01675
G1 X190.239 Y110.594 E1.07705
G1 X189.706 Y110.594 E0.01675
G1 X213.977 Y134.865 E1.07705
G1 X213.443 Y134.865 E0.01675
G1 X189.172 Y110.594 E1.07705
G1 X188.638 Y110.594 E0.01675
G1 X212.909 Y134.865 E1.07705
G1 X212.376 Y134.865 E0.01675
G1 X188.104 Y110.594 E1.07705
G1 X187.571 Y110.594 E0.01675
G1 X211.842 Y134.865 E1.07705
G1 X211.308 Y134.865 E0.01675
G1 X187.037 Y110.594 E1.07705
G1 X186.503 Y110.594 E0.01675
G1 X210.774 Y134.865 E1.07705
G1 X210.241 Y134.865 E0.01675
G1 X185.970 Y110.594 E1.07705
G1 X185.436 Y110.594 E0.01675
G1 X209.707 Y134.865 E1.07705
G1 X209.173 Y134.865 E0.01675
G1 X184.902 Y110.594 E1.07705
G1 X184.369 Y110.594 E0.01675
G1 X208.640 Y134.865 E1.07705
G1 X208.106 Y134.865 E0.01675
G1 X183.835 Y110.594 E1.07705
G1 X183.301 Y110.594 E0.01675
G1 X207.572 Y134.865 E1.07705
G1 X207.039 Y134.865 E0.01675
G1 X182.768 Y110.594 E1.07705
G1 X182.234 Y110.594 E0.01675
G1 X206.505 Y134.865 E1.07705
G1 X205.971 Y134.865 E0.01675
G1 X181.700 Y110.594 E1.07705
G1 X181.167 Y110.594 E0.01675
G1 X205.438 Y134.865 E1.07705
G1 X204.904 Y134.865 E0.01675
G1 X180.633 Y110.594 E1.07705
G1 X180.099 Y110.594 E0.01675
G1 X204.370 Y134.865 E1.07705
G1 X203.837 Y134.865 E0.01675
G1 X179.566 Y110.594 E1.07705
G1 X179.032 Y110.594 E0.01675
G1 X203.303 Y134.865 E1.07705
G1 X202.769 Y134.865 E0.01675
G1 X178.498 Y110.594 E1.07705
G1 X177.964 Y110.594 E0.01675
G1 X202.236 Y134.865 E1.07705
G1 X201.702 Y134.865 E0.01675
G1 X177.431 Y110.594 E1.07705
G1 X176.897 Y110.594 E0.01675
G1 X201.168 Y134.865 E1.07705
G1 X200.634 Y134.865 E0.01675
G1 X176.363 Y110.594 E1.07705
G1 X175.830 Y110.594 E0.01675
G1 X200.101 Y134.865 E1.07705
G1 X199.567 Y134.865 E0.01675
G1 X175.296 Y110.594 E1.07705
M73 Q3 S109
M73 P3 R108
G1 X174.762 Y110.594 E0.01675
G1 X199.033 Y134.865 E1.07705
G1 X198.500 Y134.865 E0.01675
G1 X174.229 Y110.594 E1.07705
G1 X173.695 Y110.594 E0.01675
G1 X197.966 Y134.865 E1.07705
G1 X197.432 Y134.865 E0.01675
G1 X173.161 Y110.594 E1.07705
G1 X172.628 Y110.594 E0.01675
G1 X196.899 Y134.865 E1.07705
G1 X196.365 Y134.865 E0.01675
G1 X172.094 Y110.594 E1.07705
G1 X171.560 Y110.594 E0.01675
G1 X195.831 Y134.865 E1.07705
G1 X195.298 Y134.865 E0.01675
G1 X171.027 Y110.594 E1.07705
G1 X170.493 Y110.594 E0.01675
G1 X194.764 Y134.865 E1.07705
G1 X194.230 Y134.865 E0.01675
G1 X169.959 Y110.594 E1.07705
G1 X169.425 Y110.594 E0.01675
G1 X193.697 Y134.865 E1.07705
G1 X193.163 Y134.865 E0.01675
G1 X168.892 Y110.594 E1.07705
G1 X168.358 Y110.594 E0.01675
G1 X192.629 Y134.865 E1.07705
G1 X192.096 Y134.865 E0.01675
G1 X167.824 Y110.594 E1.07705
G1 X167.291 Y110.594 E0.01675
G1 X191.562 Y134.865 E1.07705
G1 X191.028 Y134.865 E0.01675
G1 X166.757 Y110.594 E1.07705
G1 X166.223 Y110.594 E0.01675
G1 X190.494 Y134.865 E1.07705
G1 X189.961 Y134.865 E0.01675
G1 X165.690 Y110.594 E1.07705
G1 X165.156 Y110.594 E0.01675
G1 X189.427 Y134.865 E1.07705
G1 X188.893 Y134.865 E0.01675
G1 X164.622 Y110.594 E1.07705
G1 X164.089 Y110.594 E0.01675
G1 X188.360 Y134.865 E1.07705
G1 X187.826 Y134.865 E0.01675
G1 X163.555 Y110.594 E1.07705
G1 X163.021 Y110.594 E0.01675
G1 X187.292 Y134.865 E1.07705
G1 X186.759 Y134.865 E0.01675
G1 X162.488 Y110.594 E1.07705
G1 X161.954 Y110.594 E0.01675
G1 X186.225 Y134.865 E1.07705
G1 X185.691 Y134.865 E0.01675
G1 X161.420 Y110.594 E1.07705
G1 X160.887 Y110.594 E0.01675
G1 X185.158 Y134.865 E1.07705
G1 X184.624 Y134.865 E0.01675
G1 X160.353 Y110.594 E1.07705
G1 X159.819 Y110.594 E0.01675
G1 X184.090 Y134.865 E1.07705
G1 X183.557 Y134.865 E0.01675
G1 X159.285 Y110.594 E1.07705
G1 X158.752 Y110.594 E0.01675
G1 X183.023 Y134.865 E1.07705
G1 X182.489 Y134.865 E0.01675
G1 X158.218 Y110.594 E1.07705
M73 Q4 S108
M73 P4 R107
G1 X157.684 Y110.594 E0.01675
G1 X181.955 Y134.865 E1.07705
G1 X181.422 Y134.865 E0.01675
G1 X157.151 Y110.594 E1.07705
G1 X156.617 Y110.594 E0.01675
G1 X180.888 Y134.865 E1.07705
G1 X180.354 Y134.865 E0.01675
G1 X156.083 Y110.594 E1.07705
G1 X155.550 Y110.594 E0.01675
G1 X179.821 Y134.865 E1.07705
G1 X179.287 Y134.865 E0.01675
G1 X155.016 Y110.594 E1.07705
G1 X154.482 Y110.594 E0.01675
G1 X178.753 Y134.865 E1.07705
G1 X178.220 Y134.865 E0.01675
G1 X153.949 Y110.594 E1.07705
G1 X153.415 Y110.594 E0.01675
G1 X177.686 Y134.865 E1.07705
G1 X177.152 Y134.865 E0.01675
G1 X152.881 Y110.594 E1.07705
G1 X152.348 Y110.594 E0.01675
G1 X176.619 Y134.865 E1.07705
G1 X176.085 Y134.865 E0.01675
G1 X151.814 Y110.594 E1.07705
G1 X151.280 Y110.594 E0.01675
G1 X175.551 Y134.865 E1.07705
G1 X175.018 Y134.865 E0.01675
G1 X150.747 Y110.594 E1.07705
G1 X150.213 Y110.594 E0.01675
G1 X174.484 Y134.865 E1.07705
G1 X173.950 Y134.865 E0.01675
G1 X149.679 Y110.594 E1.07705
G1 X149.145 Y110.594 E0.01675
G1 X173.417 Y134.865 E1.07705
G1 X172.883 Y134.865 E0.01675
G1 X148.612 Y110.594 E1.07705
G1 X148.078 Y110.594 E0.01675
G1 X172.349 Y134.865 E1.07705
G1 X171.815 Y134.865 E0.01675
G1 X147.544 Y110.594 E1.07705
G1 X147.011 Y110.594 E0.01675
G1 X171.282 Y134.865 E1.07705
G1 X170.748 Y134.865 E0.01675
G1 X146.477 Y110.594 E1.07705
G1 X145.943 Y110.594 E0.01675
G1 X170.214 Y134.865 E1.07705
G1 X169.681 Y134.865 E0.01675
G1 X145.410 Y110.594 E1.07705
G1 X144.876 Y110.594 E0.01675
G1 X169.147 Y134.865 E1.07705
G1 X168.613 Y134.865 E0.01675
G1 X144.342 Y110.594 E1.07705
G1 X143.809 Y110.594 E0.01675
