; generated by PrusaSlicer 2.0.0 on 2019-09-01 at 22:53:23

; 

; external perimeters extrusion width = 0.45mm
; perimeters extrusion width = 0.45mm
; infill extrusion width = 0.45mm
; solid infill extrusion width = 0.45mm
; top infill extrusion width = 0.40mm
; first layer extrusion width = 0.42mm

M73 P0 R35
M73 Q0 S36
M201 X1000 Y1000 Z1000 E5000 ; sets maximum accelerations, mm/sec^2
M203 X200 Y200 Z12 E120 ; sets maximum feedrates, mm/sec
M204 P1250 R1250 T1250 ; sets acceleration (P, T) and retract acceleration (R), mm/sec^2
M205 X8.00 Y8.00 Z0.40 E1.50 ; sets the jerk limits, mm/sec
M205 S0 T0 ; sets the minimum extruding and travel feed rate, mm/sec
M107
M115 U3.4.0 ; tell printer latest fw version
M83  ; extruder relative mode
M104 S140 ; set extruder to warm-up temp
M140 S0 ; set bed temp
M190 S0 ; wait for bed temp
G28 W ; home all without mesh bed level
G80 ; mesh bed leveling
M104 S230 ; set extruder temp
M109 S230 ; wait for extruder temp
G1 Y-3.0 F1000.0 ; go outside print area
G92 E0.0
G1 X60.0 E9.0  F1000.0 ; intro line
M73 Q0 S36
M73 P0 R35
G1 X100.0 E12.5  F1000.0 ; intro line
G92 E0.0
M221 S95
M900 K10; Filament gcode
G21 ; set units to millimeters
G90 ; use absolute coordinates
M83 ; use relative distances for extrusion
;BEFORE_LAYER_CHANGE
G92 E0.0
;0.2


G1 E-0.80000 F2100.00000
G1 Z0.600 F10800.000
;AFTER_LAYER_CHANGE
;0.2
G1 X103.949 Y91.959
G1 Z0.200
G1 E0.80000 F2100.00000
M204 S20
G1 F1800
G1 X105.361 Y90.527 E0.06307
G1 X106.062 Y90.058 E0.02644
G1 X107.533 Y89.349 E0.05119
G1 X108.256 Y89.155 E0.02348
G1 X109.790 Y88.939 E0.04856
G1 X140.005 Y88.934 E0.94739
G1 X141.693 Y89.146 E0.05334
G1 X142.498 Y89.360 E0.02612
G1 X144.036 Y90.113 E0.05367
G1 X144.848 Y90.707 E0.03155
G1 X145.909 Y91.784 E0.04742
G1 X146.474 Y92.623 E0.03171
G1 X147.194 Y94.157 E0.05313
G1 X147.514 Y95.817 E0.05300
G1 X147.566 Y96.496 E0.02133
G1 X147.532 Y114.053 E0.55050
G1 X147.202 Y115.818 E0.05632
G1 X146.456 Y117.411 E0.05514
G1 X145.853 Y118.281 E0.03319
G1 X144.639 Y119.473 E0.05334
G1 X143.938 Y119.942 E0.02644
G1 X142.467 Y120.651 E0.05119
G1 X141.744 Y120.845 E0.02348
G1 X140.210 Y121.061 E0.04856
G1 X109.852 Y121.063 E0.95185
G1 X108.079 Y120.809 E0.05617
G1 X107.023 Y120.432 E0.03517
G1 X105.459 Y119.551 E0.05628
G1 X104.027 Y118.139 E0.06304
G1 X103.563 Y117.447 E0.02611
G1 X102.861 Y116.002 E0.05039
G1 X102.663 Y115.285 E0.02331
G1 X102.446 Y113.832 E0.04608
G1 X102.440 Y96.278 E0.55037
G1 X102.697 Y94.553 E0.05469
G1 X103.077 Y93.504 E0.03500
G1 X103.920 Y92.012 E0.05373
M204 S1000
G1 F8640
G1 X105.361 Y90.527 E-0.47782
G1 X106.062 Y90.058 E-0.19475
G1 X106.403 Y89.894 E-0.08744
G1 E-0.04000 F2100.00000
G1 Z0.800 F10800.000
G1 X104.719 Y92.331
G1 X104.174 Y94.414
G1 X103.130 Y94.385
G1 Z0.200
G1 E0.80000 F2100.00000
M204 S20
G1 F1800
G1 X103.841 Y92.835 E0.05348
G1 X104.420 Y91.979 E0.03242
G1 X105.621 Y90.801 E0.05274
G1 X106.253 Y90.384 E0.02375
G1 X107.673 Y89.699 E0.04941
G1 X108.337 Y89.523 E0.02154
G1 X109.817 Y89.315 E0.04688
G1 X140.005 Y89.311 E0.94651
G1 X141.627 Y89.517 E0.05127
G1 X142.364 Y89.713 E0.02391
G1 X143.843 Y90.437 E0.05163
G1 X144.604 Y90.995 E0.02958
G1 X145.619 Y92.024 E0.04532
G1 X146.145 Y92.807 E0.02958
G1 X146.838 Y94.283 E0.05111
G1 X147.145 Y95.895 E0.05146
G1 X147.159 Y113.994 E0.56750
G1 X146.842 Y115.706 E0.05459
G1 X146.122 Y117.237 E0.05304
G1 X145.559 Y118.044 E0.03084
G1 X144.379 Y119.199 E0.05178
G1 X143.742 Y119.619 E0.02391
G1 X142.323 Y120.302 E0.04941
G1 X141.663 Y120.477 E0.02138
G1 X140.177 Y120.685 E0.04705
G1 X109.864 Y120.686 E0.95047
G1 X108.165 Y120.442 E0.05382
G1 X107.186 Y120.093 E0.03257
G1 X105.686 Y119.249 E0.05397
G1 X104.301 Y117.879 E0.06108
G1 X103.886 Y117.251 E0.02359
G1 X103.208 Y115.851 E0.04880
G1 X103.030 Y115.198 E0.02122
G1 X102.821 Y113.789 E0.04467
G1 X102.816 Y96.298 E0.54841
G1 X103.120 Y94.445 E0.05888
M204 S1000
G1 F8640
G1 X103.841 Y92.835 E-0.40721
G1 X104.420 Y91.979 E-0.23872
G1 X104.773 Y91.633 E-0.11407
G1 E-0.04000 F2100.00000
G1 Z0.800 F10800.000
G1 X111.973 Y107.899
G1 Z0.200
G1 E0.80000 F2100.00000
M204 S20
G1 F1800
G1 X112.697 Y107.530 E0.02548
G1 X113.500 Y107.402 E0.02548
G1 X114.303 Y107.530 E0.02548
G1 X115.027 Y107.899 E0.02548
G1 X115.601 Y108.473 E0.02548
G1 X115.970 Y109.197 E0.02548
G1 X116.098 Y110.000 E0.02548
G1 X115.970 Y110.803 E0.02548
G1 X115.601 Y111.527 E0.02548
G1 X115.027 Y112.101 E0.02548
G1 X114.303 Y112.470 E0.02548
G1 X113.500 Y112.598 E0.02548
G1 X112.697 Y112.470 E0.02548
G1 X111.973 Y112.101 E0.02548
G1 X111.399 Y111.527 E0.02548
G1 X111.030 Y110.803 E0.02548
G1 X110.902 Y110.000 E0.02548
G1 X111.030 Y109.197 E0.02548
G1 X111.399 Y108.473 E0.02548
G1 X111.931 Y107.941 E0.02360
M204 S1000
G1 X112.197 Y108.208 F10800.000
M204 S20
G1 F1800
G1 X112.815 Y107.893 E0.02174
G1 X113.500 Y107.784 E0.02174
G1 X114.185 Y107.893 E0.02174
G1 X114.802 Y108.207 E0.02173
G1 X115.293 Y108.698 E0.02174
G1 X115.607 Y109.315 E0.02173
G1 X115.716 Y110.000 E0.02174
G1 X115.607 Y110.685 E0.02174
G1 X115.293 Y111.302 E0.02173
G1 X114.802 Y111.793 E0.02174
G1 X114.185 Y112.107 E0.02173
G1 X113.500 Y112.216 E0.02174
G1 X112.815 Y112.107 E0.02174
G1 X112.198 Y111.793 E0.02173
G1 X111.707 Y111.302 E0.02174
G1 X111.393 Y110.685 E0.02173
G1 X111.284 Y110.000 E0.02174
G1 X111.393 Y109.315 E0.02174
G1 X111.707 Y108.698 E0.02173
G1 X112.155 Y108.250 E0.01985
M204 S1000
G1 X112.156 Y107.810 F10800.000
G1 F8640
G1 X112.815 Y107.893 E-0.17334
G1 X113.500 Y107.784 E-0.16007
G1 X114.185 Y107.893 E-0.16007
G1 X114.802 Y108.207 E-0.16006
G1 X115.128 Y108.533 E-0.10646
G1 E-0.04000 F2100.00000
G1 Z0.800 F10800.000
G1 X112.697 Y102.470
G1 Z0.200
G1 E0.80000 F2100.00000
M204 S20
G1 F1800
G1 X111.973 Y102.101 E0.02548
G1 X111.399 Y101.527 E0.02548
G1 X111.030 Y100.803 E0.02548
G1 X110.902 Y100.000 E0.02548
G1 X111.030 Y99.197 E0.02548
G1 X111.399 Y98.473 E0.02548
G1 X111.973 Y97.899 E0.02548
G1 X112.697 Y97.530 E0.02548
G1 X113.500 Y97.402 E0.02548
G1 X114.303 Y97.530 E0.02548
G1 X115.027 Y97.899 E0.02548
G1 X115.601 Y98.473 E0.02548
G1 X115.970 Y99.197 E0.02548
G1 X116.098 Y100.000 E0.02548
G1 X115.970 Y100.803 E0.02548
G1 X115.601 Y101.527 E0.02548
G1 X115.027 Y102.101 E0.02548
G1 X114.303 Y102.470 E0.02548
G1 X113.500 Y102.598 E0.02548
G1 X112.757 Y102.480 E0.02360
M204 S1000
G1 X112.816 Y102.107 F10800.000
M204 S20
G1 F1800
G1 X112.198 Y101.793 E0.02174
G1 X111.707 Y101.302 E0.02174
G1 X111.393 Y100.685 E0.02174
G1 X111.284 Y100.000 E0.02174
G1 X111.393 Y99.315 E0.02174
G1 X111.707 Y98.698 E0.02174
G1 X112.198 Y98.207 E0.02174
G1 X112.815 Y97.893 E0.02174
G1 X113.500 Y97.784 E0.02174
G1 X114.185 Y97.893 E0.02174
G1 X114.802 Y98.207 E0.02174
G1 X115.293 Y98.698 E0.02174
G1 X115.607 Y99.315 E0.02174
G1 X115.716 Y100.000 E0.02174
G1 X115.607 Y100.685 E0.02174
G1 X115.293 Y101.302 E0.02174
G1 X114.802 Y101.793 E0.02174
G1 X114.185 Y102.107 E0.02174
G1 X113.500 Y102.216 E0.02174
G1 X112.875 Y102.117 E0.01985
M204 S1000
G1 X112.518 Y102.375 F10800.000
G1 F8640
G1 X112.198 Y101.793 E-0.17336
G1 X111.707 Y101.302 E-0.16007
G1 X111.393 Y100.685 E-0.16007
G1 X111.284 Y100.000 E-0.16007
G1 X111.356 Y99.545 E-0.10643
G1 E-0.04000 F2100.00000
G1 Z0.800 F10800.000
G1 X133.902 Y100.000
G1 Z0.200
G1 E0.80000 F2100.00000
M204 S20
G1 F1800
G1 X134.030 Y99.197 E0.02548
G1 X134.399 Y98.473 E0.02548
G1 X134.973 Y97.899 E0.02548
G1 X135.697 Y97.530 E0.02548
G1 X136.500 Y97.402 E0.02548
G1 X137.303 Y97.530 E0.02548
G1 X138.027 Y97.899 E0.02548
G1 X138.601 Y98.473 E0.02548
G1 X138.970 Y99.197 E0.02548
G1 X139.098 Y100.000 E0.02548
G1 X138.970 Y100.803 E0.02548
G1 X138.601 Y101.527 E0.02548
G1 X138.027 Y102.101 E0.02548
G1 X137.303 Y102.470 E0.02548
G1 X136.500 Y102.598 E0.02548
G1 X135.697 Y102.470 E0.02548
G1 X134.973 Y102.101 E0.02548
G1 X134.399 Y101.527 E0.02548
G1 X134.030 Y100.803 E0.02548
G1 X133.912 Y100.059 E0.02360
M204 S1000
G1 X134.284 Y100.000 F10800.000
M204 S20
G1 F1800
G1 X134.393 Y99.315 E0.02174
G1 X134.707 Y98.698 E0.02173
G1 X135.198 Y98.207 E0.02174
G1 X135.815 Y97.893 E0.02173
G1 X136.500 Y97.784 E0.02174
G1 X137.185 Y97.893 E0.02174
G1 X137.802 Y98.207 E0.02173
G1 X138.293 Y98.698 E0.02174
G1 X138.607 Y99.315 E0.02173
G1 X138.716 Y100.000 E0.02174
G1 X138.607 Y100.685 E0.02174
G1 X138.293 Y101.302 E0.02173
G1 X137.802 Y101.793 E0.02174
G1 X137.185 Y102.107 E0.02173
G1 X136.500 Y102.216 E0.02174
G1 X135.815 Y102.107 E0.02174
G1 X135.198 Y101.793 E0.02173
G1 X134.707 Y101.302 E0.02174
G1 X134.393 Y100.685 E0.02173
G1 X134.294 Y100.059 E0.01985
M204 S1000
G1 X133.938 Y99.800 F10800.000
G1 F8640
G1 X134.393 Y99.315 E-0.17335
G1 X134.707 Y98.698 E-0.16006
G1 X135.198 Y98.207 E-0.16008
G1 X135.815 Y97.893 E-0.16006
G1 X136.271 Y97.821 E-0.10645
G1 E-0.04000 F2100.00000
G1 Z0.800 F10800.000
G1 X135.697 Y107.530
G1 Z0.200
G1 E0.80000 F2100.00000
M204 S20
G1 F1800
G1 X136.500 Y107.402 E0.02548
G1 X137.303 Y107.530 E0.02548
G1 X138.027 Y107.899 E0.02548
G1 X138.601 Y108.473 E0.02549
G1 X138.970 Y109.197 E0.02548
G1 X139.098 Y110.000 E0.02548
G1 X138.970 Y110.803 E0.02548
G1 X138.601 Y111.527 E0.02548
G1 X138.027 Y112.101 E0.02549
G1 X137.303 Y112.470 E0.02548
G1 X136.500 Y112.598 E0.02548
G1 X135.697 Y112.470 E0.02548
G1 X134.973 Y112.101 E0.02548
G1 X134.399 Y111.527 E0.02549
G1 X134.030 Y110.803 E0.02548
G1 X133.902 Y110.000 E0.02548
G1 X134.030 Y109.197 E0.02548
G1 X134.399 Y108.473 E0.02548
G1 X134.973 Y107.899 E0.02549
G1 X135.644 Y107.557 E0.02360
M204 S1000
G1 X135.815 Y107.893 F10800.000
M204 S20
G1 F1800
G1 X136.500 Y107.784 E0.02175
G1 X137.185 Y107.893 E0.02174
G1 X137.802 Y108.207 E0.02173
G1 X138.293 Y108.698 E0.02174
G1 X138.607 Y109.315 E0.02173
G1 X138.716 Y110.000 E0.02174
G1 X138.607 Y110.685 E0.02174
G1 X138.293 Y111.302 E0.02173
G1 X137.802 Y111.793 E0.02174
G1 X137.185 Y112.107 E0.02173
G1 X136.500 Y112.216 E0.02174
G1 X135.815 Y112.107 E0.02174
G1 X135.198 Y111.793 E0.02173
G1 X134.707 Y111.302 E0.02174
G1 X134.393 Y110.685 E0.02173
G1 X134.284 Y110.000 E0.02174
G1 X134.393 Y109.315 E0.02174
G1 X134.707 Y108.698 E0.02173
G1 X135.198 Y108.207 E0.02174
G1 X135.762 Y107.920 E0.01984
M204 S1000
G1 X135.898 Y107.502 F10800.000
G1 F8640
G1 X136.500 Y107.784 E-0.17337
G1 X137.185 Y107.893 E-0.16008
G1 X137.802 Y108.207 E-0.16005
G1 X138.293 Y108.698 E-0.16009
G1 X138.502 Y109.108 E-0.10641
G1 E-0.04000 F2100.00000
G1 Z0.800 F10800.000
G1 X135.230 Y105.000
G1 X139.095 Y105.000
G1 X140.104 Y107.063
G1 X140.552 Y108.881
G1 X140.552 Y111.119
G1 X139.899 Y113.399
G1 X142.047 Y114.165
G1 Z0.200
G1 E0.80000 F2100.00000
M204 S20
G1 F1800
G1 X141.741 Y114.765 E0.02112
G1 X141.265 Y115.241 E0.02111
G1 X140.665 Y115.547 E0.02112
G1 X139.934 Y115.663 E0.02320
G1 X110.066 Y115.663 E0.93650
G1 X109.335 Y115.547 E0.02321
G1 X108.735 Y115.241 E0.02112
G1 X108.259 Y114.765 E0.02111
G1 X107.953 Y114.165 E0.02112
G1 X107.837 Y113.434 E0.02321
G1 X107.837 Y96.566 E0.52889
G1 X107.953 Y95.835 E0.02321
G1 X108.259 Y95.235 E0.02112
G1 X108.735 Y94.759 E0.02112
G1 X109.335 Y94.453 E0.02112
G1 X110.066 Y94.337 E0.02321
G1 X139.934 Y94.337 E0.93650
G1 X140.665 Y94.453 E0.02321
G1 X141.265 Y94.759 E0.02112
G1 X141.741 Y95.235 E0.02111
G1 X142.047 Y95.835 E0.02112
G1 X142.163 Y96.566 E0.02321
G1 X142.163 Y113.434 E0.52889
G1 X142.057 Y114.106 E0.02132
M204 S1000
G1 X142.410 Y114.283 F10800.000
M204 S20
G1 F1800
G1 X142.050 Y114.990 E0.02486
G1 X141.490 Y115.550 E0.02486
G1 X140.783 Y115.910 E0.02486
G1 X139.964 Y116.040 E0.02601
G1 X110.036 Y116.040 E0.93836
G1 X109.217 Y115.910 E0.02601
G1 X108.510 Y115.550 E0.02486
G1 X107.950 Y114.990 E0.02486
G1 X107.590 Y114.283 E0.02486
G1 X107.460 Y113.464 E0.02601
G1 X107.460 Y96.536 E0.53075
G1 X107.590 Y95.717 E0.02601
G1 X107.950 Y95.010 E0.02486
G1 X108.510 Y94.450 E0.02486
G1 X109.217 Y94.090 E0.02486
G1 X110.036 Y93.960 E0.02601
G1 X139.964 Y93.960 E0.93836
G1 X140.783 Y94.090 E0.02601
G1 X141.490 Y94.450 E0.02486
G1 X142.050 Y95.010 E0.02486
G1 X142.410 Y95.717 E0.02486
G1 X142.540 Y96.536 E0.02601
G1 X142.540 Y113.464 E0.53075
G1 X142.420 Y114.224 E0.02413
M204 S1000
G1 X142.019 Y114.365 F10800.000
G1 F8640
G1 X142.050 Y114.990 E-0.19633
G1 X141.490 Y115.550 E-0.18305
G1 X140.783 Y115.910 E-0.18311
G1 X139.964 Y116.040 E-0.19153
G1 X139.938 Y116.040 E-0.00598
G1 E-0.04000 F2100.00000
G1 Z0.800 F10800.000
G1 X142.050 Y109.940
G1 Z0.200
G1 E0.80000 F2100.00000
M204 S20
G1 F1800
G1 X126.730 Y94.620 E0.68562
G1 X126.192 Y94.620 E0.01703
G1 X141.880 Y110.308 E0.70212
G1 X141.880 Y110.846 E0.01703
G1 X125.654 Y94.620 E0.72621
G1 X125.115 Y94.620 E0.01703
G1 X141.880 Y111.385 E0.75029
G1 X141.880 Y111.923 E0.01703
G1 X139.276 Y109.319 E0.11655
G1 X139.377 Y109.958 E0.02049
G1 X141.880 Y112.461 E0.11202
G1 X141.880 Y112.999 E0.01703
G1 X139.315 Y110.434 E0.11480
G1 X139.240 Y110.897 E0.01484
G1 X141.863 Y113.520 E0.11741
G1 X141.789 Y113.985 E0.01489
G1 X139.058 Y111.254 E0.12224
G1 X138.876 Y111.610 E0.01266
G1 X141.629 Y114.363 E0.12319
G1 X141.510 Y114.597 E0.00831
G1 X141.417 Y114.689 E0.00414
G1 X138.628 Y111.900 E0.12483
G1 X138.359 Y112.169 E0.01204
G1 X141.148 Y114.959 E0.12483
G1 X141.097 Y115.010 E0.00229
G1 X140.808 Y115.157 E0.01025
G1 X138.056 Y112.404 E0.12319
G1 X137.699 Y112.586 E0.01266
G1 X140.414 Y115.301 E0.12150
G1 X139.949 Y115.374 E0.01489
G1 X137.328 Y112.753 E0.11732
G1 X136.863 Y112.826 E0.01489
G1 X139.417 Y115.380 E0.11429
G1 X138.879 Y115.380 E0.01703
G1 X136.360 Y112.862 E0.11271
G1 X135.721 Y112.760 E0.02049
G1 X138.340 Y115.380 E0.11725
G1 X137.802 Y115.380 E0.01703
G1 X117.042 Y94.620 E0.92911
G1 X117.580 Y94.620 E0.01703
G1 X133.740 Y110.779 E0.72321
G1 X133.638 Y110.140 E0.02049
G1 X118.118 Y94.620 E0.69458
G1 X118.657 Y94.620 E0.01703
G1 X133.674 Y109.637 E0.67208
G1 X133.747 Y109.172 E0.01489
G1 X119.195 Y94.620 E0.65129
G1 X119.733 Y94.620 E0.01703
G1 X133.914 Y108.801 E0.63467
G1 X134.096 Y108.444 E0.01266
G1 X120.271 Y94.620 E0.61871
G1 X120.809 Y94.620 E0.01703
G1 X134.331 Y108.141 E0.60513
G1 X134.600 Y107.872 E0.01204
G1 X121.348 Y94.620 E0.59309
G1 X121.886 Y94.620 E0.01703
G1 X134.890 Y107.624 E0.58198
M73 Q3 S35
M73 P3 R34
G1 X135.246 Y107.442 E0.01266
G1 X122.424 Y94.620 E0.57385
G1 X122.962 Y94.620 E0.01703
G1 X135.603 Y107.260 E0.56572
G1 X136.066 Y107.185 E0.01484
G1 X123.501 Y94.620 E0.56234
G1 X124.039 Y94.620 E0.01703
G1 X136.542 Y107.123 E0.55956
G1 X137.181 Y107.224 E0.02049
G1 X124.407 Y94.450 E0.57169
M204 S1000
G1 F8640
G1 X126.735 Y96.778 E-0.76000
G1 E-0.04000 F2100.00000
G1 Z0.800 F10800.000
G1 X114.214 Y107.401
G1 Z0.200
G1 E0.80000 F2100.00000
M204 S20
G1 F1800
G1 X108.120 Y101.307 E0.27276
G1 X108.120 Y101.845 E0.01703
G1 X113.406 Y107.131 E0.23658
G1 X112.941 Y107.205 E0.01489
G1 X108.120 Y102.383 E0.21579
G1 X108.120 Y102.921 E0.01703
G1 X112.508 Y107.309 E0.19637
G1 X112.151 Y107.491 E0.01266
G1 X108.120 Y103.460 E0.18041
G1 X108.120 Y103.998 E0.01703
G1 X111.797 Y107.675 E0.16457
G1 X111.528 Y107.944 E0.01204
G1 X108.120 Y104.536 E0.15252
G1 X108.120 Y105.074 E0.01703
G1 X111.259 Y108.213 E0.14048
G1 X111.167 Y108.305 E0.00411
G1 X111.047 Y108.540 E0.00834
G1 X108.120 Y105.612 E0.13101
G1 X108.120 Y106.151 E0.01703
G1 X110.866 Y108.896 E0.12288
G1 X110.757 Y109.109 E0.00755
G1 X110.728 Y109.297 E0.00602
G1 X108.120 Y106.689 E0.11671
G1 X108.120 Y107.227 E0.01703
G1 X110.654 Y109.761 E0.11341
G1 X110.616 Y110.000 E0.00765
G1 X110.665 Y110.311 E0.00996
G1 X108.120 Y107.765 E0.11392
G1 X108.120 Y108.304 E0.01703
G1 X111.197 Y111.381 E0.13773
M204 S1000
G1 F8640
G1 X108.870 Y109.054 E-0.76000
G1 E-0.04000 F2100.00000
G1 Z0.800 F10800.000
G1 X108.099 Y114.204
G1 Z0.200
G1 E0.80000 F2100.00000
M204 S20
G1 F1800
G1 X108.908 Y115.012 E0.03618
G1 X109.423 Y115.275 E0.01831
G1 X109.763 Y115.329 E0.01087
G1 X108.171 Y113.737 E0.07121
G1 X108.120 Y113.412 E0.01043
G1 X108.120 Y113.148 E0.00836
G1 X110.352 Y115.380 E0.09991
G1 X110.891 Y115.380 E0.01703
G1 X108.120 Y112.609 E0.12400
G1 X108.120 Y112.071 E0.01703
G1 X111.429 Y115.380 E0.14809
G1 X111.967 Y115.380 E0.01703
G1 X108.120 Y111.533 E0.17218
G1 X108.120 Y110.995 E0.01703
