; generated by Slic3r Prusa Edition 1.41.2 on 2019-02-17 at 20:31:14

; 

; external perimeters extrusion width = 0.45mm
; perimeters extrusion width = 0.45mm
; infill extrusion width = 0.45mm
; solid infill extrusion width = 0.45mm
; top infill extrusion width = 0.40mm
; support material extrusion width = 0.35mm
; first layer extrusion width = 0.42mm

M73 P0 R28
M73 Q0 S28
M201 X1000 Y1000 Z1000 E5000 ; sets maximum accelerations, mm/sec^2
M203 X200 Y200 Z12 E120 ; sets maximum feedrates, mm/sec
M204 P1250 R1250 T1250 ; sets acceleration (P, T) and retract acceleration (R), mm/sec^2
M205 X8.00 Y8.00 Z0.40 E1.50 ; sets the jerk limits, mm/sec
M205 S0 T0 ; sets the minimum extruding and travel feed rate, mm/sec
M107
M115 U3.4.0 ; tell printer latest fw version
M83  ; extruder relative mode
M104 S140 ; set extruder to warm-up temp
M140 S80 ; set bed temp
M190 S80 ; wait for bed temp
G28 W ; home all without mesh bed level
G80 ; mesh bed leveling
M104 S250 ; set extruder temp
M109 S250 ; wait for extruder temp
G1 Y-3.0 F1000.0 ; go outside print area
G92 E0.0
G1 X60.0 E9.0  F1000.0 ; intro line
M73 Q0 S28
M73 P0 R28
G1 X100.0 E12.5  F1000.0 ; intro line
G92 E0.0
M221 S95
M900 K45; Filament gcode
G21 ; set units to millimeters
G90 ; use absolute coordinates
M83 ; use relative distances for extrusion
;BEFORE_LAYER_CHANGE
G92 E0.0
;0.2


G1 E-0.80000 F2100.00000
G1 Z0.600 F10800.000
;AFTER_LAYER_CHANGE
;0.2
G1 X113.948 Y109.892
G1 Z0.200
G1 E0.80000 F2100.00000
M204 S20
G1 F1800
G1 X114.617 Y109.280 E0.02842
G1 X115.393 Y108.812 E0.02842
G1 X116.247 Y108.508 E0.02842
G1 X117.144 Y108.378 E0.02842
G1 X148.353 Y108.373 E0.97853
G1 X149.193 Y108.452 E0.02644
G1 X150.003 Y108.684 E0.02644
G1 X150.758 Y109.061 E0.02644
G1 X151.430 Y109.571 E0.02644
G1 X151.997 Y110.195 E0.02644
G1 X152.439 Y110.913 E0.02644
G1 X152.742 Y111.700 E0.02644
G1 X152.895 Y112.530 E0.02644
G1 X152.910 Y143.097 E0.95841
G1 X152.815 Y143.882 E0.02480
G1 X152.583 Y144.644 E0.02496
G1 X152.225 Y145.349 E0.02480
G1 X151.748 Y145.986 E0.02496
G1 X151.045 Y146.623 E0.02974
G1 X150.230 Y147.098 E0.02957
G1 X149.335 Y147.396 E0.02957
G1 X148.393 Y147.504 E0.02974
G1 X117.195 Y147.502 E0.97820
G1 X116.409 Y147.407 E0.02480
G1 X115.648 Y147.176 E0.02496
G1 X114.937 Y146.816 E0.02496
G1 X114.300 Y146.339 E0.02496
G1 X113.664 Y145.636 E0.02974
G1 X113.188 Y144.821 E0.02957
G1 X112.890 Y143.926 E0.02957
G1 X112.782 Y142.984 E0.02974
G1 X112.785 Y112.780 E0.94701
G1 X112.880 Y111.995 E0.02480
G1 X113.112 Y111.234 E0.02496
G1 X113.470 Y110.528 E0.02480
G1 X113.912 Y109.940 E0.02308
M204 S1000
G1 X114.213 Y110.167 F10800.000
M204 S20
G1 F1800
G1 X114.858 Y109.570 E0.02757
G1 X115.574 Y109.144 E0.02611
G1 X116.355 Y108.869 E0.02596
G1 X117.180 Y108.753 E0.02611
G1 X148.353 Y108.750 E0.97741
G1 X149.122 Y108.822 E0.02422
G1 X149.869 Y109.036 E0.02438
G1 X150.564 Y109.385 E0.02438
G1 X151.183 Y109.856 E0.02438
G1 X151.704 Y110.433 E0.02438
G1 X152.109 Y111.096 E0.02438
G1 X152.385 Y111.823 E0.02438
G1 X152.522 Y112.589 E0.02438
G1 X152.534 Y143.075 E0.95587
G1 X152.446 Y143.802 E0.02296
G1 X152.231 Y144.507 E0.02312
G1 X151.896 Y145.164 E0.02312
G1 X151.451 Y145.752 E0.02312
G1 X150.809 Y146.328 E0.02706
G1 X150.062 Y146.760 E0.02706
G1 X149.242 Y147.031 E0.02706
G1 X148.379 Y147.127 E0.02722
G1 X117.216 Y147.125 E0.97710
G1 X116.484 Y147.037 E0.02312
G1 X115.779 Y146.822 E0.02312
G1 X115.122 Y146.487 E0.02312
G1 X114.535 Y146.042 E0.02312
G1 X113.958 Y145.400 E0.02706
G1 X113.526 Y144.653 E0.02706
G1 X113.256 Y143.833 E0.02706
G1 X113.159 Y142.975 E0.02706
G1 X113.161 Y112.802 E0.94606
G1 X113.249 Y112.075 E0.02296
G1 X113.464 Y111.370 E0.02312
G1 X113.799 Y110.713 E0.02312
G1 X114.176 Y110.215 E0.01959
M204 S1000
; PURGING FINISHED
G1 F8640
G1 X114.858 Y109.570 E-0.21671
G1 X115.574 Y109.144 E-0.19232
G1 X116.355 Y108.869 E-0.19115
G1 X117.040 Y108.773 E-0.15982
G1 E-0.04000 F2100.00000
G1 Z0.800 F10800.000
G1 X118.035 Y113.626
G1 Z0.200
G1 E0.80000 F2100.00000
M204 S20
G1 F1800
G1 X147.661 Y113.626 E0.92890
G1 X147.661 Y142.252 E0.89754
G1 X118.035 Y142.252 E0.92890
G1 X118.035 Y113.686 E0.89566
M204 S1000
G1 X117.658 Y113.249 F10800.000
M204 S20
G1 F1800
G1 X148.038 Y113.249 E0.95254
G1 X148.038 Y142.629 E0.92119
G1 X117.658 Y142.629 E0.95254
G1 X117.658 Y113.309 E0.91931
M204 S1000
G1 X118.045 Y113.350 F10800.000
G1 F8640
G1 X120.949 Y113.302 E-0.76000
G1 E-0.04000 F2100.00000
G1 Z0.800 F10800.000
G1 X118.914 Y142.138
G1 Z0.200
G1 E0.80000 F2100.00000
M204 S20
G1 F1800
G1 X118.317 Y141.542 E0.02657
G1 X118.317 Y141.006 E0.01688
G1 X119.280 Y141.969 E0.04289
G1 X119.816 Y141.969 E0.01688
G1 X118.317 Y140.470 E0.06677
G1 X118.317 Y139.934 E0.01688
G1 X120.352 Y141.969 E0.09065
G1 X120.888 Y141.969 E0.01688
G1 X118.317 Y139.399 E0.11452
G1 X118.317 Y138.863 E0.01688
G1 X121.424 Y141.969 E0.13840
G1 X121.959 Y141.969 E0.01688
G1 X118.317 Y138.327 E0.16228
G1 X118.317 Y137.791 E0.01688
G1 X122.495 Y141.969 E0.18616
G1 X123.031 Y141.969 E0.01688
G1 X118.317 Y137.255 E0.21003
G1 X118.317 Y136.719 E0.01688
G1 X123.567 Y141.969 E0.23391
G1 X124.103 Y141.969 E0.01688
G1 X118.317 Y136.183 E0.25779
G1 X118.317 Y135.647 E0.01688
G1 X124.639 Y141.969 E0.28167
G1 X125.175 Y141.969 E0.01688
G1 X118.317 Y135.112 E0.30555
G1 X118.317 Y134.576 E0.01688
G1 X125.711 Y141.969 E0.32942
G1 X126.246 Y141.969 E0.01688
G1 X118.317 Y134.040 E0.35330
G1 X118.317 Y133.504 E0.01688
G1 X126.782 Y141.969 E0.37718
G1 X127.318 Y141.969 E0.01688
G1 X118.317 Y132.968 E0.40106
G1 X118.317 Y132.432 E0.01688
G1 X127.854 Y141.969 E0.42493
G1 X128.390 Y141.969 E0.01688
G1 X118.317 Y131.896 E0.44881
G1 X118.317 Y131.360 E0.01688
G1 X128.926 Y141.969 E0.47269
G1 X129.462 Y141.969 E0.01688
G1 X118.317 Y130.825 E0.49657
G1 X118.317 Y130.289 E0.01688
G1 X129.998 Y141.969 E0.52045
G1 X130.533 Y141.969 E0.01688
G1 X118.317 Y129.753 E0.54432
G1 X118.317 Y129.217 E0.01688
G1 X131.069 Y141.969 E0.56820
G1 X131.605 Y141.969 E0.01688
G1 X118.317 Y128.681 E0.59208
G1 X118.317 Y128.145 E0.01688
G1 X132.141 Y141.969 E0.61596
G1 X132.677 Y141.969 E0.01688
G1 X118.317 Y127.609 E0.63983
G1 X118.317 Y127.073 E0.01688
G1 X133.213 Y141.969 E0.66371
G1 X133.749 Y141.969 E0.01688
G1 X118.317 Y126.538 E0.68759
G1 X118.317 Y126.002 E0.01688
G1 X134.285 Y141.969 E0.71147
G1 X134.820 Y141.969 E0.01688
G1 X118.317 Y125.466 E0.73535
G1 X118.317 Y124.930 E0.01688
G1 X135.356 Y141.969 E0.75922
M73 Q3 S27
M73 P3 R27
G1 X135.892 Y141.969 E0.01688
G1 X118.317 Y124.394 E0.78310
G1 X118.317 Y123.858 E0.01688
G1 X136.428 Y141.969 E0.80698
G1 X136.964 Y141.969 E0.01688
G1 X118.317 Y123.322 E0.83086
G1 X118.317 Y122.786 E0.01688
G1 X137.500 Y141.969 E0.85473
G1 X138.036 Y141.969 E0.01688
G1 X118.317 Y122.251 E0.87861
G1 X118.317 Y121.715 E0.01688
G1 X138.572 Y141.969 E0.90249
G1 X139.107 Y141.969 E0.01688
G1 X118.317 Y121.179 E0.92637
G1 X118.317 Y120.643 E0.01688
G1 X139.643 Y141.969 E0.95025
G1 X140.179 Y141.969 E0.01688
G1 X118.317 Y120.107 E0.97412
G1 X118.317 Y119.571 E0.01688
G1 X140.715 Y141.969 E0.99800
G1 X141.251 Y141.969 E0.01688
G1 X118.317 Y119.035 E1.02188
G1 X118.317 Y118.499 E0.01688
G1 X141.787 Y141.969 E1.04576
G1 X142.323 Y141.969 E0.01688
G1 X118.317 Y117.964 E1.06963
G1 X118.317 Y117.428 E0.01688
G1 X142.859 Y141.969 E1.09351
G1 X143.394 Y141.969 E0.01688
G1 X118.317 Y116.892 E1.11739
G1 X118.317 Y116.356 E0.01688
G1 X143.930 Y141.969 E1.14127
G1 X144.466 Y141.969 E0.01688
G1 X118.317 Y115.820 E1.16514
G1 X118.317 Y115.284 E0.01688
G1 X145.002 Y141.969 E1.18902
G1 X145.538 Y141.969 E0.01688
G1 X118.317 Y114.748 E1.21290
G1 X118.317 Y114.212 E0.01688
G1 X146.074 Y141.969 E1.23678
G1 X146.610 Y141.969 E0.01688
G1 X118.549 Y113.909 E1.25032
G1 X119.085 Y113.909 E0.01688
G1 X147.146 Y141.969 E1.25032
G1 X147.378 Y141.969 E0.00731
G1 X147.378 Y141.665 E0.00957
G1 X119.621 Y113.909 E1.23678
G1 X120.157 Y113.909 E0.01688
G1 X147.378 Y141.129 E1.21291
G1 X147.378 Y140.593 E0.01688
G1 X120.693 Y113.909 E1.18903
G1 X121.229 Y113.909 E0.01688
G1 X147.378 Y140.057 E1.16515
G1 X147.378 Y139.522 E0.01688
G1 X121.765 Y113.909 E1.14127
G1 X122.301 Y113.909 E0.01688
G1 X147.378 Y138.986 E1.11740
G1 X147.378 Y138.450 E0.01688
G1 X122.836 Y113.909 E1.09352
G1 X123.372 Y113.909 E0.01688
G1 X147.378 Y137.914 E1.06964
G1 X147.378 Y137.378 E0.01688
G1 X123.908 Y113.909 E1.04576
G1 X124.444 Y113.909 E0.01688
G1 X147.378 Y136.842 E1.02188
M73 Q7 S26
M73 P7 R26
G1 X147.378 Y136.306 E0.01688
G1 X124.980 Y113.909 E0.99801
G1 X125.516 Y113.909 E0.01688
G1 X147.378 Y135.770 E0.97413
G1 X147.378 Y135.235 E0.01688
G1 X126.052 Y113.909 E0.95025
G1 X126.588 Y113.909 E0.01688
G1 X147.378 Y134.699 E0.92637
G1 X147.378 Y134.163 E0.01688
G1 X127.123 Y113.909 E0.90250
G1 X127.659 Y113.909 E0.01688
G1 X147.378 Y133.627 E0.87862
G1 X147.378 Y133.091 E0.01688
G1 X128.195 Y113.909 E0.85474
G1 X128.731 Y113.909 E0.01688
G1 X147.378 Y132.555 E0.83086
G1 X147.378 Y132.019 E0.01688
G1 X129.267 Y113.909 E0.80698
G1 X129.803 Y113.909 E0.01688
G1 X147.378 Y131.483 E0.78311
G1 X147.378 Y130.948 E0.01688
G1 X130.339 Y113.909 E0.75923
G1 X130.875 Y113.909 E0.01688
G1 X147.378 Y130.412 E0.73535
G1 X147.378 Y129.876 E0.01688
G1 X131.410 Y113.909 E0.71147
G1 X131.946 Y113.909 E0.01688
G1 X147.378 Y129.340 E0.68760
G1 X147.378 Y128.804 E0.01688
G1 X132.482 Y113.909 E0.66372
G1 X133.018 Y113.909 E0.01688
G1 X147.378 Y128.268 E0.63984
G1 X147.378 Y127.732 E0.01688
G1 X133.554 Y113.909 E0.61596
G1 X134.090 Y113.909 E0.01688
G1 X147.378 Y127.196 E0.59208
G1 X147.378 Y126.660 E0.01688
G1 X134.626 Y113.909 E0.56821
G1 X135.162 Y113.909 E0.01688
G1 X147.378 Y126.125 E0.54433
G1 X147.378 Y125.589 E0.01688
G1 X135.698 Y113.909 E0.52045
G1 X136.233 Y113.909 E0.01688
G1 X147.378 Y125.053 E0.49657
G1 X147.378 Y124.517 E0.01688
G1 X136.769 Y113.909 E0.47270
G1 X137.305 Y113.909 E0.01688
G1 X147.378 Y123.981 E0.44882
G1 X147.378 Y123.445 E0.01688
G1 X137.841 Y113.909 E0.42494
G1 X138.377 Y113.909 E0.01688
G1 X147.378 Y122.909 E0.40106
G1 X147.378 Y122.373 E0.01688
G1 X138.913 Y113.909 E0.37718
G1 X139.449 Y113.909 E0.01688
G1 X147.378 Y121.838 E0.35331
G1 X147.378 Y121.302 E0.01688
G1 X139.985 Y113.909 E0.32943
G1 X140.520 Y113.909 E0.01688
G1 X147.378 Y120.766 E0.30555
G1 X147.378 Y120.230 E0.01688
G1 X141.056 Y113.909 E0.28167
G1 X141.592 Y113.909 E0.01688
G1 X147.378 Y119.694 E0.25780
G1 X147.378 Y119.158 E0.01688
G1 X142.128 Y113.909 E0.23392
G1 X142.664 Y113.909 E0.01688
G1 X147.378 Y118.622 E0.21004
G1 X147.378 Y118.086 E0.01688
G1 X143.200 Y113.909 E0.18616
G1 X143.736 Y113.909 E0.01688
G1 X147.378 Y117.551 E0.16228
G1 X147.378 Y117.015 E0.01688
G1 X144.272 Y113.909 E0.13841
G1 X144.807 Y113.909 E0.01688
G1 X147.378 Y116.479 E0.11453
G1 X147.378 Y115.943 E0.01688
G1 X145.343 Y113.909 E0.09065
G1 X145.879 Y113.909 E0.01688
G1 X147.378 Y115.407 E0.06677
G1 X147.378 Y114.871 E0.01688
G1 X146.415 Y113.909 E0.04290
G1 X146.951 Y113.909 E0.01688
G1 X147.547 Y114.505 E0.02658
M204 S1000
;BEFORE_LAYER_CHANGE
G92 E0.0
;0.4


G1 F8640
G1 X146.951 Y113.909 E-0.19478
G1 X146.415 Y113.909 E-0.12374
G1 X147.378 Y114.871 E-0.31436
G1 X147.378 Y115.407 E-0.12374
G1 X147.367 Y115.397 E-0.00339
G1 E-0.04000 F2100.00000
G1 Z0.800 F10800.000
;AFTER_LAYER_CHANGE
;0.4
M140 S90 ; set bed temperature
G1 X152.895 Y112.530
G1 Z0.400
G1 E0.80000 F2100.00000
G1 F3000
G1 X152.910 Y143.097 E0.95841
G1 X152.815 Y143.882 E0.02480
G1 X152.583 Y144.644 E0.02496
G1 X152.225 Y145.349 E0.02480
G1 X151.748 Y145.986 E0.02496
G1 X151.045 Y146.623 E0.02974
G1 X150.230 Y147.098 E0.02957
G1 X149.335 Y147.396 E0.02957
G1 X148.393 Y147.504 E0.02974
G1 X117.195 Y147.502 E0.97820
G1 X116.409 Y147.407 E0.02480
G1 X115.648 Y147.176 E0.02496
G1 X114.937 Y146.816 E0.02496
G1 X114.300 Y146.339 E0.02496
G1 X113.664 Y145.636 E0.02974
G1 X113.188 Y144.821 E0.02957
G1 X112.890 Y143.926 E0.02957
G1 X112.782 Y142.984 E0.02974
G1 X112.785 Y112.780 E0.94701
G1 X112.880 Y111.995 E0.02480
G1 X113.112 Y111.234 E0.02496
G1 X113.470 Y110.528 E0.02480
G1 X113.948 Y109.892 E0.02496
G1 X114.617 Y109.280 E0.02842
G1 X115.393 Y108.812 E0.02842
G1 X116.247 Y108.508 E0.02842
G1 X117.144 Y108.378 E0.02842
G1 X148.353 Y108.373 E0.97853
G1 X149.193 Y108.452 E0.02644
G1 X150.003 Y108.684 E0.02644
G1 X150.758 Y109.061 E0.02644
G1 X151.430 Y109.571 E0.02644
G1 X151.997 Y110.195 E0.02644
G1 X152.439 Y110.913 E0.02644
G1 X152.742 Y111.700 E0.02644
G1 X152.884 Y112.471 E0.02456
G1 X152.512 Y112.537 F10800.000
G1 F3000
G1 X152.534 Y143.075 E0.95750
G1 X152.446 Y143.802 E0.02296
G1 X152.231 Y144.507 E0.02312
G1 X151.896 Y145.164 E0.02312
G1 X151.451 Y145.752 E0.02312
G1 X150.809 Y146.328 E0.02706
G1 X150.062 Y146.760 E0.02706
G1 X149.242 Y147.031 E0.02706
G1 X148.379 Y147.127 E0.02722
G1 X117.216 Y147.125 E0.97710
G1 X116.484 Y147.037 E0.02312
G1 X115.779 Y146.822 E0.02312
G1 X115.122 Y146.487 E0.02312
G1 X114.535 Y146.042 E0.02312
G1 X113.958 Y145.400 E0.02706
G1 X113.526 Y144.653 E0.02706
G1 X113.256 Y143.833 E0.02706
G1 X113.159 Y142.975 E0.02706
G1 X113.161 Y112.802 E0.94606
G1 X113.249 Y112.075 E0.02296
G1 X113.464 Y111.370 E0.02312
G1 X113.799 Y110.713 E0.02312
G1 X114.244 Y110.126 E0.02312
G1 X114.858 Y109.570 E0.02596
G1 X115.574 Y109.144 E0.02611
G1 X116.355 Y108.869 E0.02596
G1 X117.180 Y108.753 E0.02611
G1 X148.353 Y108.750 E0.97741
G1 X149.122 Y108.822 E0.02422
G1 X149.869 Y109.036 E0.02438
G1 X150.564 Y109.385 E0.02438
G1 X151.183 Y109.856 E0.02438
G1 X151.704 Y110.433 E0.02438
G1 X152.109 Y111.096 E0.02438
G1 X152.385 Y111.823 E0.02438
G1 X152.502 Y112.478 E0.02085
; PURGING FINISHED
G1 F8640
G1 X152.505 Y115.769 E-0.76000
G1 E-0.04000 F2100.00000
G1 Z1.000 F10800.000
G1 X147.716 Y113.571
G1 Z0.400
G1 E0.80000 F2100.00000
M204 S800
G1 F2700
G1 X147.716 Y142.307 E0.97267
G1 X117.980 Y142.307 E1.00652
G1 X117.980 Y113.571 E0.97267
G1 X147.656 Y113.571 E1.00449
M204 S1000
G1 X148.123 Y113.164 F10800.000
M204 S800
G1 F2100
G1 X148.123 Y142.714 E1.00023
G1 X117.573 Y142.714 E1.03408
G1 X117.573 Y113.164 E1.00023
G1 X148.063 Y113.164 E1.03205
M204 S1000
G1 X148.017 Y113.549 F10800.000
G1 F8640
G1 X148.069 Y116.455 E-0.76000
G1 E-0.04000 F2100.00000
G1 Z1.000 F10800.000
G1 X146.763 Y142.184
G1 Z0.400
G1 E0.80000 F2100.00000
M204 S1250
G1 F5845.4
G1 X147.410 Y141.537 E0.03124
G1 X147.410 Y140.957 E0.01982
G1 X146.366 Y142.001 E0.05043
G1 X145.785 Y142.001 E0.01982
G1 X147.410 Y140.376 E0.07847
M73 Q10 S25
G1 X147.410 Y139.795 E0.01982
M73 P10 R25
G1 X145.204 Y142.001 E0.10650
G1 X144.624 Y142.001 E0.01982
G1 X147.410 Y139.215 E0.13454
G1 X147.410 Y138.634 E0.01982
G1 X144.043 Y142.001 E0.16257
G1 X143.462 Y142.001 E0.01982
G1 X147.410 Y138.053 E0.19061
G1 X147.410 Y137.473 E0.01982
G1 X142.882 Y142.001 E0.21864
G1 X142.301 Y142.001 E0.01982
G1 X147.410 Y136.892 E0.24667
G1 X147.410 Y136.312 E0.01982
G1 X141.720 Y142.001 E0.27471
G1 X141.140 Y142.001 E0.01982
G1 X147.410 Y135.731 E0.30274
G1 X147.410 Y135.150 E0.01982
G1 X140.559 Y142.001 E0.33078
G1 X139.978 Y142.001 E0.01982
G1 X147.410 Y134.570 E0.35881
G1 X147.410 Y133.989 E0.01982
G1 X139.398 Y142.001 E0.38684
G1 X138.817 Y142.001 E0.01982
G1 X147.410 Y133.408 E0.41488
G1 X147.410 Y132.828 E0.01982
G1 X138.237 Y142.001 E0.44291
G1 X137.656 Y142.001 E0.01982
G1 X147.410 Y132.247 E0.47095
G1 X147.410 Y131.666 E0.01982
G1 X137.075 Y142.001 E0.49898
G1 X136.495 Y142.001 E0.01982
G1 X147.410 Y131.086 E0.52702
G1 X147.410 Y130.505 E0.01982
G1 X135.914 Y142.001 E0.55505
G1 X135.333 Y142.001 E0.01982
G1 X147.410 Y129.924 E0.58308
G1 X147.410 Y129.344 E0.01982
G1 X134.753 Y142.001 E0.61112
G1 X134.172 Y142.001 E0.01982
G1 X147.410 Y128.763 E0.63915
G1 X147.410 Y128.182 E0.01982
G1 X133.591 Y142.001 E0.66719
G1 X133.011 Y142.001 E0.01982
G1 X147.410 Y127.602 E0.69522
G1 X147.410 Y127.021 E0.01982
G1 X132.430 Y142.001 E0.72325
G1 X131.849 Y142.001 E0.01982
G1 X147.410 Y126.441 E0.75129
G1 X147.410 Y125.860 E0.01982
G1 X131.269 Y142.001 E0.77932
G1 X130.688 Y142.001 E0.01982
G1 X147.410 Y125.279 E0.80736
G1 X147.410 Y124.699 E0.01982
G1 X130.108 Y142.001 E0.83539
G1 X129.527 Y142.001 E0.01982
