; generated by Slic3r Prusa Edition 1.41.2 on 2019-02-10 at 19:53:58

; 

; external perimeters extrusion width = 0.45mm
; perimeters extrusion width = 0.45mm
; infill extrusion width = 0.45mm
; solid infill extrusion width = 0.45mm
; top infill extrusion width = 0.40mm
; first layer extrusion width = 0.42mm

M73 P0 R48
M73 Q0 S49
M201 X1000 Y1000 Z1000 E5000 ; sets maximum accelerations, mm/sec^2
M203 X200 Y200 Z12 E120 ; sets maximum feedrates, mm/sec
M204 P1250 R1250 T1250 ; sets acceleration (P, T) and retract acceleration (R), mm/sec^2
M205 X8.00 Y8.00 Z0.40 E1.50 ; sets the jerk limits, mm/sec
M205 S0 T0 ; sets the minimum extruding and travel feed rate, mm/sec
M107
M115 U3.4.0 ; tell printer latest fw version
M83  ; extruder relative mode
M104 S140 ; set extruder to warm-up temp
M140 S80 ; set bed temp
M190 S80 ; wait for bed temp
G28 W ; home all without mesh bed level
G80 ; mesh bed leveling
M104 S250 ; set extruder temp
M109 S250 ; wait for extruder temp
G1 Y-3.0 F1000.0 ; go outside print area
G92 E0.0
G1 X60.0 E9.0  F1000.0 ; intro line
M73 Q0 S48
M73 P0 R48
G1 X100.0 E12.5  F1000.0 ; intro line
G92 E0.0
M221 S95
M900 K45; Filament gcode
G21 ; set units to millimeters
G90 ; use absolute coordinates
M83 ; use relative distances for extrusion
;BEFORE_LAYER_CHANGE
G92 E0.0
;0.2


G1 E-0.80000 F2100.00000
G1 Z0.600 F10800.000
;AFTER_LAYER_CHANGE
;0.2
G1 X146.783 Y70.381
G1 Z0.200
G1 E0.80000 F2100.00000
M204 S20
G1 F1800
G1 X155.428 Y70.336 E0.27107
G1 X156.278 Y70.417 E0.02677
G1 X157.093 Y70.653 E0.02661
G1 X157.855 Y71.038 E0.02677
G1 X158.532 Y71.558 E0.02677
G1 X159.101 Y72.196 E0.02677
G1 X159.540 Y72.928 E0.02677
G1 X159.835 Y73.729 E0.02677
G1 X159.977 Y74.572 E0.02677
G1 X159.950 Y132.491 E1.81603
G1 X159.599 Y133.747 E0.04091
G1 X158.903 Y134.857 E0.04107
G1 X157.920 Y135.724 E0.04107
G1 X156.737 Y136.274 E0.04091
G1 X155.494 Y136.467 E0.03943
G1 X146.833 Y136.429 E0.27157
G1 X145.742 Y136.147 E0.03533
G1 X144.750 Y135.603 E0.03549
G1 X143.925 Y134.835 E0.03533
G1 X143.310 Y133.884 E0.03549
G1 X135.805 Y113.555 E0.67946
G1 X135.657 Y112.427 E0.03566
G1 X135.695 Y93.812 E0.58368
G1 X135.931 Y92.844 E0.03122
G1 X143.151 Y73.290 E0.65356
G1 X143.482 Y72.596 E0.02414
G1 X143.929 Y71.962 E0.02430
G1 X144.521 Y71.377 E0.02611
G1 X145.210 Y70.908 E0.02611
G1 X145.972 Y70.572 E0.02612
G1 X146.724 Y70.395 E0.02423
M204 S1000
G1 X146.809 Y70.763 F10800.000
M204 S20
G1 F1800
G1 X146.867 Y70.750 E0.00186
G1 X155.428 Y70.713 E0.26842
G1 X156.207 Y70.787 E0.02454
G1 X156.963 Y71.007 E0.02469
G1 X157.661 Y71.361 E0.02454
G1 X158.284 Y71.843 E0.02469
G1 X158.803 Y72.428 E0.02454
G1 X159.206 Y73.105 E0.02469
G1 X159.476 Y73.845 E0.02469
G1 X159.602 Y74.622 E0.02469
G1 X159.576 Y132.446 E1.81302
G1 X159.245 Y133.614 E0.03807
G1 X158.593 Y134.639 E0.03807
G1 X157.675 Y135.433 E0.03807
G1 X156.567 Y135.931 E0.03807
G1 X155.475 Y136.090 E0.03462
G1 X146.878 Y136.054 E0.26953
G1 X145.873 Y135.793 E0.03257
G1 X144.959 Y135.289 E0.03273
G1 X144.198 Y134.574 E0.03273
G1 X143.637 Y133.694 E0.03273
G1 X136.166 Y113.442 E0.67680
G1 X136.034 Y112.422 E0.03226
G1 X136.070 Y93.857 E0.58209
G1 X136.287 Y92.970 E0.02864
G1 X143.502 Y73.427 E0.65318
G1 X143.804 Y72.793 E0.02201
G1 X144.210 Y72.214 E0.02217
G1 X144.758 Y71.670 E0.02422
G1 X145.401 Y71.233 E0.02438
G1 X146.109 Y70.924 E0.02422
G1 X146.751 Y70.777 E0.02063
M204 S1000
; PURGING FINISHED
G1 F8640
G1 X146.867 Y70.750 E-0.02758
G1 X150.039 Y70.736 E-0.73242
G1 E-0.04000 F2100.00000
G1 Z0.800 F10800.000
G1 X148.110 Y75.589
G1 Z0.200
G1 E0.80000 F2100.00000
M204 S20
G1 F1800
G1 X154.736 Y75.589 E0.20775
G1 X154.736 Y91.752 E0.50679
G1 X150.646 Y91.752 E0.12825
G1 X150.646 Y95.406 E0.11457
G1 X141.206 Y95.406 E0.29598
G1 X141.206 Y111.397 E0.50138
G1 X150.646 Y111.397 E0.29598
G1 X150.646 Y115.051 E0.11457
G1 X154.736 Y115.051 E0.12825
G1 X154.736 Y131.214 E0.50679
G1 X148.110 Y131.214 E0.20775
G1 X148.110 Y111.714 E0.61141
G1 X140.910 Y111.714 E0.22575
G1 X140.910 Y95.089 E0.52129
G1 X148.110 Y95.089 E0.22575
G1 X148.110 Y75.649 E0.60953
M204 S1000
G1 F8640
G1 X151.401 Y75.619 E-0.76000
G1 E-0.04000 F2100.00000
G1 Z0.800 F10800.000
G1 X151.023 Y92.129
G1 Z0.200
G1 E0.80000 F2100.00000
M204 S20
G1 F1800
G1 X151.023 Y95.783 E0.11457
G1 X141.583 Y95.783 E0.29598
G1 X141.583 Y111.020 E0.47773
G1 X151.023 Y111.020 E0.29598
G1 X151.023 Y114.674 E0.11457
G1 X155.113 Y114.674 E0.12825
G1 X155.113 Y131.591 E0.53044
G1 X147.733 Y131.591 E0.23139
G1 X147.733 Y112.091 E0.61141
G1 X140.533 Y112.091 E0.22575
G1 X140.533 Y94.712 E0.54494
G1 X147.733 Y94.712 E0.22575
G1 X147.733 Y75.212 E0.61141
G1 X155.113 Y75.212 E0.23139
G1 X155.113 Y92.129 E0.53044
G1 X151.083 Y92.129 E0.12636
M204 S1000
G1 X150.662 Y92.301 F10800.000
G1 F8640
G1 X151.029 Y95.420 E-0.76000
G1 E-0.04000 F2100.00000
G1 Z0.800 F10800.000
G1 X149.000 Y95.293
G1 Z0.200
G1 E0.80000 F2100.00000
M204 S20
G1 F1800
G1 X148.393 Y94.686 E0.02742
G1 X148.393 Y94.143 E0.01734
G1 X149.373 Y95.123 E0.04427
G1 X149.916 Y95.123 E0.01734
G1 X148.393 Y93.600 E0.06880
G1 X148.393 Y93.057 E0.01734
G1 X150.363 Y95.027 E0.08896
G1 X150.363 Y94.484 E0.01734
G1 X148.393 Y92.514 E0.08896
G1 X148.393 Y91.971 E0.01734
G1 X150.363 Y93.941 E0.08896
G1 X150.363 Y93.398 E0.01734
G1 X148.393 Y91.428 E0.08896
G1 X148.393 Y90.885 E0.01734
G1 X150.363 Y92.855 E0.08896
G1 X150.363 Y92.312 E0.01734
G1 X148.393 Y90.341 E0.08896
G1 X148.393 Y89.798 E0.01734
G1 X150.363 Y91.768 E0.08896
G1 X150.363 Y91.469 E0.00956
G1 X150.607 Y91.469 E0.00778
G1 X148.393 Y89.255 E0.09996
G1 X148.393 Y88.712 E0.01734
G1 X151.150 Y91.469 E0.12449
G1 X151.693 Y91.469 E0.01734
G1 X148.393 Y88.169 E0.14901
G1 X148.393 Y87.626 E0.01734
G1 X152.236 Y91.469 E0.17353
G1 X152.779 Y91.469 E0.01734
G1 X148.393 Y87.083 E0.19805
G1 X148.393 Y86.540 E0.01734
G1 X153.322 Y91.469 E0.22257
G1 X153.865 Y91.469 E0.01734
G1 X148.393 Y85.997 E0.24709
G1 X148.393 Y85.454 E0.01734
G1 X154.408 Y91.469 E0.27161
G1 X154.453 Y91.469 E0.00144
G1 X154.453 Y90.971 E0.01590
G1 X148.393 Y84.911 E0.27365
G1 X148.393 Y84.368 E0.01734
G1 X154.453 Y90.428 E0.27365
G1 X154.453 Y89.885 E0.01734
G1 X148.393 Y83.825 E0.27365
G1 X148.393 Y83.282 E0.01734
G1 X154.453 Y89.342 E0.27365
G1 X154.453 Y88.799 E0.01734
G1 X148.393 Y82.739 E0.27365
G1 X148.393 Y82.196 E0.01734
G1 X154.453 Y88.256 E0.27365
G1 X154.453 Y87.713 E0.01734
G1 X148.393 Y81.653 E0.27365
G1 X148.393 Y81.110 E0.01734
G1 X154.453 Y87.170 E0.27365
G1 X154.453 Y86.627 E0.01734
G1 X148.393 Y80.567 E0.27365
G1 X148.393 Y80.024 E0.01734
G1 X154.453 Y86.084 E0.27365
G1 X154.453 Y85.541 E0.01734
G1 X148.393 Y79.481 E0.27365
G1 X148.393 Y78.937 E0.01734
G1 X154.453 Y84.998 E0.27365
M73 Q2 S47
M73 P2 R47
G1 X154.453 Y84.455 E0.01734
G1 X148.393 Y78.394 E0.27365
G1 X148.393 Y77.851 E0.01734
G1 X154.453 Y83.912 E0.27365
G1 X154.453 Y83.369 E0.01734
G1 X148.393 Y77.308 E0.27365
G1 X148.393 Y76.765 E0.01734
G1 X154.453 Y82.826 E0.27365
G1 X154.453 Y82.282 E0.01734
G1 X148.393 Y76.222 E0.27365
G1 X148.393 Y75.871 E0.01120
G1 X148.585 Y75.871 E0.00614
G1 X154.453 Y81.739 E0.26497
G1 X154.453 Y81.196 E0.01734
G1 X149.128 Y75.871 E0.24045
G1 X149.671 Y75.871 E0.01734
G1 X154.453 Y80.653 E0.21593
G1 X154.453 Y80.110 E0.01734
G1 X150.214 Y75.871 E0.19141
G1 X150.757 Y75.871 E0.01734
G1 X154.453 Y79.567 E0.16689
G1 X154.453 Y79.024 E0.01734
G1 X151.300 Y75.871 E0.14236
G1 X151.843 Y75.871 E0.01734
G1 X154.453 Y78.481 E0.11784
G1 X154.453 Y77.938 E0.01734
G1 X152.386 Y75.871 E0.09332
G1 X152.929 Y75.871 E0.01734
G1 X154.453 Y77.395 E0.06880
G1 X154.453 Y76.852 E0.01734
G1 X153.472 Y75.871 E0.04428
G1 X154.015 Y75.871 E0.01734
G1 X154.623 Y76.479 E0.02742
M204 S1000
G1 F8640
G1 X154.015 Y75.871 E-0.19830
G1 X153.472 Y75.871 E-0.12539
G1 X154.453 Y76.852 E-0.32022
G1 X154.453 Y77.355 E-0.11610
G1 E-0.04000 F2100.00000
G1 Z0.800 F10800.000
G1 X150.532 Y112.370
G1 Z0.200
G1 E0.80000 F2100.00000
M204 S20
G1 F1800
G1 X149.842 Y111.680 E0.03065
G1 X149.308 Y111.680 E0.01674
G1 X150.363 Y112.734 E0.04679
G1 X150.363 Y113.268 E0.01674
G1 X148.775 Y111.680 E0.07047
G1 X148.393 Y111.680 E0.01198
G1 X148.393 Y111.831 E0.00476
G1 X150.363 Y113.801 E0.08741
G1 X150.363 Y114.335 E0.01674
G1 X148.393 Y112.365 E0.08741
G1 X148.393 Y112.899 E0.01674
G1 X150.363 Y114.869 E0.08741
G1 X150.363 Y115.334 E0.01459
G1 X150.828 Y115.334 E0.01459
G1 X154.453 Y118.959 E0.16085
G1 X154.453 Y118.425 E0.01674
G1 X151.361 Y115.334 E0.13718
G1 X151.895 Y115.334 E0.01674
G1 X154.453 Y117.892 E0.11350
G1 X154.453 Y117.358 E0.01674
G1 X152.429 Y115.334 E0.08982
G1 X152.962 Y115.334 E0.01674
G1 X154.453 Y116.824 E0.06614
G1 X154.453 Y116.291 E0.01674
G1 X153.496 Y115.334 E0.04247
G1 X154.030 Y115.334 E0.01674
G1 X154.623 Y115.927 E0.02632
M204 S1000
G1 F8640
G1 X154.030 Y115.334 E-0.19368
G1 X153.496 Y115.334 E-0.12322
G1 X154.453 Y116.291 E-0.31252
G1 X154.453 Y116.824 E-0.12322
G1 X154.430 Y116.802 E-0.00737
G1 E-0.04000 F2100.00000
G1 Z0.800 F10800.000
G1 X154.623 Y119.662
G1 Z0.200
G1 E0.80000 F2100.00000
M204 S20
G1 F1800
G1 X148.393 Y113.432 E0.27643
G1 X148.393 Y113.966 E0.01674
G1 X154.453 Y120.026 E0.26890
G1 X154.453 Y120.560 E0.01674
G1 X148.393 Y114.500 E0.26890
G1 X148.393 Y115.033 E0.01674
G1 X154.453 Y121.093 E0.26890
G1 X154.453 Y121.627 E0.01674
G1 X148.393 Y115.567 E0.26890
G1 X148.393 Y116.100 E0.01674
G1 X154.453 Y122.161 E0.26890
G1 X154.453 Y122.694 E0.01674
G1 X148.393 Y116.634 E0.26890
G1 X148.393 Y117.168 E0.01674
G1 X154.453 Y123.228 E0.26890
G1 X154.453 Y123.762 E0.01674
G1 X148.393 Y117.701 E0.26890
G1 X148.393 Y118.235 E0.01674
G1 X154.453 Y124.295 E0.26890
G1 X154.453 Y124.829 E0.01674
G1 X148.393 Y118.769 E0.26890
G1 X148.393 Y119.302 E0.01674
G1 X154.453 Y125.362 E0.26890
G1 X154.453 Y125.896 E0.01674
G1 X148.393 Y119.836 E0.26890
G1 X148.393 Y120.369 E0.01674
G1 X154.453 Y126.430 E0.26890
G1 X154.453 Y126.963 E0.01674
G1 X148.393 Y120.903 E0.26890
G1 X148.393 Y121.437 E0.01674
G1 X154.453 Y127.497 E0.26890
G1 X154.453 Y128.031 E0.01674
G1 X148.393 Y121.970 E0.26890
G1 X148.393 Y122.504 E0.01674
G1 X154.453 Y128.564 E0.26890
G1 X154.453 Y129.098 E0.01674
G1 X148.393 Y123.038 E0.26890
G1 X148.393 Y123.571 E0.01674
G1 X154.453 Y129.631 E0.26890
G1 X154.453 Y130.165 E0.01674
G1 X148.393 Y124.105 E0.26890
G1 X148.393 Y124.638 E0.01674
G1 X154.453 Y130.699 E0.26890
G1 X154.453 Y130.932 E0.00731
G1 X154.152 Y130.932 E0.00943
G1 X148.393 Y125.172 E0.25556
G1 X148.393 Y125.706 E0.01674
G1 X153.619 Y130.932 E0.23188
G1 X153.085 Y130.932 E0.01674
G1 X148.393 Y126.239 E0.20820
G1 X148.393 Y126.773 E0.01674
G1 X152.551 Y130.932 E0.18453
G1 X152.018 Y130.932 E0.01674
G1 X148.393 Y127.307 E0.16085
G1 X148.393 Y127.840 E0.01674
G1 X151.484 Y130.932 E0.13717
G1 X150.951 Y130.932 E0.01674
G1 X148.393 Y128.374 E0.11349
G1 X148.393 Y128.907 E0.01674
G1 X150.417 Y130.932 E0.08982
G1 X149.883 Y130.932 E0.01674
G1 X148.393 Y129.441 E0.06614
G1 X148.393 Y129.975 E0.01674
G1 X149.350 Y130.932 E0.04246
G1 X148.816 Y130.932 E0.01674
G1 X148.223 Y130.339 E0.02631
M204 S1000
;BEFORE_LAYER_CHANGE
G92 E0.0
;0.4


G1 F8640
G1 X148.816 Y130.932 E-0.19365
G1 X149.350 Y130.932 E-0.12322
G1 X148.393 Y129.975 E-0.31249
G1 X148.393 Y129.441 E-0.12322
G1 X148.415 Y129.464 E-0.00742
G1 E-0.04000 F2100.00000
G1 Z0.800 F10800.000
;AFTER_LAYER_CHANGE
;0.4
M140 S90 ; set bed temperature
G1 X143.925 Y134.835
G1 Z0.400
G1 E0.80000 F2100.00000
G1 F3000
G1 X143.310 Y133.884 E0.03549
G1 X135.805 Y113.555 E0.67946
G1 X135.657 Y112.427 E0.03566
G1 X135.695 Y93.812 E0.58368
G1 X135.931 Y92.844 E0.03122
G1 X143.151 Y73.290 E0.65356
G1 X143.482 Y72.596 E0.02414
G1 X143.929 Y71.962 E0.02430
G1 X144.521 Y71.377 E0.02611
G1 X145.210 Y70.908 E0.02611
G1 X145.972 Y70.572 E0.02612
G1 X146.783 Y70.381 E0.02612
G1 X155.428 Y70.336 E0.27107
G1 X156.278 Y70.417 E0.02677
G1 X157.093 Y70.653 E0.02661
G1 X157.855 Y71.038 E0.02677
G1 X158.532 Y71.558 E0.02677
G1 X159.101 Y72.196 E0.02677
G1 X159.540 Y72.928 E0.02677
G1 X159.835 Y73.729 E0.02677
G1 X159.977 Y74.572 E0.02677
G1 X159.950 Y132.491 E1.81603
G1 X159.599 Y133.747 E0.04091
G1 X158.903 Y134.857 E0.04107
G1 X157.920 Y135.724 E0.04107
G1 X156.737 Y136.274 E0.04091
G1 X155.494 Y136.467 E0.03943
G1 X146.833 Y136.429 E0.27157
G1 X145.742 Y136.147 E0.03533
G1 X144.750 Y135.603 E0.03549
G1 X143.968 Y134.876 E0.03345
G1 X144.227 Y134.601 F10800.000
G1 F3000
G1 X143.637 Y133.694 E0.03393
G1 X136.166 Y113.442 E0.67680
G1 X136.034 Y112.422 E0.03226
G1 X136.070 Y93.857 E0.58209
G1 X136.287 Y92.970 E0.02864
G1 X143.502 Y73.427 E0.65318
G1 X143.804 Y72.793 E0.02201
G1 X144.210 Y72.214 E0.02217
G1 X144.758 Y71.670 E0.02422
G1 X145.401 Y71.233 E0.02438
G1 X146.109 Y70.924 E0.02422
G1 X146.867 Y70.750 E0.02438
G1 X155.428 Y70.713 E0.26842
G1 X156.207 Y70.787 E0.02454
G1 X156.963 Y71.007 E0.02469
G1 X157.661 Y71.361 E0.02454
G1 X158.284 Y71.843 E0.02469
G1 X158.803 Y72.428 E0.02454
G1 X159.206 Y73.105 E0.02469
G1 X159.476 Y73.845 E0.02469
G1 X159.602 Y74.622 E0.02469
G1 X159.576 Y132.446 E1.81302
G1 X159.245 Y133.614 E0.03807
G1 X158.593 Y134.639 E0.03807
G1 X157.675 Y135.433 E0.03807
G1 X156.567 Y135.931 E0.03807
G1 X155.475 Y136.090 E0.03462
G1 X146.878 Y136.054 E0.26953
G1 X145.873 Y135.793 E0.03257
G1 X144.959 Y135.289 E0.03273
G1 X144.270 Y134.642 E0.02961
; PURGING FINISHED
G1 F8640
G1 X143.637 Y133.694 E-0.26337
G1 X142.893 Y131.676 E-0.49663
G1 E-0.04000 F2100.00000
G1 Z1.000 F10800.000
G1 X148.055 Y131.269
G1 Z0.400
G1 E0.80000 F2100.00000
M204 S800
G1 F2700
G1 X148.055 Y111.769 E0.66005
G1 X140.855 Y111.769 E0.24371
G1 X140.855 Y95.034 E0.56649
G1 X148.055 Y95.034 E0.24371
G1 X148.055 Y75.534 E0.66005
G1 X154.791 Y75.534 E0.22800
G1 X154.791 Y91.942 E0.55542
G1 X150.776 Y91.942 E0.13590
G1 X150.776 Y95.551 E0.12216
G1 X141.352 Y95.551 E0.31897
G1 X141.352 Y111.252 E0.53144
G1 X150.776 Y111.252 E0.31897
G1 X150.776 Y114.861 E0.12216
G1 X154.791 Y114.861 E0.13590
G1 X154.791 Y131.269 E0.55542
G1 X148.115 Y131.269 E0.22597
M204 S1000
G1 F8640
G1 X148.105 Y127.978 E-0.76000
G1 E-0.04000 F2100.00000
G1 Z1.000 F10800.000
G1 X147.648 Y112.176
G1 Z0.400
G1 E0.80000 F2100.00000
M204 S800
G1 X140.448 Y112.176 E0.24371
G1 X140.448 Y94.626 E0.59405
G1 X147.648 Y94.626 E0.24371
G1 X147.648 Y75.126 E0.66005
G1 X155.198 Y75.126 E0.25556
G1 X155.198 Y92.349 E0.58297
G1 X151.183 Y92.349 E0.13590
G1 X151.183 Y95.958 E0.12216
G1 X141.760 Y95.958 E0.31897
G1 X141.760 Y110.845 E0.50388
G1 X151.183 Y110.845 E0.31897
G1 X151.183 Y114.454 E0.12216
G1 X155.198 Y114.454 E0.13590
G1 X155.198 Y131.676 E0.58297
G1 X147.648 Y131.676 E0.25556
G1 X147.648 Y112.236 E0.65802
M204 S1000
G1 X147.599 Y111.780 F10800.000
G1 X148.258 Y111.511
G1 F2400
G1 X141.118 Y111.506 E0.05371
G1 X141.104 Y111.455 E0.00040
G1 X141.104 Y95.348 E0.12115
G1 X141.118 Y95.297 E0.00049
G1 X141.149 Y95.292 E0.00029
G1 X148.258 Y95.292 E0.06544
G1 F8640
G1 X144.967 Y95.292 E-0.76000
G1 E-0.04000 F2100.00000
G1 Z1.000 F10800.000
G1 X148.177 Y93.397
G1 Z0.400
G1 E0.80000 F2100.00000
M204 S1250
G1 F5821.67
G1 X154.485 Y87.088 E0.30582
G1 X154.485 Y86.505 E0.01999
G1 X148.360 Y92.631 E0.29694
G1 X148.360 Y92.048 E0.01999
G1 X154.485 Y85.922 E0.29694
G1 X154.485 Y85.339 E0.01999
G1 X148.360 Y91.465 E0.29694
G1 X148.360 Y90.882 E0.01999
G1 X154.485 Y84.756 E0.29694
G1 X154.485 Y84.173 E0.01999
G1 X148.360 Y90.299 E0.29694
G1 X148.360 Y89.716 E0.01999
G1 X154.485 Y83.590 E0.29694
G1 X154.485 Y83.007 E0.01999
G1 X148.360 Y89.133 E0.29694
G1 X148.360 Y88.550 E0.01999
G1 X154.485 Y82.424 E0.29694
G1 X154.485 Y81.841 E0.01999
G1 X148.360 Y87.967 E0.29694
G1 X148.360 Y87.384 E0.01999
G1 X154.485 Y81.258 E0.29694
G1 X154.485 Y80.675 E0.01999
G1 X148.360 Y86.801 E0.29694
G1 X148.360 Y86.218 E0.01999
G1 X154.485 Y80.092 E0.29694
G1 X154.485 Y79.509 E0.01999
G1 X148.360 Y85.634 E0.29694
G1 X148.360 Y85.051 E0.01999
G1 X154.485 Y78.926 E0.29694
G1 X154.485 Y78.343 E0.01999
G1 X148.360 Y84.468 E0.29694
G1 X148.360 Y83.885 E0.01999
G1 X154.485 Y77.760 E0.29694
G1 X154.485 Y77.177 E0.01999
G1 X148.360 Y83.302 E0.29694
G1 X148.360 Y82.719 E0.01999
