; generated by Slic3r Prusa Edition 1.41.2 on 2019-03-07 at 20:08:39

; 

; external perimeters extrusion width = 0.45mm
; perimeters extrusion width = 0.45mm
; infill extrusion width = 0.45mm
; solid infill extrusion width = 0.45mm
; top infill extrusion width = 0.40mm
; first layer extrusion width = 0.42mm

M73 P0 R40
M73 Q0 S41
M201 X1000 Y1000 Z1000 E5000 ; sets maximum accelerations, mm/sec^2
M203 X200 Y200 Z12 E120 ; sets maximum feedrates, mm/sec
M204 P1250 R1250 T1250 ; sets acceleration (P, T) and retract acceleration (R), mm/sec^2
M205 X8.00 Y8.00 Z0.40 E1.50 ; sets the jerk limits, mm/sec
M205 S0 T0 ; sets the minimum extruding and travel feed rate, mm/sec
M107
M115 U3.4.0 ; tell printer latest fw version
M83  ; extruder relative mode
M104 S140 ; set extruder to warm-up temp
M140 S80 ; set bed temp
M190 S80 ; wait for bed temp
G28 W ; home all without mesh bed level
G80 ; mesh bed leveling
M104 S250 ; set extruder temp
M109 S250 ; wait for extruder temp
G1 Y-3.0 F1000.0 ; go outside print area
G92 E0.0
G1 X60.0 E9.0  F1000.0 ; intro line
M73 Q0 S41
M73 P0 R40
G1 X100.0 E12.5  F1000.0 ; intro line
G92 E0.0
M221 S95
M900 K45; Filament gcode
G21 ; set units to millimeters
G90 ; use absolute coordinates
M83 ; use relative distances for extrusion
;BEFORE_LAYER_CHANGE
G92 E0.0
;0.2


G1 E-0.80000 F2100.00000
G1 Z0.600 F10800.000
;AFTER_LAYER_CHANGE
;0.2
G1 X143.428 Y130.444
G1 Z0.200
G1 E0.80000 F2100.00000
M204 S20
G1 F1800
G1 X144.287 Y129.660 E0.03648
G1 X145.316 Y129.118 E0.03648
G1 X146.449 Y128.854 E0.03648
G1 X226.916 Y128.830 E2.52298
G1 X228.131 Y128.997 E0.03845
G1 X229.258 Y129.480 E0.03845
G1 X230.216 Y130.246 E0.03845
G1 X230.937 Y131.244 E0.03861
G1 X231.288 Y132.097 E0.02892
G1 X231.460 Y133.008 E0.02908
G1 X231.455 Y137.334 E0.13562
G1 X231.297 Y138.162 E0.02644
G1 X230.987 Y138.952 E0.02661
G1 X228.474 Y143.250 E0.15610
G1 X227.840 Y143.898 E0.02842
G1 X227.091 Y144.408 E0.02842
G1 X226.255 Y144.759 E0.02842
G1 X225.367 Y144.939 E0.02842
G1 X148.494 Y144.943 E2.41029
G1 X147.599 Y144.769 E0.02859
G1 X146.756 Y144.421 E0.02859
G1 X146.000 Y143.913 E0.02859
G1 X145.359 Y143.265 E0.02859
G1 X144.972 Y142.705 E0.02133
G1 X142.837 Y138.957 E0.13526
G1 X142.529 Y138.177 E0.02628
G1 X142.368 Y137.355 E0.02628
G1 X142.357 Y133.069 E0.13437
G1 X142.497 Y132.227 E0.02677
G1 X142.795 Y131.421 E0.02694
G1 X143.395 Y130.495 E0.03460
M204 S1000
G1 X143.698 Y130.709 F10800.000
M204 S20
G1 F1800
G1 X144.495 Y129.974 E0.03399
G1 X145.454 Y129.469 E0.03399
G1 X146.511 Y129.227 E0.03399
G1 X226.916 Y129.208 E2.52105
G1 X228.049 Y129.365 E0.03587
G1 X229.097 Y129.824 E0.03587
G1 X229.982 Y130.549 E0.03587
G1 X230.638 Y131.486 E0.03587
G1 X230.943 Y132.261 E0.02611
G1 X231.087 Y133.082 E0.02611
G1 X231.077 Y137.330 E0.13321
G1 X230.928 Y138.083 E0.02406
G1 X230.644 Y138.796 E0.02406
G1 X228.187 Y143.005 E0.15280
G1 X227.603 Y143.605 E0.02627
G1 X226.910 Y144.077 E0.02627
G1 X226.137 Y144.401 E0.02627
G1 X225.311 Y144.565 E0.02643
G1 X148.542 Y144.568 E2.40702
G1 X147.714 Y144.410 E0.02643
G1 X146.930 Y144.087 E0.02659
G1 X146.227 Y143.612 E0.02659
G1 X145.638 Y143.010 E0.02643
G1 X143.176 Y138.792 E0.15314
G1 X142.888 Y138.064 E0.02454
G1 X142.741 Y137.295 E0.02454
G1 X142.731 Y133.118 E0.13097
G1 X142.854 Y132.355 E0.02422
G1 X143.116 Y131.623 E0.02438
G1 X143.666 Y130.760 E0.03211
M204 S1000
; PURGING FINISHED
G1 F8640
G1 X144.495 Y129.974 E-0.26372
G1 X145.454 Y129.469 E-0.25030
G1 X146.492 Y129.231 E-0.24598
G1 E-0.04000 F2100.00000
G1 Z0.800 F10800.000
G1 X147.598 Y134.083
G1 Z0.200
G1 E0.80000 F2100.00000
M204 S20
G1 F1800
G1 X226.224 Y134.083 E2.46526
G1 X226.224 Y136.209 E0.06665
G1 X224.224 Y136.209 E0.06271
G1 X224.224 Y139.709 E0.10974
G1 X149.598 Y139.709 E2.33984
G1 X149.598 Y136.209 E0.10974
G1 X147.598 Y136.209 E0.06271
G1 X147.598 Y134.143 E0.06477
M204 S1000
G1 F8640
G1 X150.889 Y134.141 E-0.76000
G1 E-0.04000 F2100.00000
G1 Z0.800 F10800.000
G1 X224.601 Y136.586
G1 Z0.200
G1 E0.80000 F2100.00000
M204 S20
G1 F1800
G1 X224.601 Y140.086 E0.10974
G1 X149.221 Y140.086 E2.36349
G1 X149.221 Y136.586 E0.10974
G1 X147.221 Y136.586 E0.06271
G1 X147.221 Y133.706 E0.09030
G1 X226.601 Y133.706 E2.48890
G1 X226.601 Y136.586 E0.09030
G1 X224.661 Y136.586 E0.06083
M204 S1000
G1 X224.221 Y136.712 F10800.000
G1 F8640
G1 X224.604 Y139.877 E-0.76000
G1 E-0.04000 F2100.00000
G1 Z0.800 F10800.000
G1 X226.111 Y134.961
G1 Z0.200
G1 E0.80000 F2100.00000
M204 S20
G1 F1800
G1 X225.515 Y134.366 E0.02649
G1 X224.980 Y134.366 E0.01684
G1 X225.941 Y135.327 E0.04275
G1 X225.941 Y135.862 E0.01684
G1 X224.445 Y134.366 E0.06656
G1 X223.910 Y134.366 E0.01684
G1 X225.470 Y135.926 E0.06943
G1 X224.935 Y135.926 E0.01684
G1 X223.375 Y134.366 E0.06943
G1 X222.840 Y134.366 E0.01684
G1 X224.400 Y135.926 E0.06943
G1 X223.941 Y135.926 E0.01444
G1 X223.941 Y136.002 E0.00240
G1 X222.304 Y134.366 E0.07282
G1 X221.769 Y134.366 E0.01684
G1 X223.941 Y136.538 E0.09663
G1 X223.941 Y137.073 E0.01684
G1 X221.234 Y134.366 E0.12044
G1 X220.699 Y134.366 E0.01684
G1 X223.941 Y137.608 E0.14425
G1 X223.941 Y138.143 E0.01684
G1 X220.164 Y134.366 E0.16806
G1 X219.629 Y134.366 E0.01684
G1 X223.941 Y138.678 E0.19187
G1 X223.941 Y139.213 E0.01684
G1 X219.094 Y134.366 E0.21568
G1 X218.559 Y134.366 E0.01684
G1 X223.619 Y139.426 E0.22516
G1 X223.084 Y139.426 E0.01684
G1 X218.023 Y134.366 E0.22516
G1 X217.488 Y134.366 E0.01684
G1 X222.549 Y139.426 E0.22516
G1 X222.013 Y139.426 E0.01684
G1 X216.953 Y134.366 E0.22516
G1 X216.418 Y134.366 E0.01684
G1 X221.478 Y139.426 E0.22516
G1 X220.943 Y139.426 E0.01684
G1 X215.883 Y134.366 E0.22516
G1 X215.348 Y134.366 E0.01684
G1 X220.408 Y139.426 E0.22516
G1 X219.873 Y139.426 E0.01684
G1 X214.813 Y134.366 E0.22516
G1 X214.277 Y134.366 E0.01684
G1 X219.338 Y139.426 E0.22516
G1 X218.803 Y139.426 E0.01684
G1 X213.742 Y134.366 E0.22516
G1 X213.207 Y134.366 E0.01684
G1 X218.267 Y139.426 E0.22516
G1 X217.732 Y139.426 E0.01684
G1 X212.672 Y134.366 E0.22516
G1 X212.137 Y134.366 E0.01684
G1 X217.197 Y139.426 E0.22516
G1 X216.662 Y139.426 E0.01684
G1 X211.602 Y134.366 E0.22516
G1 X211.067 Y134.366 E0.01684
G1 X216.127 Y139.426 E0.22516
G1 X215.592 Y139.426 E0.01684
G1 X210.532 Y134.366 E0.22516
G1 X209.996 Y134.366 E0.01684
G1 X215.057 Y139.426 E0.22516
G1 X214.522 Y139.426 E0.01684
G1 X209.461 Y134.366 E0.22516
G1 X208.926 Y134.366 E0.01684
G1 X213.986 Y139.426 E0.22516
G1 X213.451 Y139.426 E0.01684
G1 X208.391 Y134.366 E0.22516
G1 X207.856 Y134.366 E0.01684
G1 X212.916 Y139.426 E0.22516
G1 X212.381 Y139.426 E0.01684
G1 X207.321 Y134.366 E0.22516
G1 X206.786 Y134.366 E0.01684
G1 X211.846 Y139.426 E0.22516
G1 X211.311 Y139.426 E0.01684
G1 X206.251 Y134.366 E0.22516
G1 X205.715 Y134.366 E0.01684
G1 X210.776 Y139.426 E0.22516
G1 X210.241 Y139.426 E0.01684
G1 X205.180 Y134.366 E0.22516
M73 Q2 S40
G1 X204.645 Y134.366 E0.01684
G1 X209.705 Y139.426 E0.22516
M73 P2 R39
G1 X209.170 Y139.426 E0.01684
G1 X204.110 Y134.366 E0.22516
G1 X203.575 Y134.366 E0.01684
G1 X208.635 Y139.426 E0.22516
G1 X208.100 Y139.426 E0.01684
G1 X203.040 Y134.366 E0.22516
G1 X202.505 Y134.366 E0.01684
G1 X207.565 Y139.426 E0.22516
G1 X207.030 Y139.426 E0.01684
G1 X201.970 Y134.366 E0.22516
G1 X201.434 Y134.366 E0.01684
G1 X206.495 Y139.426 E0.22516
G1 X205.960 Y139.426 E0.01684
G1 X200.899 Y134.366 E0.22516
G1 X200.364 Y134.366 E0.01684
G1 X205.424 Y139.426 E0.22516
G1 X204.889 Y139.426 E0.01684
G1 X199.829 Y134.366 E0.22516
G1 X199.294 Y134.366 E0.01684
G1 X204.354 Y139.426 E0.22516
G1 X203.819 Y139.426 E0.01684
G1 X198.759 Y134.366 E0.22516
G1 X198.224 Y134.366 E0.01684
G1 X203.284 Y139.426 E0.22516
G1 X202.749 Y139.426 E0.01684
G1 X197.688 Y134.366 E0.22516
G1 X197.153 Y134.366 E0.01684
G1 X202.214 Y139.426 E0.22516
G1 X201.679 Y139.426 E0.01684
G1 X196.618 Y134.366 E0.22516
G1 X196.083 Y134.366 E0.01684
G1 X201.143 Y139.426 E0.22516
G1 X200.608 Y139.426 E0.01684
G1 X195.548 Y134.366 E0.22516
G1 X195.013 Y134.366 E0.01684
G1 X200.073 Y139.426 E0.22516
G1 X199.538 Y139.426 E0.01684
G1 X194.478 Y134.366 E0.22516
G1 X193.943 Y134.366 E0.01684
G1 X199.003 Y139.426 E0.22516
G1 X198.468 Y139.426 E0.01684
G1 X193.407 Y134.366 E0.22516
G1 X192.872 Y134.366 E0.01684
G1 X197.933 Y139.426 E0.22516
G1 X197.397 Y139.426 E0.01684
G1 X192.337 Y134.366 E0.22516
G1 X191.802 Y134.366 E0.01684
G1 X196.862 Y139.426 E0.22516
G1 X196.327 Y139.426 E0.01684
G1 X191.267 Y134.366 E0.22516
G1 X190.732 Y134.366 E0.01684
G1 X195.792 Y139.426 E0.22516
G1 X195.257 Y139.426 E0.01684
G1 X190.197 Y134.366 E0.22516
G1 X189.662 Y134.366 E0.01684
G1 X194.722 Y139.426 E0.22516
G1 X194.187 Y139.426 E0.01684
G1 X189.126 Y134.366 E0.22516
G1 X188.591 Y134.366 E0.01684
G1 X193.652 Y139.426 E0.22516
G1 X193.116 Y139.426 E0.01684
G1 X188.056 Y134.366 E0.22516
G1 X187.521 Y134.366 E0.01684
G1 X192.581 Y139.426 E0.22516
G1 X192.046 Y139.426 E0.01684
G1 X186.986 Y134.366 E0.22516
G1 X186.451 Y134.366 E0.01684
G1 X191.511 Y139.426 E0.22516
G1 X190.976 Y139.426 E0.01684
G1 X185.916 Y134.366 E0.22516
G1 X185.381 Y134.366 E0.01684
G1 X190.441 Y139.426 E0.22516
G1 X189.906 Y139.426 E0.01684
G1 X184.845 Y134.366 E0.22516
G1 X184.310 Y134.366 E0.01684
G1 X189.371 Y139.426 E0.22516
G1 X188.835 Y139.426 E0.01684
G1 X183.775 Y134.366 E0.22516
G1 X183.240 Y134.366 E0.01684
G1 X188.300 Y139.426 E0.22516
G1 X187.765 Y139.426 E0.01684
G1 X182.705 Y134.366 E0.22516
G1 X182.170 Y134.366 E0.01684
G1 X187.230 Y139.426 E0.22516
G1 X186.695 Y139.426 E0.01684
G1 X181.635 Y134.366 E0.22516
G1 X181.100 Y134.366 E0.01684
G1 X186.160 Y139.426 E0.22516
G1 X185.625 Y139.426 E0.01684
G1 X180.564 Y134.366 E0.22516
G1 X180.029 Y134.366 E0.01684
G1 X185.090 Y139.426 E0.22516
G1 X184.554 Y139.426 E0.01684
G1 X179.494 Y134.366 E0.22516
G1 X178.959 Y134.366 E0.01684
G1 X184.019 Y139.426 E0.22516
G1 X183.484 Y139.426 E0.01684
G1 X178.424 Y134.366 E0.22516
G1 X177.889 Y134.366 E0.01684
G1 X182.949 Y139.426 E0.22516
G1 X182.414 Y139.426 E0.01684
G1 X177.354 Y134.366 E0.22516
G1 X176.818 Y134.366 E0.01684
G1 X181.879 Y139.426 E0.22516
G1 X181.344 Y139.426 E0.01684
G1 X176.283 Y134.366 E0.22516
G1 X175.748 Y134.366 E0.01684
G1 X180.808 Y139.426 E0.22516
G1 X180.273 Y139.426 E0.01684
G1 X175.213 Y134.366 E0.22516
G1 X174.678 Y134.366 E0.01684
G1 X179.738 Y139.426 E0.22516
G1 X179.203 Y139.426 E0.01684
G1 X174.143 Y134.366 E0.22516
G1 X173.608 Y134.366 E0.01684
G1 X178.668 Y139.426 E0.22516
G1 X178.133 Y139.426 E0.01684
G1 X173.073 Y134.366 E0.22516
G1 X172.537 Y134.366 E0.01684
G1 X177.598 Y139.426 E0.22516
G1 X177.063 Y139.426 E0.01684
G1 X172.002 Y134.366 E0.22516
G1 X171.467 Y134.366 E0.01684
G1 X176.527 Y139.426 E0.22516
G1 X175.992 Y139.426 E0.01684
G1 X170.932 Y134.366 E0.22516
G1 X170.397 Y134.366 E0.01684
G1 X175.457 Y139.426 E0.22516
G1 X174.922 Y139.426 E0.01684
G1 X169.862 Y134.366 E0.22516
G1 X169.327 Y134.366 E0.01684
G1 X174.387 Y139.426 E0.22516
G1 X173.852 Y139.426 E0.01684
G1 X168.792 Y134.366 E0.22516
G1 X168.256 Y134.366 E0.01684
G1 X173.317 Y139.426 E0.22516
G1 X172.782 Y139.426 E0.01684
G1 X167.721 Y134.366 E0.22516
G1 X167.186 Y134.366 E0.01684
G1 X172.246 Y139.426 E0.22516
G1 X171.711 Y139.426 E0.01684
G1 X166.651 Y134.366 E0.22516
G1 X166.116 Y134.366 E0.01684
G1 X171.176 Y139.426 E0.22516
G1 X170.641 Y139.426 E0.01684
G1 X165.581 Y134.366 E0.22516
G1 X165.046 Y134.366 E0.01684
G1 X170.106 Y139.426 E0.22516
G1 X169.571 Y139.426 E0.01684
G1 X164.511 Y134.366 E0.22516
G1 X163.975 Y134.366 E0.01684
G1 X169.036 Y139.426 E0.22516
G1 X168.501 Y139.426 E0.01684
G1 X163.440 Y134.366 E0.22516
G1 X162.905 Y134.366 E0.01684
G1 X167.965 Y139.426 E0.22516
G1 X167.430 Y139.426 E0.01684
G1 X162.370 Y134.366 E0.22516
G1 X161.835 Y134.366 E0.01684
G1 X166.895 Y139.426 E0.22516
G1 X166.360 Y139.426 E0.01684
G1 X161.300 Y134.366 E0.22516
G1 X160.765 Y134.366 E0.01684
G1 X165.825 Y139.426 E0.22516
G1 X165.290 Y139.426 E0.01684
G1 X160.230 Y134.366 E0.22516
G1 X159.694 Y134.366 E0.01684
G1 X164.755 Y139.426 E0.22516
G1 X164.220 Y139.426 E0.01684
G1 X159.159 Y134.366 E0.22516
G1 X158.624 Y134.366 E0.01684
G1 X163.684 Y139.426 E0.22516
G1 X163.149 Y139.426 E0.01684
G1 X158.089 Y134.366 E0.22516
G1 X157.554 Y134.366 E0.01684
G1 X162.614 Y139.426 E0.22516
G1 X162.079 Y139.426 E0.01684
G1 X157.019 Y134.366 E0.22516
G1 X156.484 Y134.366 E0.01684
G1 X161.544 Y139.426 E0.22516
G1 X161.009 Y139.426 E0.01684
G1 X155.948 Y134.366 E0.22516
M73 Q5 S39
G1 X155.413 Y134.366 E0.01684
G1 X160.474 Y139.426 E0.22516
M73 P5 R38
G1 X159.938 Y139.426 E0.01684
G1 X154.878 Y134.366 E0.22516
G1 X154.343 Y134.366 E0.01684
G1 X159.403 Y139.426 E0.22516
G1 X158.868 Y139.426 E0.01684
G1 X153.808 Y134.366 E0.22516
G1 X153.273 Y134.366 E0.01684
G1 X158.333 Y139.426 E0.22516
G1 X157.798 Y139.426 E0.01684
G1 X152.738 Y134.366 E0.22516
G1 X152.203 Y134.366 E0.01684
G1 X157.263 Y139.426 E0.22516
G1 X156.728 Y139.426 E0.01684
G1 X151.667 Y134.366 E0.22516
G1 X151.132 Y134.366 E0.01684
G1 X156.193 Y139.426 E0.22516
G1 X155.657 Y139.426 E0.01684
G1 X150.597 Y134.366 E0.22516
G1 X150.062 Y134.366 E0.01684
G1 X155.122 Y139.426 E0.22516
G1 X154.587 Y139.426 E0.01684
G1 X149.527 Y134.366 E0.22516
G1 X148.992 Y134.366 E0.01684
G1 X154.052 Y139.426 E0.22516
G1 X153.517 Y139.426 E0.01684
G1 X148.457 Y134.366 E0.22516
G1 X147.922 Y134.366 E0.01684
G1 X149.482 Y135.926 E0.06943
G1 X148.947 Y135.926 E0.01684
G1 X147.881 Y134.860 E0.04744
G1 X147.881 Y135.395 E0.01684
G1 X148.581 Y136.096 E0.03118
M204 S1000
G1 F8640
G1 X147.881 Y135.395 E-0.22879
G1 X147.881 Y134.860 E-0.12356
G1 X148.947 Y135.926 E-0.34813
G1 X149.204 Y135.926 E-0.05952
G1 E-0.04000 F2100.00000
G1 Z0.800 F10800.000
G1 X150.476 Y139.596
G1 Z0.200
G1 E0.80000 F2100.00000
M204 S20
G1 F1800
G1 X149.881 Y139.001 E0.02649
G1 X149.881 Y138.465 E0.01684
G1 X150.841 Y139.426 E0.04275
G1 X151.376 Y139.426 E0.01684
G1 X149.881 Y137.930 E0.06656
G1 X149.881 Y137.395 E0.01684
G1 X151.912 Y139.426 E0.09037
G1 X152.447 Y139.426 E0.01684
G1 X149.881 Y136.860 E0.11418
G1 X149.881 Y136.325 E0.01684
G1 X153.151 Y139.596 E0.14554
M204 S1000
;BEFORE_LAYER_CHANGE
G92 E0.0
;0.4


G1 F8640
G1 X150.824 Y137.268 E-0.76000
G1 E-0.04000 F2100.00000
G1 Z0.800 F10800.000
;AFTER_LAYER_CHANGE
;0.4
M140 S90 ; set bed temperature
G1 X147.599 Y144.769
G1 Z0.400
G1 E0.80000 F2100.00000
G1 F3000
G1 X146.756 Y144.421 E0.02859
G1 X146.000 Y143.913 E0.02859
G1 X145.359 Y143.265 E0.02859
G1 X144.972 Y142.705 E0.02133
G1 X142.837 Y138.957 E0.13526
G1 X142.529 Y138.177 E0.02628
G1 X142.368 Y137.355 E0.02628
G1 X142.357 Y133.069 E0.13437
G1 X142.497 Y132.227 E0.02677
G1 X142.795 Y131.421 E0.02694
G1 X143.428 Y130.444 E0.03648
G1 X144.287 Y129.660 E0.03648
G1 X145.316 Y129.118 E0.03648
G1 X146.449 Y128.854 E0.03648
G1 X226.916 Y128.830 E2.52298
G1 X228.131 Y128.997 E0.03845
G1 X229.258 Y129.480 E0.03845
G1 X230.216 Y130.246 E0.03845
G1 X230.937 Y131.244 E0.03861
G1 X231.288 Y132.097 E0.02892
G1 X231.460 Y133.008 E0.02908
G1 X231.455 Y137.334 E0.13562
G1 X231.297 Y138.162 E0.02644
G1 X230.987 Y138.952 E0.02661
G1 X228.474 Y143.250 E0.15610
G1 X227.840 Y143.898 E0.02842
G1 X227.091 Y144.408 E0.02842
G1 X226.255 Y144.759 E0.02842
G1 X225.367 Y144.939 E0.02842
G1 X148.494 Y144.943 E2.41029
G1 X147.658 Y144.781 E0.02671
G1 F8640
G1 X146.756 Y144.421 E-0.22411
G1 X146.000 Y143.913 E-0.21052
G1 X145.359 Y143.265 E-0.21052
G1 X145.076 Y142.855 E-0.11485
G1 E-0.04000 F2100.00000
G1 Z1.000 F10800.000
G1 X145.638 Y143.010
G1 Z0.400
G1 E0.80000 F2100.00000
G1 F3000
G1 X143.176 Y138.792 E0.15314
G1 X142.888 Y138.064 E0.02454
G1 X142.741 Y137.295 E0.02454
G1 X142.731 Y133.118 E0.13097
G1 X142.854 Y132.355 E0.02422
G1 X143.116 Y131.623 E0.02438
G1 X143.698 Y130.709 E0.03399
G1 X144.495 Y129.974 E0.03399
G1 X145.454 Y129.469 E0.03399
G1 X146.511 Y129.227 E0.03399
G1 X226.916 Y129.208 E2.52105
G1 X228.049 Y129.365 E0.03587
G1 X229.097 Y129.824 E0.03587
G1 X229.982 Y130.549 E0.03587
G1 X230.638 Y131.486 E0.03587
G1 X230.943 Y132.261 E0.02611
G1 X231.087 Y133.082 E0.02611
G1 X231.077 Y137.330 E0.13321
G1 X230.928 Y138.083 E0.02406
G1 X230.644 Y138.796 E0.02406
