; generated by Slic3r Prusa Edition 1.41.2 on 2019-03-04 at 08:55:01

; 

; external perimeters extrusion width = 0.45mm
; perimeters extrusion width = 0.45mm
; infill extrusion width = 0.45mm
; solid infill extrusion width = 0.45mm
; top infill extrusion width = 0.40mm
; first layer extrusion width = 0.42mm

M73 P0 R180
M73 Q0 S182
M201 X1000 Y1000 Z1000 E5000 ; sets maximum accelerations, mm/sec^2
M203 X200 Y200 Z12 E120 ; sets maximum feedrates, mm/sec
M204 P1250 R1250 T1250 ; sets acceleration (P, T) and retract acceleration (R), mm/sec^2
M205 X8.00 Y8.00 Z0.40 E1.50 ; sets the jerk limits, mm/sec
M205 S0 T0 ; sets the minimum extruding and travel feed rate, mm/sec
M107
M115 U3.4.0 ; tell printer latest fw version
M83  ; extruder relative mode
M104 S140 ; set extruder to warm-up temp
M140 S80 ; set bed temp
M190 S80 ; wait for bed temp
G28 W ; home all without mesh bed level
G80 ; mesh bed leveling
M104 S250 ; set extruder temp
M109 S250 ; wait for extruder temp
G1 Y-3.0 F1000.0 ; go outside print area
G92 E0.0
G1 X60.0 E9.0  F1000.0 ; intro line
M73 Q0 S182
M73 P0 R180
G1 X100.0 E12.5  F1000.0 ; intro line
G92 E0.0
M221 S95
M900 K45; Filament gcode
G21 ; set units to millimeters
G90 ; use absolute coordinates
M83 ; use relative distances for extrusion
;BEFORE_LAYER_CHANGE
G92 E0.0
;0.2


G1 E-0.80000 F2100.00000
G1 Z0.600 F10800.000
;AFTER_LAYER_CHANGE
;0.2
G1 X131.404 Y78.294
G1 Z0.200
G1 E0.80000 F2100.00000
M204 S20
G1 F1800
G1 X132.312 Y77.300 E0.04222
G1 X132.944 Y76.869 E0.02397
G1 X133.638 Y76.550 E0.02397
G1 X134.376 Y76.351 E0.02397
G1 X135.137 Y76.277 E0.02397
G1 X215.197 Y76.277 E2.51020
G1 X215.917 Y76.335 E0.02265
G1 X216.619 Y76.506 E0.02265
G1 X217.285 Y76.785 E0.02265
G1 X217.899 Y77.167 E0.02265
G1 X218.445 Y77.640 E0.02265
G1 X218.909 Y78.193 E0.02265
G1 X219.281 Y78.813 E0.02265
G1 X219.550 Y79.483 E0.02265
G1 X228.554 Y119.089 E1.27352
G1 X228.600 Y150.602 E0.98806
G1 X228.455 Y151.550 E0.03007
G1 X228.116 Y152.447 E0.03007
G1 X227.596 Y153.253 E0.03007
G1 X226.920 Y153.933 E0.03007
G1 X226.289 Y154.364 E0.02397
G1 X225.589 Y154.686 E0.02414
G1 X224.851 Y154.884 E0.02397
G1 X224.084 Y154.956 E0.02414
G1 X124.013 Y154.957 E3.13767
G1 X123.013 Y154.840 E0.03155
G1 X122.069 Y154.510 E0.03138
G1 X121.214 Y153.978 E0.03155
G1 X120.497 Y153.272 E0.03155
G1 X120.077 Y152.659 E0.02331
G1 X119.759 Y151.981 E0.02348
G1 X119.558 Y151.265 E0.02331
G1 X119.475 Y150.521 E0.02348
G1 X119.474 Y119.764 E0.96435
G1 X119.527 Y119.070 E0.02183
G1 X130.825 Y79.509 E1.28999
G1 X131.378 Y78.348 E0.04034
M204 S1000
G1 X131.715 Y78.508 F10800.000
M204 S20
G1 F1800
G1 X132.559 Y77.585 E0.03921
G1 X133.135 Y77.194 E0.02185
G1 X133.773 Y76.902 E0.02201
G1 X134.452 Y76.720 E0.02201
G1 X135.145 Y76.655 E0.02185
G1 X215.197 Y76.654 E2.50995
G1 X215.861 Y76.708 E0.02090
G1 X216.509 Y76.867 E0.02090
G1 X217.118 Y77.124 E0.02075
G1 X217.684 Y77.477 E0.02090
G1 X218.183 Y77.911 E0.02075
G1 X218.610 Y78.423 E0.02090
G1 X218.951 Y78.996 E0.02090
G1 X219.196 Y79.616 E0.02090
G1 X228.182 Y119.149 E1.27115
G1 X228.224 Y150.573 E0.98528
G1 X228.093 Y151.446 E0.02769
G1 X227.779 Y152.277 E0.02785
G1 X227.300 Y153.020 E0.02769
G1 X226.673 Y153.648 E0.02785
G1 X226.092 Y154.042 E0.02201
G1 X225.453 Y154.334 E0.02201
G1 X224.775 Y154.515 E0.02201
G1 X224.076 Y154.579 E0.02201
G1 X124.014 Y154.580 E3.13737
G1 X123.097 Y154.472 E0.02895
G1 X122.225 Y154.167 E0.02895
G1 X121.442 Y153.677 E0.02895
G1 X120.782 Y153.025 E0.02911
G1 X120.398 Y152.461 E0.02138
G1 X120.109 Y151.838 E0.02154
G1 X119.926 Y151.181 E0.02138
G1 X119.852 Y150.499 E0.02154
G1 X119.901 Y119.125 E0.98370
G1 X131.185 Y79.621 E1.28815
G1 X131.689 Y78.563 E0.03677
M204 S1000
; PURGING FINISHED
G1 F8640
G1 X132.559 Y77.585 E-0.30203
G1 X133.135 Y77.194 E-0.16093
G1 X133.773 Y76.902 E-0.16209
G1 X134.338 Y76.751 E-0.13495
G1 E-0.04000 F2100.00000
G1 Z0.800 F10800.000
G1 X135.879 Y81.530
G1 Z0.200
G1 E0.80000 F2100.00000
M204 S20
G1 F1800
G1 X214.504 Y81.530 E2.46526
G1 X214.504 Y83.656 E0.06665
G1 X212.504 Y83.656 E0.06271
G1 X212.504 Y87.156 E0.10974
G1 X137.879 Y87.156 E2.33984
G1 X137.879 Y83.656 E0.10974
G1 X135.879 Y83.656 E0.06271
G1 X135.879 Y81.590 E0.06477
M204 S1000
G1 F8640
G1 X139.170 Y81.587 E-0.76000
G1 E-0.04000 F2100.00000
G1 Z0.800 F10800.000
G1 X212.881 Y84.033
G1 Z0.200
G1 E0.80000 F2100.00000
M204 S20
G1 F1800
G1 X212.881 Y87.533 E0.10974
G1 X137.501 Y87.533 E2.36349
G1 X137.501 Y84.033 E0.10974
G1 X135.501 Y84.033 E0.06271
G1 X135.501 Y81.153 E0.09030
G1 X214.881 Y81.153 E2.48890
G1 X214.881 Y84.033 E0.09030
G1 X212.941 Y84.033 E0.06083
M204 S1000
G1 X212.502 Y84.159 F10800.000
G1 F8640
G1 X212.885 Y87.324 E-0.76000
G1 E-0.04000 F2100.00000
G1 Z0.800 F10800.000
G1 X214.391 Y82.408
G1 Z0.200
G1 E0.80000 F2100.00000
M204 S20
G1 F1800
G1 X213.796 Y81.813 E0.02649
G1 X213.261 Y81.813 E0.01684
G1 X214.222 Y82.773 E0.04275
G1 X214.222 Y83.309 E0.01684
G1 X212.726 Y81.813 E0.06656
G1 X212.191 Y81.813 E0.01684
G1 X213.751 Y83.373 E0.06943
G1 X213.216 Y83.373 E0.01684
G1 X211.655 Y81.813 E0.06943
G1 X211.120 Y81.813 E0.01684
G1 X212.681 Y83.373 E0.06943
G1 X212.222 Y83.373 E0.01444
G1 X212.222 Y83.449 E0.00240
G1 X210.585 Y81.813 E0.07282
G1 X210.050 Y81.813 E0.01684
G1 X212.222 Y83.984 E0.09663
G1 X212.222 Y84.519 E0.01684
G1 X209.515 Y81.813 E0.12044
G1 X208.980 Y81.813 E0.01684
G1 X212.222 Y85.055 E0.14425
G1 X212.222 Y85.590 E0.01684
G1 X208.445 Y81.813 E0.16806
G1 X207.910 Y81.813 E0.01684
G1 X212.222 Y86.125 E0.19187
G1 X212.222 Y86.660 E0.01684
G1 X207.374 Y81.813 E0.21568
G1 X206.839 Y81.813 E0.01684
G1 X211.900 Y86.873 E0.22516
G1 X211.364 Y86.873 E0.01684
G1 X206.304 Y81.813 E0.22516
G1 X205.769 Y81.813 E0.01684
G1 X210.829 Y86.873 E0.22516
G1 X210.294 Y86.873 E0.01684
G1 X205.234 Y81.813 E0.22516
G1 X204.699 Y81.813 E0.01684
G1 X209.759 Y86.873 E0.22516
G1 X209.224 Y86.873 E0.01684
G1 X204.164 Y81.813 E0.22516
G1 X203.628 Y81.813 E0.01684
G1 X208.689 Y86.873 E0.22516
G1 X208.154 Y86.873 E0.01684
G1 X203.093 Y81.813 E0.22516
G1 X202.558 Y81.813 E0.01684
G1 X207.618 Y86.873 E0.22516
G1 X207.083 Y86.873 E0.01684
G1 X202.023 Y81.813 E0.22516
G1 X201.488 Y81.813 E0.01684
G1 X206.548 Y86.873 E0.22516
G1 X206.013 Y86.873 E0.01684
G1 X200.953 Y81.813 E0.22516
M73 Q0 S181
M73 P0 R179
G1 X200.418 Y81.813 E0.01684
G1 X205.478 Y86.873 E0.22516
G1 X204.943 Y86.873 E0.01684
G1 X199.883 Y81.813 E0.22516
G1 X199.347 Y81.813 E0.01684
G1 X204.408 Y86.873 E0.22516
G1 X203.873 Y86.873 E0.01684
G1 X198.812 Y81.813 E0.22516
G1 X198.277 Y81.813 E0.01684
G1 X203.337 Y86.873 E0.22516
G1 X202.802 Y86.873 E0.01684
G1 X197.742 Y81.813 E0.22516
G1 X197.207 Y81.813 E0.01684
G1 X202.267 Y86.873 E0.22516
G1 X201.732 Y86.873 E0.01684
G1 X196.672 Y81.813 E0.22516
G1 X196.137 Y81.813 E0.01684
G1 X201.197 Y86.873 E0.22516
G1 X200.662 Y86.873 E0.01684
G1 X195.602 Y81.813 E0.22516
G1 X195.066 Y81.813 E0.01684
G1 X200.127 Y86.873 E0.22516
G1 X199.592 Y86.873 E0.01684
G1 X194.531 Y81.813 E0.22516
G1 X193.996 Y81.813 E0.01684
G1 X199.056 Y86.873 E0.22516
G1 X198.521 Y86.873 E0.01684
G1 X193.461 Y81.813 E0.22516
G1 X192.926 Y81.813 E0.01684
G1 X197.986 Y86.873 E0.22516
G1 X197.451 Y86.873 E0.01684
G1 X192.391 Y81.813 E0.22516
G1 X191.856 Y81.813 E0.01684
G1 X196.916 Y86.873 E0.22516
G1 X196.381 Y86.873 E0.01684
G1 X191.321 Y81.813 E0.22516
G1 X190.785 Y81.813 E0.01684
G1 X195.846 Y86.873 E0.22516
G1 X195.311 Y86.873 E0.01684
G1 X190.250 Y81.813 E0.22516
G1 X189.715 Y81.813 E0.01684
G1 X194.775 Y86.873 E0.22516
G1 X194.240 Y86.873 E0.01684
G1 X189.180 Y81.813 E0.22516
G1 X188.645 Y81.813 E0.01684
G1 X193.705 Y86.873 E0.22516
G1 X193.170 Y86.873 E0.01684
G1 X188.110 Y81.813 E0.22516
G1 X187.575 Y81.813 E0.01684
G1 X192.635 Y86.873 E0.22516
G1 X192.100 Y86.873 E0.01684
G1 X187.039 Y81.813 E0.22516
G1 X186.504 Y81.813 E0.01684
G1 X191.565 Y86.873 E0.22516
G1 X191.030 Y86.873 E0.01684
G1 X185.969 Y81.813 E0.22516
G1 X185.434 Y81.813 E0.01684
G1 X190.494 Y86.873 E0.22516
G1 X189.959 Y86.873 E0.01684
G1 X184.899 Y81.813 E0.22516
G1 X184.364 Y81.813 E0.01684
G1 X189.424 Y86.873 E0.22516
G1 X188.889 Y86.873 E0.01684
G1 X183.829 Y81.813 E0.22516
G1 X183.294 Y81.813 E0.01684
G1 X188.354 Y86.873 E0.22516
G1 X187.819 Y86.873 E0.01684
G1 X182.758 Y81.813 E0.22516
G1 X182.223 Y81.813 E0.01684
G1 X187.284 Y86.873 E0.22516
G1 X186.748 Y86.873 E0.01684
G1 X181.688 Y81.813 E0.22516
G1 X181.153 Y81.813 E0.01684
G1 X186.213 Y86.873 E0.22516
G1 X185.678 Y86.873 E0.01684
G1 X180.618 Y81.813 E0.22516
G1 X180.083 Y81.813 E0.01684
G1 X185.143 Y86.873 E0.22516
G1 X184.608 Y86.873 E0.01684
G1 X179.548 Y81.813 E0.22516
G1 X179.013 Y81.813 E0.01684
G1 X184.073 Y86.873 E0.22516
G1 X183.538 Y86.873 E0.01684
G1 X178.477 Y81.813 E0.22516
G1 X177.942 Y81.813 E0.01684
G1 X183.003 Y86.873 E0.22516
G1 X182.467 Y86.873 E0.01684
G1 X177.407 Y81.813 E0.22516
G1 X176.872 Y81.813 E0.01684
G1 X181.932 Y86.873 E0.22516
G1 X181.397 Y86.873 E0.01684
G1 X176.337 Y81.813 E0.22516
G1 X175.802 Y81.813 E0.01684
G1 X180.862 Y86.873 E0.22516
G1 X180.327 Y86.873 E0.01684
G1 X175.267 Y81.813 E0.22516
G1 X174.732 Y81.813 E0.01684
G1 X179.792 Y86.873 E0.22516
G1 X179.257 Y86.873 E0.01684
G1 X174.196 Y81.813 E0.22516
G1 X173.661 Y81.813 E0.01684
G1 X178.722 Y86.873 E0.22516
G1 X178.186 Y86.873 E0.01684
G1 X173.126 Y81.813 E0.22516
G1 X172.591 Y81.813 E0.01684
G1 X177.651 Y86.873 E0.22516
G1 X177.116 Y86.873 E0.01684
G1 X172.056 Y81.813 E0.22516
G1 X171.521 Y81.813 E0.01684
G1 X176.581 Y86.873 E0.22516
G1 X176.046 Y86.873 E0.01684
G1 X170.986 Y81.813 E0.22516
G1 X170.451 Y81.813 E0.01684
G1 X175.511 Y86.873 E0.22516
G1 X174.976 Y86.873 E0.01684
G1 X169.915 Y81.813 E0.22516
G1 X169.380 Y81.813 E0.01684
G1 X174.441 Y86.873 E0.22516
G1 X173.905 Y86.873 E0.01684
G1 X168.845 Y81.813 E0.22516
G1 X168.310 Y81.813 E0.01684
G1 X173.370 Y86.873 E0.22516
G1 X172.835 Y86.873 E0.01684
G1 X167.775 Y81.813 E0.22516
G1 X167.240 Y81.813 E0.01684
G1 X172.300 Y86.873 E0.22516
G1 X171.765 Y86.873 E0.01684
G1 X166.705 Y81.813 E0.22516
G1 X166.169 Y81.813 E0.01684
G1 X171.230 Y86.873 E0.22516
G1 X170.695 Y86.873 E0.01684
G1 X165.634 Y81.813 E0.22516
G1 X165.099 Y81.813 E0.01684
G1 X170.159 Y86.873 E0.22516
G1 X169.624 Y86.873 E0.01684
G1 X164.564 Y81.813 E0.22516
G1 X164.029 Y81.813 E0.01684
G1 X169.089 Y86.873 E0.22516
G1 X168.554 Y86.873 E0.01684
G1 X163.494 Y81.813 E0.22516
G1 X162.959 Y81.813 E0.01684
G1 X168.019 Y86.873 E0.22516
G1 X167.484 Y86.873 E0.01684
G1 X162.424 Y81.813 E0.22516
G1 X161.888 Y81.813 E0.01684
G1 X166.949 Y86.873 E0.22516
G1 X166.414 Y86.873 E0.01684
G1 X161.353 Y81.813 E0.22516
G1 X160.818 Y81.813 E0.01684
G1 X165.878 Y86.873 E0.22516
G1 X165.343 Y86.873 E0.01684
G1 X160.283 Y81.813 E0.22516
G1 X159.748 Y81.813 E0.01684
G1 X164.808 Y86.873 E0.22516
G1 X164.273 Y86.873 E0.01684
G1 X159.213 Y81.813 E0.22516
G1 X158.678 Y81.813 E0.01684
G1 X163.738 Y86.873 E0.22516
G1 X163.203 Y86.873 E0.01684
G1 X158.143 Y81.813 E0.22516
G1 X157.607 Y81.813 E0.01684
G1 X162.668 Y86.873 E0.22516
G1 X162.133 Y86.873 E0.01684
G1 X157.072 Y81.813 E0.22516
G1 X156.537 Y81.813 E0.01684
G1 X161.597 Y86.873 E0.22516
G1 X161.062 Y86.873 E0.01684
G1 X156.002 Y81.813 E0.22516
G1 X155.467 Y81.813 E0.01684
G1 X160.527 Y86.873 E0.22516
G1 X159.992 Y86.873 E0.01684
G1 X154.932 Y81.813 E0.22516
G1 X154.397 Y81.813 E0.01684
G1 X159.457 Y86.873 E0.22516
G1 X158.922 Y86.873 E0.01684
G1 X153.862 Y81.813 E0.22516
G1 X153.326 Y81.813 E0.01684
G1 X158.387 Y86.873 E0.22516
G1 X157.852 Y86.873 E0.01684
G1 X152.791 Y81.813 E0.22516
G1 X152.256 Y81.813 E0.01684
G1 X157.316 Y86.873 E0.22516
G1 X156.781 Y86.873 E0.01684
G1 X151.721 Y81.813 E0.22516
M73 Q1 S180
M73 P1 R178
G1 X151.186 Y81.813 E0.01684
G1 X156.246 Y86.873 E0.22516
G1 X155.711 Y86.873 E0.01684
G1 X150.651 Y81.813 E0.22516
G1 X150.116 Y81.813 E0.01684
G1 X155.176 Y86.873 E0.22516
G1 X154.641 Y86.873 E0.01684
G1 X149.581 Y81.813 E0.22516
G1 X149.045 Y81.813 E0.01684
G1 X154.106 Y86.873 E0.22516
G1 X153.571 Y86.873 E0.01684
G1 X148.510 Y81.813 E0.22516
G1 X147.975 Y81.813 E0.01684
G1 X153.035 Y86.873 E0.22516
G1 X152.500 Y86.873 E0.01684
G1 X147.440 Y81.813 E0.22516
G1 X146.905 Y81.813 E0.01684
G1 X151.965 Y86.873 E0.22516
G1 X151.430 Y86.873 E0.01684
G1 X146.370 Y81.813 E0.22516
G1 X145.835 Y81.813 E0.01684
G1 X150.895 Y86.873 E0.22516
G1 X150.360 Y86.873 E0.01684
G1 X145.299 Y81.813 E0.22516
G1 X144.764 Y81.813 E0.01684
G1 X149.825 Y86.873 E0.22516
G1 X149.289 Y86.873 E0.01684
G1 X144.229 Y81.813 E0.22516
G1 X143.694 Y81.813 E0.01684
G1 X148.754 Y86.873 E0.22516
G1 X148.219 Y86.873 E0.01684
G1 X143.159 Y81.813 E0.22516
G1 X142.624 Y81.813 E0.01684
G1 X147.684 Y86.873 E0.22516
G1 X147.149 Y86.873 E0.01684
G1 X142.089 Y81.813 E0.22516
G1 X141.554 Y81.813 E0.01684
G1 X146.614 Y86.873 E0.22516
G1 X146.079 Y86.873 E0.01684
G1 X141.018 Y81.813 E0.22516
G1 X140.483 Y81.813 E0.01684
G1 X145.544 Y86.873 E0.22516
G1 X145.008 Y86.873 E0.01684
G1 X139.948 Y81.813 E0.22516
G1 X139.413 Y81.813 E0.01684
G1 X144.473 Y86.873 E0.22516
G1 X143.938 Y86.873 E0.01684
G1 X138.878 Y81.813 E0.22516
G1 X138.343 Y81.813 E0.01684
G1 X143.403 Y86.873 E0.22516
G1 X142.868 Y86.873 E0.01684
G1 X137.808 Y81.813 E0.22516
G1 X137.273 Y81.813 E0.01684
G1 X142.333 Y86.873 E0.22516
G1 X141.798 Y86.873 E0.01684
G1 X136.737 Y81.813 E0.22516
G1 X136.202 Y81.813 E0.01684
G1 X137.763 Y83.373 E0.06943
G1 X137.227 Y83.373 E0.01684
G1 X136.161 Y82.307 E0.04744
G1 X136.161 Y82.842 E0.01684
G1 X136.862 Y83.543 E0.03118
M204 S1000
G1 F8640
G1 X136.161 Y82.842 E-0.22879
G1 X136.161 Y82.307 E-0.12356
G1 X137.227 Y83.373 E-0.34813
G1 X137.485 Y83.373 E-0.05952
G1 E-0.04000 F2100.00000
G1 Z0.800 F10800.000
G1 X138.757 Y87.043
G1 Z0.200
G1 E0.80000 F2100.00000
M204 S20
G1 F1800
G1 X138.161 Y86.447 E0.02649
G1 X138.161 Y85.912 E0.01684
G1 X139.122 Y86.873 E0.04275
G1 X139.657 Y86.873 E0.01684
G1 X138.161 Y85.377 E0.06656
G1 X138.161 Y84.842 E0.01684
G1 X140.192 Y86.873 E0.09037
G1 X140.727 Y86.873 E0.01684
G1 X138.161 Y84.307 E0.11418
G1 X138.161 Y83.772 E0.01684
G1 X141.432 Y87.043 E0.14554
M204 S1000
G1 F8640
G1 X139.105 Y84.715 E-0.76000
G1 E-0.04000 F2100.00000
G1 Z0.800 F10800.000
G1 X214.926 Y147.978
G1 Z0.200
G1 E0.80000 F2100.00000
M204 S20
G1 F1800
G1 X214.926 Y142.704 E0.16537
G1 X133.152 Y142.704 E2.56397
G1 X133.152 Y147.978 E0.16537
G1 X135.152 Y147.978 E0.06271
G1 X135.152 Y149.704 E0.05411
G1 X124.726 Y149.704 E0.32690
G1 X124.726 Y120.457 E0.91703
G1 X223.352 Y120.457 E3.09234
G1 X223.352 Y149.704 E0.91703
G1 X212.926 Y149.704 E0.32690
G1 X212.926 Y147.978 E0.05411
G1 X214.866 Y147.978 E0.06083
M204 S1000
G1 X214.549 Y147.601 F10800.000
M204 S20
G1 F1800
G1 X214.549 Y143.081 E0.14172
G1 X133.529 Y143.081 E2.54033
G1 X133.529 Y147.601 E0.14172
G1 X135.529 Y147.601 E0.06271
G1 X135.529 Y150.081 E0.07776
G1 X124.349 Y150.081 E0.35054
G1 X124.349 Y120.079 E0.94068
G1 X223.729 Y120.079 E3.11599
G1 X223.729 Y150.081 E0.94068
G1 X212.549 Y150.081 E0.35054
G1 X212.549 Y147.601 E0.07776
G1 X214.489 Y147.601 E0.06083
M204 S1000
G1 X214.932 Y147.484 F10800.000
G1 F8640
G1 X214.533 Y144.310 E-0.76000
G1 E-0.04000 F2100.00000
G1 Z0.800 F10800.000
G1 X213.622 Y149.591
G1 Z0.200
G1 E0.80000 F2100.00000
M204 S20
G1 F1800
G1 X213.209 Y149.178 E0.01833
G1 X213.209 Y148.644 E0.01673
G1 X213.986 Y149.421 E0.03446
G1 X214.520 Y149.421 E0.01673
G1 X213.359 Y148.261 E0.05147
G1 X213.893 Y148.261 E0.01673
G1 X215.053 Y149.421 E0.05147
G1 X215.586 Y149.421 E0.01673
G1 X214.426 Y148.261 E0.05147
G1 X214.960 Y148.261 E0.01673
G1 X216.120 Y149.421 E0.05147
G1 X216.653 Y149.421 E0.01673
G1 X215.209 Y147.977 E0.06406
G1 X215.209 Y147.444 E0.01673
G1 X217.187 Y149.421 E0.08773
G1 X217.720 Y149.421 E0.01673
G1 X215.209 Y146.910 E0.11139
G1 X215.209 Y146.377 E0.01673
G1 X218.254 Y149.421 E0.13505
G1 X218.787 Y149.421 E0.01673
G1 X215.209 Y145.843 E0.15871
G1 X215.209 Y145.310 E0.01673
G1 X219.321 Y149.421 E0.18238
G1 X219.854 Y149.421 E0.01673
G1 X215.209 Y144.776 E0.20604
G1 X215.209 Y144.243 E0.01673
G1 X220.388 Y149.421 E0.22970
G1 X220.921 Y149.421 E0.01673
