; generated by Slic3r Prusa Edition 1.41.2 on 2019-02-16 at 21:21:42

; 

; external perimeters extrusion width = 0.45mm
; perimeters extrusion width = 0.45mm
; infill extrusion width = 0.45mm
; solid infill extrusion width = 0.45mm
; top infill extrusion width = 0.40mm
; support material extrusion width = 0.35mm
; first layer extrusion width = 0.42mm

M73 P0 R71
M73 Q0 S72
M201 X1000 Y1000 Z1000 E5000 ; sets maximum accelerations, mm/sec^2
M203 X200 Y200 Z12 E120 ; sets maximum feedrates, mm/sec
M204 P1250 R1250 T1250 ; sets acceleration (P, T) and retract acceleration (R), mm/sec^2
M205 X8.00 Y8.00 Z0.40 E1.50 ; sets the jerk limits, mm/sec
M205 S0 T0 ; sets the minimum extruding and travel feed rate, mm/sec
M107
M115 U3.4.0 ; tell printer latest fw version
M83  ; extruder relative mode
M104 S140 ; set extruder to warm-up temp
M140 S80 ; set bed temp
M190 S80 ; wait for bed temp
G28 W ; home all without mesh bed level
G80 ; mesh bed leveling
M104 S250 ; set extruder temp
M109 S250 ; wait for extruder temp
G1 Y-3.0 F1000.0 ; go outside print area
G92 E0.0
G1 X60.0 E9.0  F1000.0 ; intro line
M73 Q0 S72
M73 P0 R71
G1 X100.0 E12.5  F1000.0 ; intro line
G92 E0.0
M221 S95
M900 K45; Filament gcode
G21 ; set units to millimeters
G90 ; use absolute coordinates
M83 ; use relative distances for extrusion
;BEFORE_LAYER_CHANGE
G92 E0.0
;0.2


G1 E-0.80000 F2100.00000
G1 Z0.600 F10800.000
;AFTER_LAYER_CHANGE
;0.2
G1 X139.175 Y89.780
G1 Z0.200
G1 E0.80000 F2100.00000
M204 S20
G1 F1800
G1 X139.626 Y88.904 E0.03089
G1 X151.600 Y71.203 E0.67004
G1 X152.449 Y70.275 E0.03943
G1 X153.013 Y69.876 E0.02166
G1 X153.630 Y69.567 E0.02166
G1 X154.288 Y69.354 E0.02166
G1 X154.975 Y69.242 E0.02183
G1 X164.866 Y69.226 E0.31013
G1 X165.716 Y69.307 E0.02677
G1 X166.531 Y69.543 E0.02661
G1 X167.293 Y69.928 E0.02677
G1 X167.970 Y70.449 E0.02677
G1 X168.538 Y71.086 E0.02677
G1 X168.978 Y71.818 E0.02677
G1 X169.273 Y72.620 E0.02677
G1 X169.414 Y73.462 E0.02677
G1 X169.426 Y130.797 E1.79771
G1 X169.373 Y131.486 E0.02166
G1 X168.986 Y132.748 E0.04140
G1 X168.250 Y133.851 E0.04156
G1 X167.228 Y134.695 E0.04156
G1 X166.007 Y135.211 E0.04156
G1 X164.895 Y135.357 E0.03517
G1 X155.334 Y135.357 E0.29978
G1 X154.661 Y135.303 E0.02117
G1 X153.823 Y135.091 E0.02710
G1 X153.041 Y134.724 E0.02710
G1 X152.341 Y134.216 E0.02710
G1 X151.746 Y133.582 E0.02727
G1 X139.671 Y116.253 E0.66223
G1 X139.130 Y115.188 E0.03746
G1 X138.939 Y114.459 E0.02364
G1 X138.870 Y113.708 E0.02364
G1 X138.870 Y91.410 E0.69912
G1 X138.923 Y90.727 E0.02150
G1 X139.160 Y89.838 E0.02885
M204 S1000
G1 X139.297 Y90.776 F10800.000
M204 S20
G1 F1800
G1 X139.530 Y89.909 E0.02816
G1 X139.945 Y89.106 E0.02832
G1 X151.908 Y71.420 E0.66950
G1 X152.691 Y70.564 E0.03635
G1 X153.784 Y69.911 E0.03995
G1 X155.029 Y69.616 E0.04011
G1 X164.866 Y69.603 E0.30841
G1 X165.645 Y69.677 E0.02454
G1 X166.401 Y69.897 E0.02469
G1 X167.099 Y70.251 E0.02454
G1 X167.722 Y70.733 E0.02469
G1 X168.241 Y71.319 E0.02454
G1 X168.644 Y71.995 E0.02469
G1 X168.914 Y72.735 E0.02469
G1 X169.040 Y73.513 E0.02469
G1 X169.000 Y131.431 E1.81600
G1 X168.638 Y132.601 E0.03839
G1 X167.950 Y133.620 E0.03854
G1 X166.996 Y134.395 E0.03854
G1 X165.858 Y134.860 E0.03854
G1 X164.887 Y134.980 E0.03069
G1 X154.716 Y134.930 E0.31891
G1 X153.943 Y134.733 E0.02501
G1 X153.222 Y134.393 E0.02501
G1 X152.578 Y133.922 E0.02501
G1 X152.035 Y133.338 E0.02501
G1 X139.981 Y116.039 E0.66108
G1 X139.481 Y115.049 E0.03477
G1 X139.308 Y114.384 E0.02154
G1 X139.247 Y113.700 E0.02154
G1 X139.297 Y90.836 E0.71688
M204 S1000
; PURGING FINISHED
G1 F8640
G1 X139.530 Y89.909 E-0.22083
G1 X139.945 Y89.106 E-0.20857
G1 X140.747 Y87.920 E-0.33060
G1 E-0.04000 F2100.00000
G1 Z0.800 F10800.000
G1 X143.436 Y91.421
G1 Z0.200
G1 E0.80000 F2100.00000
M204 S20
G1 F1800
G1 X143.436 Y113.670 E0.69760
G1 X144.190 Y113.670 E0.02365
G1 X144.190 Y91.590 E0.69228
G1 X144.944 Y91.590 E0.02365
G1 X144.944 Y113.670 E0.69228
G1 X145.698 Y113.670 E0.02365
G1 X145.698 Y91.590 E0.69228
G1 X146.452 Y91.590 E0.02365
G1 X146.452 Y113.670 E0.69228
G1 X147.206 Y113.670 E0.02365
G1 X147.206 Y91.590 E0.69228
G1 X147.961 Y91.590 E0.02365
G1 X147.961 Y113.670 E0.69228
G1 X148.715 Y113.670 E0.02365
G1 X148.715 Y91.590 E0.69228
G1 X149.469 Y91.590 E0.02365
G1 X149.469 Y113.670 E0.69228
G1 X150.223 Y113.670 E0.02365
G1 X150.223 Y91.590 E0.69228
G1 X150.977 Y91.590 E0.02365
G1 X150.977 Y113.670 E0.69228
G1 X151.731 Y113.670 E0.02365
G1 X151.731 Y91.590 E0.69228
G1 X151.917 Y91.590 E0.00582
G1 X151.917 Y89.283 E0.07234
G1 X152.485 Y89.283 E0.01783
G1 X152.485 Y115.977 E0.83696
G1 X153.240 Y115.977 E0.02365
G1 X153.240 Y89.283 E0.83696
G1 X153.994 Y89.283 E0.02365
G1 X153.994 Y115.977 E0.83696
G1 X154.748 Y115.977 E0.02365
G1 X154.748 Y89.283 E0.83696
G1 X155.002 Y89.283 E0.00796
G1 X155.002 Y93.182 E0.12223
G1 X155.271 Y93.450 E0.01191
G1 X155.502 Y93.450 E0.00726
G1 X155.502 Y111.303 E0.55976
M204 S1000
G1 X162.290 Y111.303 F10800.000
M204 S20
G1 F1800
G1 X162.290 Y105.433 E0.18405
G1 X161.535 Y105.433 E0.02365
G1 X161.535 Y111.133 E0.17873
G1 X160.781 Y111.133 E0.02365
G1 X160.781 Y105.433 E0.17873
G1 X160.027 Y105.433 E0.02365
G1 X160.027 Y111.133 E0.17873
G1 X159.273 Y111.133 E0.02365
G1 X159.273 Y105.433 E0.17873
G1 X158.519 Y105.433 E0.02365
G1 X158.519 Y111.133 E0.17873
G1 X157.765 Y111.133 E0.02365
G1 X157.765 Y105.433 E0.17873
G1 X157.010 Y105.433 E0.02365
G1 X157.010 Y111.133 E0.17873
G1 X156.256 Y111.133 E0.02365
G1 X156.256 Y105.433 E0.17873
G1 X155.540 Y105.433 E0.02247
G1 X155.540 Y99.827 E0.17576
G1 X156.256 Y99.827 E0.02247
G1 X156.256 Y93.450 E0.19995
G1 X157.010 Y93.450 E0.02365
G1 X157.010 Y99.827 E0.19995
G1 X157.765 Y99.827 E0.02365
G1 X157.765 Y93.450 E0.19995
G1 X158.519 Y93.450 E0.02365
G1 X158.519 Y99.827 E0.19995
G1 X159.273 Y99.827 E0.02365
G1 X159.273 Y93.450 E0.19995
G1 X160.027 Y93.450 E0.02365
G1 X160.027 Y99.827 E0.19995
G1 X160.781 Y99.827 E0.02365
G1 X160.781 Y93.450 E0.19995
G1 X161.535 Y93.450 E0.02365
G1 X161.535 Y99.827 E0.19995
G1 X162.290 Y99.827 E0.02365
G1 X162.290 Y93.281 E0.20527
M204 S1000
G1 F8640
G1 X162.290 Y96.572 E-0.76000
G1 E-0.04000 F2100.00000
G1 Z0.800 F10800.000
G1 X164.173 Y112.179
G1 Z0.200
G1 E0.80000 F2100.00000
M204 S20
G1 F1800
G1 X164.173 Y130.105 E0.56205
G1 X156.048 Y130.105 E0.25478
G1 X156.048 Y112.179 E0.56205
M73 Q1 S71
M73 P1 R70
G1 X164.113 Y112.179 E0.25290
M204 S1000
G1 F8640
G1 X164.124 Y115.470 E-0.76000
G1 E-0.04000 F2100.00000
G1 Z0.800 F10800.000
G1 X164.113 Y92.405
G1 Z0.200
G1 E0.80000 F2100.00000
M204 S20
G1 F1800
G1 X156.048 Y92.405 E0.25290
G1 X156.048 Y74.479 E0.56205
G1 X164.173 Y74.479 E0.25478
G1 X164.173 Y92.405 E0.56205
M204 S1000
G1 F8640
G1 X160.882 Y92.405 E-0.76000
G1 E-0.04000 F2100.00000
G1 Z0.800 F10800.000
G1 X163.671 Y111.802
G1 Z0.200
G1 E0.80000 F2100.00000
M204 S20
G1 F1800
G1 X163.671 Y92.782 E0.59636
G1 X155.671 Y92.782 E0.25083
G1 X155.671 Y74.102 E0.58570
G1 X164.551 Y74.102 E0.27843
G1 X164.551 Y130.482 E1.76776
G1 X155.671 Y130.482 E0.27843
G1 X155.671 Y111.802 E0.58570
G1 X163.611 Y111.802 E0.24895
M204 S1000
G1 X164.041 Y111.650 F10800.000
G1 X164.111 Y111.990
M204 S20
G1 F1800
G1 X164.111 Y92.593 E0.81115
M204 S1000
G1 F8640
G1 X164.111 Y95.885 E-0.76000
G1 E-0.04000 F2100.00000
G1 Z0.800 F10800.000
G1 X156.925 Y92.292
G1 Z0.200
G1 E0.80000 F2100.00000
M204 S20
G1 F1800
G1 X156.330 Y91.697 E0.02646
G1 X156.330 Y91.162 E0.01682
G1 X157.291 Y92.122 E0.04270
G1 X157.825 Y92.122 E0.01682
G1 X156.330 Y90.627 E0.06649
G1 X156.330 Y90.092 E0.01682
G1 X158.360 Y92.122 E0.09028
G1 X158.895 Y92.122 E0.01682
G1 X156.330 Y89.557 E0.11407
G1 X156.330 Y89.022 E0.01682
G1 X159.430 Y92.122 E0.13786
G1 X159.965 Y92.122 E0.01682
G1 X156.330 Y88.487 E0.16165
G1 X156.330 Y87.952 E0.01682
G1 X160.500 Y92.122 E0.18544
G1 X161.035 Y92.122 E0.01682
G1 X156.330 Y87.418 E0.20923
G1 X156.330 Y86.883 E0.01682
G1 X161.570 Y92.122 E0.23302
G1 X162.105 Y92.122 E0.01682
G1 X156.330 Y86.348 E0.25681
G1 X156.330 Y85.813 E0.01682
G1 X162.639 Y92.122 E0.28060
G1 X163.174 Y92.122 E0.01682
G1 X156.330 Y85.278 E0.30439
G1 X156.330 Y84.743 E0.01682
G1 X163.709 Y92.122 E0.32818
G1 X163.891 Y92.122 E0.00571
G1 X163.891 Y91.768 E0.01111
G1 X156.330 Y84.208 E0.33625
G1 X156.330 Y83.673 E0.01682
G1 X163.891 Y91.234 E0.33625
G1 X163.891 Y90.699 E0.01682
G1 X156.330 Y83.138 E0.33625
G1 X156.330 Y82.604 E0.01682
G1 X163.891 Y90.164 E0.33625
G1 X163.891 Y89.629 E0.01682
G1 X156.330 Y82.069 E0.33625
G1 X156.330 Y81.534 E0.01682
G1 X163.891 Y89.094 E0.33625
G1 X163.891 Y88.559 E0.01682
G1 X156.330 Y80.999 E0.33625
G1 X156.330 Y80.464 E0.01682
G1 X163.891 Y88.024 E0.33625
G1 X163.891 Y87.489 E0.01682
G1 X156.330 Y79.929 E0.33625
G1 X156.330 Y79.394 E0.01682
G1 X163.891 Y86.954 E0.33625
G1 X163.891 Y86.420 E0.01682
G1 X156.330 Y78.859 E0.33625
G1 X156.330 Y78.324 E0.01682
G1 X163.891 Y85.885 E0.33625
G1 X163.891 Y85.350 E0.01682
G1 X156.330 Y77.790 E0.33625
G1 X156.330 Y77.255 E0.01682
G1 X163.891 Y84.815 E0.33625
G1 X163.891 Y84.280 E0.01682
G1 X156.330 Y76.720 E0.33625
G1 X156.330 Y76.185 E0.01682
G1 X163.891 Y83.745 E0.33625
G1 X163.891 Y83.210 E0.01682
G1 X156.330 Y75.650 E0.33625
G1 X156.330 Y75.115 E0.01682
G1 X163.891 Y82.675 E0.33625
G1 X163.891 Y82.140 E0.01682
G1 X156.512 Y74.762 E0.32818
G1 X157.047 Y74.762 E0.01682
G1 X163.891 Y81.606 E0.30439
G1 X163.891 Y81.071 E0.01682
G1 X157.582 Y74.762 E0.28060
G1 X158.116 Y74.762 E0.01682
G1 X163.891 Y80.536 E0.25681
G1 X163.891 Y80.001 E0.01682
G1 X158.651 Y74.762 E0.23302
G1 X159.186 Y74.762 E0.01682
G1 X163.891 Y79.466 E0.20923
G1 X163.891 Y78.931 E0.01682
G1 X159.721 Y74.762 E0.18545
G1 X160.256 Y74.762 E0.01682
G1 X163.891 Y78.396 E0.16166
G1 X163.891 Y77.861 E0.01682
G1 X160.791 Y74.762 E0.13787
G1 X161.326 Y74.762 E0.01682
G1 X163.891 Y77.326 E0.11408
G1 X163.891 Y76.792 E0.01682
G1 X161.861 Y74.762 E0.09029
G1 X162.396 Y74.762 E0.01682
G1 X163.891 Y76.257 E0.06650
G1 X163.891 Y75.722 E0.01682
G1 X162.930 Y74.762 E0.04271
G1 X163.465 Y74.762 E0.01682
G1 X164.060 Y75.357 E0.02646
M204 S1000
G1 F8640
G1 X163.465 Y74.762 E-0.19430
G1 X162.930 Y74.762 E-0.12351
G1 X163.891 Y75.722 E-0.31355
G1 X163.891 Y76.257 E-0.12351
G1 X163.875 Y76.241 E-0.00513
G1 E-0.04000 F2100.00000
G1 Z0.800 F10800.000
G1 X164.060 Y113.057
G1 Z0.200
G1 E0.80000 F2100.00000
M204 S20
G1 F1800
G1 X163.465 Y112.462 E0.02646
G1 X162.930 Y112.462 E0.01682
G1 X163.891 Y113.422 E0.04271
G1 X163.891 Y113.957 E0.01682
G1 X162.396 Y112.462 E0.06650
G1 X161.861 Y112.462 E0.01682
G1 X163.891 Y114.492 E0.09029
G1 X163.891 Y115.026 E0.01682
G1 X161.326 Y112.462 E0.11408
G1 X160.791 Y112.462 E0.01682
G1 X163.891 Y115.561 E0.13787
G1 X163.891 Y116.096 E0.01682
G1 X160.256 Y112.462 E0.16166
G1 X159.721 Y112.462 E0.01682
G1 X163.891 Y116.631 E0.18545
G1 X163.891 Y117.166 E0.01682
G1 X159.186 Y112.462 E0.20923
G1 X158.651 Y112.462 E0.01682
G1 X163.891 Y117.701 E0.23302
G1 X163.891 Y118.236 E0.01682
G1 X158.116 Y112.462 E0.25681
G1 X157.582 Y112.462 E0.01682
G1 X163.891 Y118.771 E0.28060
G1 X163.891 Y119.306 E0.01682
G1 X157.047 Y112.462 E0.30439
G1 X156.512 Y112.462 E0.01682
G1 X163.891 Y119.840 E0.32818
G1 X163.891 Y120.375 E0.01682
G1 X156.330 Y112.815 E0.33625
G1 X156.330 Y113.350 E0.01682
G1 X163.891 Y120.910 E0.33625
G1 X163.891 Y121.445 E0.01682
G1 X156.330 Y113.885 E0.33625
M73 Q2 S70
M73 P2 R69
G1 X156.330 Y114.420 E0.01682
G1 X163.891 Y121.980 E0.33625
G1 X163.891 Y122.515 E0.01682
G1 X156.330 Y114.955 E0.33625
G1 X156.330 Y115.490 E0.01682
G1 X163.891 Y123.050 E0.33625
G1 X163.891 Y123.585 E0.01682
G1 X156.330 Y116.024 E0.33625
G1 X156.330 Y116.559 E0.01682
G1 X163.891 Y124.120 E0.33625
G1 X163.891 Y124.654 E0.01682
G1 X156.330 Y117.094 E0.33625
G1 X156.330 Y117.629 E0.01682
G1 X163.891 Y125.189 E0.33625
G1 X163.891 Y125.724 E0.01682
G1 X156.330 Y118.164 E0.33625
G1 X156.330 Y118.699 E0.01682
G1 X163.891 Y126.259 E0.33625
G1 X163.891 Y126.794 E0.01682
G1 X156.330 Y119.234 E0.33625
G1 X156.330 Y119.769 E0.01682
G1 X163.891 Y127.329 E0.33625
G1 X163.891 Y127.864 E0.01682
G1 X156.330 Y120.304 E0.33625
G1 X156.330 Y120.838 E0.01682
G1 X163.891 Y128.399 E0.33625
G1 X163.891 Y128.934 E0.01682
G1 X156.330 Y121.373 E0.33625
G1 X156.330 Y121.908 E0.01682
G1 X163.891 Y129.468 E0.33625
G1 X163.891 Y129.822 E0.01111
G1 X163.709 Y129.822 E0.00571
G1 X156.330 Y122.443 E0.32818
G1 X156.330 Y122.978 E0.01682
G1 X163.174 Y129.822 E0.30439
G1 X162.639 Y129.822 E0.01682
G1 X156.330 Y123.513 E0.28060
G1 X156.330 Y124.048 E0.01682
G1 X162.105 Y129.822 E0.25681
G1 X161.570 Y129.822 E0.01682
G1 X156.330 Y124.583 E0.23302
G1 X156.330 Y125.117 E0.01682
G1 X161.035 Y129.822 E0.20923
G1 X160.500 Y129.822 E0.01682
G1 X156.330 Y125.652 E0.18544
G1 X156.330 Y126.187 E0.01682
G1 X159.965 Y129.822 E0.16165
G1 X159.430 Y129.822 E0.01682
G1 X156.330 Y126.722 E0.13786
G1 X156.330 Y127.257 E0.01682
G1 X158.895 Y129.822 E0.11407
G1 X158.360 Y129.822 E0.01682
G1 X156.330 Y127.792 E0.09028
G1 X156.330 Y128.327 E0.01682
G1 X157.825 Y129.822 E0.06649
G1 X157.291 Y129.822 E0.01682
G1 X156.330 Y128.862 E0.04270
G1 X156.330 Y129.397 E0.01682
G1 X156.925 Y129.992 E0.02646
M204 S1000
;BEFORE_LAYER_CHANGE
G92 E0.0
;0.4


G1 F8640
G1 X156.330 Y129.397 E-0.19427
G1 X156.330 Y128.862 E-0.12351
G1 X157.291 Y129.822 E-0.31353
G1 X157.825 Y129.822 E-0.12351
G1 X157.810 Y129.806 E-0.00518
G1 E-0.04000 F2100.00000
G1 Z0.800 F10800.000
;AFTER_LAYER_CHANGE
;0.4
M140 S90 ; set bed temperature
G1 X167.228 Y134.695
G1 Z0.400
G1 E0.80000 F2100.00000
G1 F3000
G1 X166.007 Y135.211 E0.04156
G1 X164.895 Y135.357 E0.03517
G1 X155.334 Y135.357 E0.29978
G1 X154.661 Y135.303 E0.02117
G1 X153.823 Y135.091 E0.02710
G1 X153.041 Y134.724 E0.02710
G1 X152.341 Y134.216 E0.02710
G1 X151.746 Y133.582 E0.02727
G1 X139.671 Y116.253 E0.66223
G1 X139.130 Y115.188 E0.03746
G1 X138.939 Y114.459 E0.02364
G1 X138.870 Y113.708 E0.02364
G1 X138.870 Y91.410 E0.69912
G1 X138.923 Y90.727 E0.02150
G1 X139.175 Y89.780 E0.03073
G1 X139.626 Y88.904 E0.03089
G1 X151.600 Y71.203 E0.67004
G1 X152.449 Y70.275 E0.03943
G1 X153.013 Y69.876 E0.02166
G1 X153.630 Y69.567 E0.02166
G1 X154.288 Y69.354 E0.02166
G1 X154.975 Y69.242 E0.02183
G1 X164.866 Y69.226 E0.31013
G1 X165.716 Y69.307 E0.02677
G1 X166.531 Y69.543 E0.02661
G1 X167.293 Y69.928 E0.02677
G1 X167.970 Y70.449 E0.02677
G1 X168.538 Y71.086 E0.02677
G1 X168.978 Y71.818 E0.02677
G1 X169.273 Y72.620 E0.02677
G1 X169.414 Y73.462 E0.02677
G1 X169.426 Y130.797 E1.79771
G1 X169.373 Y131.486 E0.02166
G1 X168.986 Y132.748 E0.04140
G1 X168.250 Y133.851 E0.04156
G1 X167.275 Y134.657 E0.03968
G1 X167.036 Y134.363 F10800.000
G1 F3000
G1 X166.996 Y134.395 E0.00159
G1 X165.858 Y134.860 E0.03854
G1 X164.887 Y134.980 E0.03069
G1 X154.716 Y134.930 E0.31891
G1 X153.943 Y134.733 E0.02501
G1 X153.222 Y134.393 E0.02501
G1 X152.578 Y133.922 E0.02501
G1 X152.035 Y133.338 E0.02501
G1 X139.981 Y116.039 E0.66108
G1 X139.481 Y115.049 E0.03477
G1 X139.308 Y114.384 E0.02154
G1 X139.247 Y113.700 E0.02154
G1 X139.297 Y90.776 E0.71876
G1 X139.530 Y89.909 E0.02816
G1 X139.945 Y89.106 E0.02832
G1 X151.908 Y71.420 E0.66950
G1 X152.691 Y70.564 E0.03635
G1 X153.784 Y69.911 E0.03995
G1 X155.029 Y69.616 E0.04011
G1 X164.866 Y69.603 E0.30841
G1 X165.645 Y69.677 E0.02454
G1 X166.401 Y69.897 E0.02469
G1 X167.099 Y70.251 E0.02454
G1 X167.722 Y70.733 E0.02469
G1 X168.241 Y71.319 E0.02454
G1 X168.644 Y71.995 E0.02469
G1 X168.914 Y72.735 E0.02469
G1 X169.040 Y73.513 E0.02469
G1 X169.000 Y131.431 E1.81600
G1 X168.638 Y132.601 E0.03839
G1 X167.950 Y133.620 E0.03854
G1 X167.082 Y134.325 E0.03507
; PURGING FINISHED
G1 F8640
G1 X166.996 Y134.395 E-0.02554
G1 X165.858 Y134.860 E-0.28384
G1 X164.887 Y134.980 E-0.22597
G1 X163.914 Y134.975 E-0.22465
G1 E-0.04000 F2100.00000
G1 Z1.000 F10800.000
G1 X164.228 Y130.160
G1 Z0.400
G1 E0.80000 F2100.00000
M204 S800
G1 F2700
G1 X155.993 Y130.160 E0.27877
G1 X155.993 Y112.124 E0.61049
G1 X164.228 Y112.124 E0.27877
G1 X164.228 Y130.100 E0.60846
M204 S1000
G1 F8640
G1 X160.937 Y130.124 E-0.76000
G1 E-0.04000 F2100.00000
G1 Z1.000 F10800.000
