; generated by Slic3r Prusa Edition 1.41.0 on 2018-11-03 at 21:33:23

; 

; external perimeters extrusion width = 0.45mm
; perimeters extrusion width = 0.45mm
; infill extrusion width = 0.45mm
; solid infill extrusion width = 0.45mm
; top infill extrusion width = 0.40mm
; first layer extrusion width = 0.42mm

M201 X1000 Y1000 Z1000 E5000 ; sets maximum accelerations, mm/sec^2
M203 X200 Y200 Z12 E120 ; sets maximum feedrates, mm/sec
M204 P1250 R1250 T1250 ; sets acceleration (P, T) and retract acceleration (R), mm/sec^2
M205 X8.00 Y8.00 Z0.40 E1.50 ; sets the jerk limits, mm/sec
M205 S0 T0 ; sets the minimum extruding and travel feed rate, mm/sec
M107
M115 U3.4.0 ; tell printer latest fw version
M83  ; extruder relative mode
M104 S140 ; set extruder to warm-up temp
M140 S80 ; set bed temp
M190 S80 ; wait for bed temp
G28 W ; home all without mesh bed level
G80 ; mesh bed leveling
M104 S250 ; set extruder temp
M109 S250 ; wait for extruder temp
G1 Y-3.0 F1000.0 ; go outside print area
G92 E0.0
G1 X60.0 E9.0  F1000.0 ; intro line
M73 Q0 S86
M73 P0 R85
G1 X100.0 E12.5  F1000.0 ; intro line
G92 E0.0
M221 S95
M900 K45; Filament gcode
G21 ; set units to millimeters
G90 ; use absolute coordinates
M83 ; use relative distances for extrusion
;BEFORE_LAYER_CHANGE
G92 E0.0
;0.2


G1 E-0.80000 F2100.00000
G1 Z0.600 F10800.000
;AFTER_LAYER_CHANGE
;0.2
G1 X97.235 Y94.667
G1 Z0.200
G1 E0.80000 F2100.00000
M204 S20
G1 F1800
G1 X98.099 Y93.725 E0.04009
G1 X125.168 Y72.169 E1.08498
G1 X126.055 Y71.619 E0.03270
G1 X126.961 Y71.304 E0.03007
G1 X127.912 Y71.185 E0.03007
G1 X149.005 Y71.184 E0.66136
G1 X149.855 Y71.265 E0.02677
G1 X150.680 Y71.505 E0.02694
G1 X151.442 Y71.892 E0.02677
G1 X152.121 Y72.418 E0.02694
G1 X152.687 Y73.057 E0.02677
G1 X153.126 Y73.796 E0.02694
G1 X153.419 Y74.603 E0.02694
G1 X153.556 Y75.446 E0.02677
G1 X153.566 Y134.266 E1.84424
G1 X153.505 Y134.991 E0.02282
G1 X153.332 Y135.692 E0.02265
G1 X152.750 Y136.854 E0.04074
G1 X151.864 Y137.805 E0.04074
G1 X150.747 Y138.468 E0.04074
G1 X149.488 Y138.789 E0.04074
G1 X127.958 Y138.815 E0.67506
G1 X127.249 Y138.753 E0.02232
G1 X126.558 Y138.582 E0.02232
G1 X125.827 Y138.265 E0.02496
G1 X125.167 Y137.830 E0.02480
G1 X98.135 Y116.305 E1.08344
G1 X97.259 Y115.367 E0.04025
G1 X96.666 Y114.187 E0.04140
G1 X96.436 Y112.887 E0.04140
G1 X96.435 Y97.187 E0.49227
G1 X96.498 Y96.488 E0.02199
G1 X96.668 Y95.808 E0.02199
G1 X97.208 Y94.721 E0.03804
M204 S1000
G1 X97.543 Y94.889 F10800.000
M204 S20
G1 F1800
G1 X98.343 Y94.012 E0.03720
G1 X125.403 Y72.464 E1.08458
G1 X126.222 Y71.957 E0.03021
G1 X127.052 Y71.670 E0.02753
G1 X127.929 Y71.562 E0.02769
G1 X149.005 Y71.561 E0.66083
G1 X149.789 Y71.636 E0.02469
G1 X150.545 Y71.857 E0.02469
G1 X151.247 Y72.215 E0.02469
G1 X151.869 Y72.698 E0.02469
G1 X152.389 Y73.289 E0.02469
G1 X152.790 Y73.967 E0.02469
G1 X153.057 Y74.708 E0.02469
G1 X153.181 Y75.491 E0.02485
G1 X153.188 Y134.265 E1.84282
G1 X153.132 Y134.935 E0.02106
G1 X152.971 Y135.582 E0.02090
G1 X152.434 Y136.648 E0.03744
G1 X151.614 Y137.523 E0.03760
G1 X150.584 Y138.128 E0.03744
G1 X149.420 Y138.417 E0.03760
G1 X127.965 Y138.438 E0.67273
G1 X127.305 Y138.381 E0.02075
G1 X126.668 Y138.221 E0.02059
G1 X126.006 Y137.934 E0.02264
G1 X125.399 Y137.533 E0.02280
G1 X98.375 Y116.014 E1.08314
G1 X97.569 Y115.153 E0.03697
G1 X97.024 Y114.068 E0.03807
G1 X96.813 Y112.867 E0.03823
G1 X96.812 Y97.199 E0.49125
G1 X96.870 Y96.550 E0.02043
G1 X97.029 Y95.918 E0.02043
G1 X97.517 Y94.942 E0.03422
M204 S1000
; PURGING FINISHED
G1 F8640
G1 X98.343 Y94.012 E-0.28731
G1 X99.944 Y92.737 E-0.47269
G1 E-0.04000 F2100.00000
G1 Z0.800 F10800.000
G1 X128.687 Y97.937
G1 Z0.200
G1 E0.80000 F2100.00000
M204 S20
G1 F1800
G1 X148.313 Y97.937 E0.61535
G1 X148.313 Y112.063 E0.44291
G1 X128.687 Y112.063 E0.61535
G1 X128.687 Y97.997 E0.44102
M204 S1000
G1 X128.310 Y97.560 F10800.000
M204 S20
G1 F1800
G1 X148.690 Y97.560 E0.63900
G1 X148.690 Y112.440 E0.46655
G1 X128.310 Y112.440 E0.63900
G1 X128.310 Y97.620 E0.46467
M204 S1000
G1 X128.701 Y97.643 F10800.000
G1 F8640
G1 X131.601 Y97.610 E-0.76000
G1 E-0.04000 F2100.00000
G1 Z0.800 F10800.000
G1 X129.570 Y111.950
G1 Z0.200
G1 E0.80000 F2100.00000
M204 S20
G1 F1800
G1 X128.970 Y111.350 E0.02686
G1 X128.970 Y110.811 E0.01704
G1 X129.939 Y111.780 E0.04336
G1 X130.477 Y111.780 E0.01704
G1 X128.970 Y110.273 E0.06745
G1 X128.970 Y109.735 E0.01704
G1 X131.015 Y111.780 E0.09155
G1 X131.553 Y111.780 E0.01704
G1 X128.970 Y109.197 E0.11564
G1 X128.970 Y108.658 E0.01704
G1 X132.092 Y111.780 E0.13973
G1 X132.630 Y111.780 E0.01704
G1 X128.970 Y108.120 E0.16383
G1 X128.970 Y107.582 E0.01704
G1 X133.168 Y111.780 E0.18792
G1 X133.707 Y111.780 E0.01704
G1 X128.970 Y107.043 E0.21202
G1 X128.970 Y106.505 E0.01704
G1 X134.245 Y111.780 E0.23611
G1 X134.783 Y111.780 E0.01704
G1 X128.970 Y105.967 E0.26021
G1 X128.970 Y105.428 E0.01704
G1 X135.322 Y111.780 E0.28430
G1 X135.860 Y111.780 E0.01704
G1 X128.970 Y104.890 E0.30839
G1 X128.970 Y104.352 E0.01704
G1 X136.398 Y111.780 E0.33249
G1 X136.936 Y111.780 E0.01704
G1 X128.970 Y103.814 E0.35658
G1 X128.970 Y103.275 E0.01704
G1 X137.475 Y111.780 E0.38068
G1 X138.013 Y111.780 E0.01704
G1 X128.970 Y102.737 E0.40477
G1 X128.970 Y102.199 E0.01704
G1 X138.551 Y111.780 E0.42887
G1 X139.090 Y111.780 E0.01704
G1 X128.970 Y101.660 E0.45296
G1 X128.970 Y101.122 E0.01704
G1 X139.628 Y111.780 E0.47705
G1 X140.166 Y111.780 E0.01704
G1 X128.970 Y100.584 E0.50115
G1 X128.970 Y100.045 E0.01704
G1 X140.705 Y111.780 E0.52524
G1 X141.243 Y111.780 E0.01704
G1 X128.970 Y99.507 E0.54934
G1 X128.970 Y98.969 E0.01704
G1 X141.781 Y111.780 E0.57343
G1 X142.319 Y111.780 E0.01704
G1 X128.970 Y98.431 E0.59753
G1 X128.970 Y98.220 E0.00667
G1 X129.297 Y98.220 E0.01037
G1 X142.858 Y111.780 E0.60696
G1 X143.396 Y111.780 E0.01704
G1 X129.836 Y98.220 E0.60696
G1 X130.374 Y98.220 E0.01704
G1 X143.934 Y111.780 E0.60696
G1 X144.473 Y111.780 E0.01704
G1 X130.912 Y98.220 E0.60696
G1 X131.451 Y98.220 E0.01704
G1 X145.011 Y111.780 E0.60696
G1 X145.549 Y111.780 E0.01704
G1 X131.989 Y98.220 E0.60696
G1 X132.527 Y98.220 E0.01704
G1 X146.088 Y111.780 E0.60696
G1 X146.626 Y111.780 E0.01704
G1 X133.066 Y98.220 E0.60696
M73 Q1 S85
M73 P1 R84
G1 X133.604 Y98.220 E0.01704
G1 X147.164 Y111.780 E0.60696
G1 X147.702 Y111.780 E0.01704
G1 X134.142 Y98.220 E0.60696
G1 X134.680 Y98.220 E0.01704
G1 X148.030 Y111.570 E0.59753
G1 X148.030 Y111.031 E0.01704
G1 X135.219 Y98.220 E0.57343
G1 X135.757 Y98.220 E0.01704
G1 X148.030 Y110.493 E0.54934
G1 X148.030 Y109.955 E0.01704
G1 X136.295 Y98.220 E0.52525
G1 X136.834 Y98.220 E0.01704
G1 X148.030 Y109.416 E0.50115
G1 X148.030 Y108.878 E0.01704
G1 X137.372 Y98.220 E0.47706
G1 X137.910 Y98.220 E0.01704
G1 X148.030 Y108.340 E0.45296
G1 X148.030 Y107.801 E0.01704
G1 X138.449 Y98.220 E0.42887
G1 X138.987 Y98.220 E0.01704
G1 X148.030 Y107.263 E0.40477
G1 X148.030 Y106.725 E0.01704
G1 X139.525 Y98.220 E0.38068
G1 X140.063 Y98.220 E0.01704
G1 X148.030 Y106.187 E0.35659
G1 X148.030 Y105.648 E0.01704
G1 X140.602 Y98.220 E0.33249
G1 X141.140 Y98.220 E0.01704
G1 X148.030 Y105.110 E0.30840
G1 X148.030 Y104.572 E0.01704
G1 X141.678 Y98.220 E0.28430
G1 X142.217 Y98.220 E0.01704
G1 X148.030 Y104.033 E0.26021
G1 X148.030 Y103.495 E0.01704
G1 X142.755 Y98.220 E0.23612
G1 X143.293 Y98.220 E0.01704
G1 X148.030 Y102.957 E0.21202
G1 X148.030 Y102.418 E0.01704
G1 X143.832 Y98.220 E0.18793
G1 X144.370 Y98.220 E0.01704
G1 X148.030 Y101.880 E0.16383
G1 X148.030 Y101.342 E0.01704
G1 X144.908 Y98.220 E0.13974
G1 X145.446 Y98.220 E0.01704
G1 X148.030 Y100.804 E0.11564
G1 X148.030 Y100.265 E0.01704
G1 X145.985 Y98.220 E0.09155
G1 X146.523 Y98.220 E0.01704
G1 X148.030 Y99.727 E0.06746
G1 X148.030 Y99.189 E0.01704
G1 X147.061 Y98.220 E0.04336
G1 X147.600 Y98.220 E0.01704
G1 X148.200 Y98.820 E0.02686
M204 S1000
G1 F8640
G1 X147.600 Y98.220 E-0.19597
G1 X147.061 Y98.220 E-0.12429
G1 X148.030 Y99.189 E-0.31634
G1 X148.030 Y99.723 E-0.12340
G1 E-0.04000 F2100.00000
G1 Z0.800 F10800.000
G1 X148.200 Y90.563
G1 Z0.200
G1 E0.80000 F2100.00000
M204 S20
G1 F1800
G1 X128.687 Y90.563 E0.61181
G1 X128.687 Y76.437 E0.44291
G1 X148.313 Y76.437 E0.61535
G1 X148.313 Y90.563 E0.44291
G1 X148.260 Y90.563 E0.00166
M204 S1000
G1 X148.690 Y90.940 F10800.000
M204 S20
G1 F1800
G1 X128.310 Y90.940 E0.63900
G1 X128.310 Y76.060 E0.46655
G1 X148.690 Y76.060 E0.63900
G1 X148.690 Y90.880 E0.46467
M204 S1000
G1 X148.299 Y90.857 F10800.000
G1 F8640
G1 X145.399 Y90.890 E-0.76000
G1 E-0.04000 F2100.00000
G1 Z0.800 F10800.000
G1 X148.200 Y77.320
G1 Z0.200
G1 E0.80000 F2100.00000
M204 S20
G1 F1800
G1 X147.600 Y76.720 E0.02686
G1 X147.061 Y76.720 E0.01704
G1 X148.030 Y77.689 E0.04336
G1 X148.030 Y78.227 E0.01704
G1 X146.523 Y76.720 E0.06746
G1 X145.985 Y76.720 E0.01704
G1 X148.030 Y78.765 E0.09155
G1 X148.030 Y79.304 E0.01704
G1 X145.446 Y76.720 E0.11564
G1 X144.908 Y76.720 E0.01704
G1 X148.030 Y79.842 E0.13974
G1 X148.030 Y80.380 E0.01704
G1 X144.370 Y76.720 E0.16383
G1 X143.832 Y76.720 E0.01704
G1 X148.030 Y80.918 E0.18793
G1 X148.030 Y81.457 E0.01704
G1 X143.293 Y76.720 E0.21202
G1 X142.755 Y76.720 E0.01704
G1 X148.030 Y81.995 E0.23612
G1 X148.030 Y82.533 E0.01704
G1 X142.217 Y76.720 E0.26021
G1 X141.678 Y76.720 E0.01704
G1 X148.030 Y83.072 E0.28430
G1 X148.030 Y83.610 E0.01704
G1 X141.140 Y76.720 E0.30840
G1 X140.602 Y76.720 E0.01704
G1 X148.030 Y84.148 E0.33249
G1 X148.030 Y84.687 E0.01704
G1 X140.063 Y76.720 E0.35659
G1 X139.525 Y76.720 E0.01704
G1 X148.030 Y85.225 E0.38068
G1 X148.030 Y85.763 E0.01704
G1 X138.987 Y76.720 E0.40477
G1 X138.449 Y76.720 E0.01704
G1 X148.030 Y86.301 E0.42887
G1 X148.030 Y86.840 E0.01704
G1 X137.910 Y76.720 E0.45296
G1 X137.372 Y76.720 E0.01704
G1 X148.030 Y87.378 E0.47706
G1 X148.030 Y87.916 E0.01704
G1 X136.834 Y76.720 E0.50115
G1 X136.295 Y76.720 E0.01704
G1 X148.030 Y88.455 E0.52525
G1 X148.030 Y88.993 E0.01704
G1 X135.757 Y76.720 E0.54934
G1 X135.219 Y76.720 E0.01704
G1 X148.030 Y89.531 E0.57343
G1 X148.030 Y90.070 E0.01704
G1 X134.680 Y76.720 E0.59753
G1 X134.142 Y76.720 E0.01704
G1 X147.702 Y90.280 E0.60696
G1 X147.164 Y90.280 E0.01704
G1 X133.604 Y76.720 E0.60696
G1 X133.066 Y76.720 E0.01704
G1 X146.626 Y90.280 E0.60696
G1 X146.088 Y90.280 E0.01704
G1 X132.527 Y76.720 E0.60696
G1 X131.989 Y76.720 E0.01704
G1 X145.549 Y90.280 E0.60696
G1 X145.011 Y90.280 E0.01704
G1 X131.451 Y76.720 E0.60696
M73 Q2 S84
M73 P2 R83
G1 X130.912 Y76.720 E0.01704
G1 X144.473 Y90.280 E0.60696
G1 X143.934 Y90.280 E0.01704
G1 X130.374 Y76.720 E0.60696
G1 X129.836 Y76.720 E0.01704
G1 X143.396 Y90.280 E0.60696
G1 X142.858 Y90.280 E0.01704
G1 X129.297 Y76.720 E0.60696
G1 X128.970 Y76.720 E0.01037
G1 X128.970 Y76.931 E0.00667
G1 X142.319 Y90.280 E0.59753
G1 X141.781 Y90.280 E0.01704
G1 X128.970 Y77.469 E0.57343
G1 X128.970 Y78.007 E0.01704
G1 X141.243 Y90.280 E0.54934
G1 X140.705 Y90.280 E0.01704
G1 X128.970 Y78.545 E0.52524
G1 X128.970 Y79.084 E0.01704
G1 X140.166 Y90.280 E0.50115
G1 X139.628 Y90.280 E0.01704
G1 X128.970 Y79.622 E0.47705
G1 X128.970 Y80.160 E0.01704
G1 X139.090 Y90.280 E0.45296
G1 X138.551 Y90.280 E0.01704
G1 X128.970 Y80.699 E0.42887
G1 X128.970 Y81.237 E0.01704
G1 X138.013 Y90.280 E0.40477
G1 X137.475 Y90.280 E0.01704
G1 X128.970 Y81.775 E0.38068
G1 X128.970 Y82.314 E0.01704
G1 X136.936 Y90.280 E0.35658
G1 X136.398 Y90.280 E0.01704
G1 X128.970 Y82.852 E0.33249
G1 X128.970 Y83.390 E0.01704
G1 X135.860 Y90.280 E0.30839
G1 X135.322 Y90.280 E0.01704
G1 X128.970 Y83.928 E0.28430
G1 X128.970 Y84.467 E0.01704
G1 X134.783 Y90.280 E0.26021
G1 X134.245 Y90.280 E0.01704
G1 X128.970 Y85.005 E0.23611
G1 X128.970 Y85.543 E0.01704
G1 X133.707 Y90.280 E0.21202
G1 X133.168 Y90.280 E0.01704
G1 X128.970 Y86.082 E0.18792
G1 X128.970 Y86.620 E0.01704
G1 X132.630 Y90.280 E0.16383
G1 X132.092 Y90.280 E0.01704
G1 X128.970 Y87.158 E0.13973
G1 X128.970 Y87.697 E0.01704
G1 X131.553 Y90.280 E0.11564
G1 X131.015 Y90.280 E0.01704
G1 X128.970 Y88.235 E0.09155
G1 X128.970 Y88.773 E0.01704
G1 X130.477 Y90.280 E0.06745
G1 X129.939 Y90.280 E0.01704
G1 X128.970 Y89.311 E0.04336
G1 X128.970 Y89.850 E0.01704
G1 X129.570 Y90.450 E0.02686
M204 S1000
G1 F8640
G1 X128.970 Y89.850 E-0.19594
G1 X128.970 Y89.311 E-0.12430
G1 X129.939 Y90.280 E-0.31631
G1 X130.473 Y90.280 E-0.12345
G1 E-0.04000 F2100.00000
G1 Z0.800 F10800.000
G1 X121.313 Y97.937
G1 Z0.200
G1 E0.80000 F2100.00000
M204 S20
G1 F1800
G1 X121.313 Y112.063 E0.44291
G1 X101.687 Y112.063 E0.61535
G1 X101.687 Y97.937 E0.44291
G1 X121.253 Y97.937 E0.61347
M204 S1000
G1 X121.690 Y97.560 F10800.000
M204 S20
G1 F1800
G1 X121.690 Y112.440 E0.46655
G1 X101.310 Y112.440 E0.63900
G1 X101.310 Y97.560 E0.46655
G1 X121.630 Y97.560 E0.63712
M204 S1000
G1 X121.567 Y97.941 F10800.000
G1 F8640
G1 X121.643 Y100.851 E-0.76000
G1 E-0.04000 F2100.00000
G1 Z0.800 F10800.000
G1 X121.200 Y98.820
G1 Z0.200
G1 E0.80000 F2100.00000
M204 S20
G1 F1800
G1 X120.600 Y98.220 E0.02686
G1 X120.061 Y98.220 E0.01704
G1 X121.030 Y99.189 E0.04336
G1 X121.030 Y99.727 E0.01704
G1 X119.523 Y98.220 E0.06746
G1 X118.985 Y98.220 E0.01704
G1 X121.030 Y100.265 E0.09155
G1 X121.030 Y100.804 E0.01704
G1 X118.446 Y98.220 E0.11564
G1 X117.908 Y98.220 E0.01704
G1 X121.030 Y101.342 E0.13974
G1 X121.030 Y101.880 E0.01704
G1 X117.370 Y98.220 E0.16383
G1 X116.832 Y98.220 E0.01704
G1 X121.030 Y102.418 E0.18793
G1 X121.030 Y102.957 E0.01704
G1 X116.293 Y98.220 E0.21202
G1 X115.755 Y98.220 E0.01704
G1 X121.030 Y103.495 E0.23612
G1 X121.030 Y104.033 E0.01704
G1 X115.217 Y98.220 E0.26021
G1 X114.678 Y98.220 E0.01704
G1 X121.030 Y104.572 E0.28430
G1 X121.030 Y105.110 E0.01704
G1 X114.140 Y98.220 E0.30840
G1 X113.602 Y98.220 E0.01704
G1 X121.030 Y105.648 E0.33249
G1 X121.030 Y106.187 E0.01704
G1 X113.063 Y98.220 E0.35659
G1 X112.525 Y98.220 E0.01704
G1 X121.030 Y106.725 E0.38068
G1 X121.030 Y107.263 E0.01704
G1 X111.987 Y98.220 E0.40477
G1 X111.449 Y98.220 E0.01704
G1 X121.030 Y107.801 E0.42887
G1 X121.030 Y108.340 E0.01704
G1 X110.910 Y98.220 E0.45296
G1 X110.372 Y98.220 E0.01704
G1 X121.030 Y108.878 E0.47706
G1 X121.030 Y109.416 E0.01704
G1 X109.834 Y98.220 E0.50115
G1 X109.295 Y98.220 E0.01704
G1 X121.030 Y109.955 E0.52525
G1 X121.030 Y110.493 E0.01704
G1 X108.757 Y98.220 E0.54934
G1 X108.219 Y98.220 E0.01704
G1 X121.030 Y111.031 E0.57343
G1 X121.030 Y111.570 E0.01704
G1 X107.680 Y98.220 E0.59753
G1 X107.142 Y98.220 E0.01704
G1 X120.702 Y111.780 E0.60696
G1 X120.164 Y111.780 E0.01704
G1 X106.604 Y98.220 E0.60696
G1 X106.066 Y98.220 E0.01704
G1 X119.626 Y111.780 E0.60696
G1 X119.088 Y111.780 E0.01704
G1 X105.527 Y98.220 E0.60696
M73 Q3 S83
M73 P3 R82
G1 X104.989 Y98.220 E0.01704
G1 X118.549 Y111.780 E0.60696
G1 X118.011 Y111.780 E0.01704
G1 X104.451 Y98.220 E0.60696
G1 X103.912 Y98.220 E0.01704
G1 X117.473 Y111.780 E0.60696
G1 X116.934 Y111.780 E0.01704
G1 X103.374 Y98.220 E0.60696
G1 X102.836 Y98.220 E0.01704
G1 X116.396 Y111.780 E0.60696
G1 X115.858 Y111.780 E0.01704
G1 X102.297 Y98.220 E0.60696
G1 X101.970 Y98.220 E0.01037
G1 X101.970 Y98.431 E0.00667
G1 X115.319 Y111.780 E0.59753
G1 X114.781 Y111.780 E0.01704
G1 X101.970 Y98.969 E0.57343
G1 X101.970 Y99.507 E0.01704
G1 X114.243 Y111.780 E0.54934
G1 X113.705 Y111.780 E0.01704
G1 X101.970 Y100.045 E0.52524
G1 X101.970 Y100.584 E0.01704
G1 X113.166 Y111.780 E0.50115
G1 X112.628 Y111.780 E0.01704
G1 X101.970 Y101.122 E0.47705
G1 X101.970 Y101.660 E0.01704
G1 X112.090 Y111.780 E0.45296
G1 X111.551 Y111.780 E0.01704
G1 X101.970 Y102.199 E0.42887
G1 X101.970 Y102.737 E0.01704
G1 X111.013 Y111.780 E0.40477
G1 X110.475 Y111.780 E0.01704
G1 X101.970 Y103.275 E0.38068
G1 X101.970 Y103.814 E0.01704
G1 X109.936 Y111.780 E0.35658
G1 X109.398 Y111.780 E0.01704
G1 X101.970 Y104.352 E0.33249
G1 X101.970 Y104.890 E0.01704
G1 X108.860 Y111.780 E0.30839
G1 X108.322 Y111.780 E0.01704
G1 X101.970 Y105.428 E0.28430
G1 X101.970 Y105.967 E0.01704
G1 X107.783 Y111.780 E0.26021
G1 X107.245 Y111.780 E0.01704
G1 X101.970 Y106.505 E0.23611
G1 X101.970 Y107.043 E0.01704
G1 X106.707 Y111.780 E0.21202
G1 X106.168 Y111.780 E0.01704
G1 X101.970 Y107.582 E0.18792
G1 X101.970 Y108.120 E0.01704
