; generated by Slic3r Prusa Edition 1.41.0 on 2018-11-03 at 15:11:15

; 

; external perimeters extrusion width = 0.45mm
; perimeters extrusion width = 0.45mm
; infill extrusion width = 0.45mm
; solid infill extrusion width = 0.45mm
; top infill extrusion width = 0.40mm
; first layer extrusion width = 0.42mm

M201 X1000 Y1000 Z1000 E5000 ; sets maximum accelerations, mm/sec^2
M203 X200 Y200 Z12 E120 ; sets maximum feedrates, mm/sec
M204 P1250 R1250 T1250 ; sets acceleration (P, T) and retract acceleration (R), mm/sec^2
M205 X8.00 Y8.00 Z0.40 E1.50 ; sets the jerk limits, mm/sec
M205 S0 T0 ; sets the minimum extruding and travel feed rate, mm/sec
M107
M115 U3.4.0 ; tell printer latest fw version
M83  ; extruder relative mode
M104 S140 ; set extruder to warm-up temp
M140 S80 ; set bed temp
M190 S80 ; wait for bed temp
G28 W ; home all without mesh bed level
G80 ; mesh bed leveling
M104 S250 ; set extruder temp
M109 S250 ; wait for extruder temp
G1 Y-3.0 F1000.0 ; go outside print area
G92 E0.0
G1 X60.0 E9.0  F1000.0 ; intro line
M73 Q0 S82
M73 P0 R81
G1 X100.0 E12.5  F1000.0 ; intro line
G92 E0.0
M221 S95
M900 K45; Filament gcode
G21 ; set units to millimeters
G90 ; use absolute coordinates
M83 ; use relative distances for extrusion
;BEFORE_LAYER_CHANGE
G92 E0.0
;0.2


G1 E-0.80000 F2100.00000
G1 Z0.600 F10800.000
;AFTER_LAYER_CHANGE
;0.2
G1 X98.194 Y72.479
G1 Z0.200
G1 E0.80000 F2100.00000
M204 S20
G1 F1800
G1 X99.054 Y71.512 E0.04058
G1 X100.151 Y70.825 E0.04058
G1 X101.402 Y70.474 E0.04074
G1 X122.005 Y70.434 E0.64599
G1 X122.772 Y70.500 E0.02414
G1 X123.522 Y70.696 E0.02430
G1 X124.224 Y71.013 E0.02414
G1 X124.866 Y71.446 E0.02430
G1 X150.965 Y93.528 E1.07192
G1 X151.755 Y94.404 E0.03697
G1 X152.336 Y95.572 E0.04091
G1 X152.564 Y96.862 E0.04107
G1 X152.565 Y113.053 E0.50766
G1 X152.361 Y114.352 E0.04123
G1 X151.827 Y115.490 E0.03943
G1 X151.002 Y116.440 E0.03943
G1 X124.933 Y138.499 E1.07073
G1 X123.987 Y139.111 E0.03533
G1 X123.043 Y139.445 E0.03138
G1 X122.050 Y139.565 E0.03138
G1 X101.958 Y139.565 E0.62996
G1 X100.648 Y139.361 E0.04156
G1 X100.001 Y139.105 E0.02183
G1 X99.396 Y138.750 E0.02199
G1 X98.856 Y138.310 E0.02183
G1 X98.389 Y137.794 E0.02183
G1 X98.007 Y137.213 E0.02183
G1 X97.715 Y136.575 E0.02199
G1 X97.524 Y135.900 E0.02199
G1 X97.439 Y135.209 E0.02183
G1 X97.434 Y74.984 E1.88830
G1 X97.487 Y74.311 E0.02117
G1 X97.639 Y73.648 E0.02133
G1 X98.168 Y72.533 E0.03870
M204 S1000
G1 X98.506 Y72.694 F10800.000
M204 S20
G1 F1800
G1 X99.316 Y71.785 E0.03817
G1 X100.332 Y71.158 E0.03744
G1 X101.489 Y70.843 E0.03760
G1 X122.005 Y70.811 E0.64326
G1 X122.714 Y70.873 E0.02233
G1 X123.398 Y71.052 E0.02217
G1 X124.043 Y71.343 E0.02217
G1 X124.633 Y71.742 E0.02233
G1 X150.717 Y93.812 E1.07134
G1 X151.447 Y94.621 E0.03415
G1 X151.980 Y95.695 E0.03760
G1 X152.187 Y96.881 E0.03776
G1 X152.188 Y113.046 E0.50682
G1 X151.999 Y114.245 E0.03807
G1 X151.508 Y115.289 E0.03619
G1 X150.750 Y116.160 E0.03619
G1 X124.694 Y138.207 E1.07018
G1 X123.822 Y138.772 E0.03257
G1 X122.956 Y139.078 E0.02879
G1 X122.039 Y139.188 E0.02895
G1 X101.965 Y139.188 E0.62942
G1 X100.755 Y138.999 E0.03839
G1 X99.606 Y138.437 E0.04011
G1 X98.680 Y137.554 E0.04011
G1 X98.064 Y136.433 E0.04011
G1 X97.815 Y135.178 E0.04011
G1 X97.811 Y74.990 E1.88716
G1 X98.001 Y73.755 E0.03917
G1 X98.481 Y72.748 E0.03497
M204 S1000
; PURGING FINISHED
G1 F8640
G1 X99.316 Y71.785 E-0.29446
G1 X100.332 Y71.158 E-0.27575
G1 X101.125 Y70.942 E-0.18979
G1 E-0.04000 F2100.00000
G1 Z0.800 F10800.000
G1 X102.687 Y97.687
G1 Z0.200
G1 E0.80000 F2100.00000
M204 S20
G1 F1800
G1 X121.313 Y97.687 E0.58400
G1 X121.313 Y112.313 E0.45858
G1 X102.687 Y112.313 E0.58400
G1 X102.687 Y97.747 E0.45670
M204 S1000
G1 X102.310 Y97.310 F10800.000
M204 S20
G1 F1800
G1 X121.690 Y97.310 E0.60765
G1 X121.690 Y112.690 E0.48223
G1 X102.310 Y112.690 E0.60765
G1 X102.310 Y97.370 E0.48035
M204 S1000
G1 X102.700 Y97.399 F10800.000
G1 F8640
G1 X105.601 Y97.360 E-0.76000
G1 E-0.04000 F2100.00000
G1 Z0.800 F10800.000
G1 X102.800 Y111.429
G1 Z0.200
G1 E0.80000 F2100.00000
M204 S20
G1 F1800
G1 X103.401 Y112.030 E0.02693
G1 X103.940 Y112.030 E0.01708
G1 X102.970 Y111.060 E0.04348
G1 X102.970 Y110.521 E0.01708
G1 X104.479 Y112.030 E0.06763
G1 X105.018 Y112.030 E0.01708
G1 X102.970 Y109.982 E0.09178
G1 X102.970 Y109.443 E0.01708
G1 X105.557 Y112.030 E0.11593
G1 X106.096 Y112.030 E0.01708
G1 X102.970 Y108.904 E0.14008
G1 X102.970 Y108.365 E0.01708
G1 X106.635 Y112.030 E0.16423
G1 X107.174 Y112.030 E0.01708
G1 X102.970 Y107.826 E0.18838
G1 X102.970 Y107.287 E0.01708
G1 X107.713 Y112.030 E0.21253
G1 X108.252 Y112.030 E0.01708
G1 X102.970 Y106.748 E0.23668
G1 X102.970 Y106.210 E0.01708
G1 X108.790 Y112.030 E0.26083
G1 X109.329 Y112.030 E0.01708
G1 X102.970 Y105.671 E0.28498
G1 X102.970 Y105.132 E0.01708
G1 X109.868 Y112.030 E0.30913
G1 X110.407 Y112.030 E0.01708
G1 X102.970 Y104.593 E0.33328
G1 X102.970 Y104.054 E0.01708
G1 X110.946 Y112.030 E0.35743
G1 X111.485 Y112.030 E0.01708
G1 X102.970 Y103.515 E0.38158
G1 X102.970 Y102.976 E0.01708
G1 X112.024 Y112.030 E0.40574
G1 X112.563 Y112.030 E0.01708
G1 X102.970 Y102.437 E0.42989
G1 X102.970 Y101.898 E0.01708
G1 X113.102 Y112.030 E0.45404
G1 X113.641 Y112.030 E0.01708
G1 X102.970 Y101.359 E0.47819
G1 X102.970 Y100.820 E0.01708
G1 X114.180 Y112.030 E0.50234
G1 X114.719 Y112.030 E0.01708
G1 X102.970 Y100.281 E0.52649
G1 X102.970 Y99.742 E0.01708
G1 X115.258 Y112.030 E0.55064
G1 X115.797 Y112.030 E0.01708
G1 X102.970 Y99.203 E0.57479
G1 X102.970 Y98.665 E0.01708
G1 X116.335 Y112.030 E0.59894
G1 X116.874 Y112.030 E0.01708
G1 X102.970 Y98.126 E0.62309
G1 X102.970 Y97.970 E0.00494
G1 X103.353 Y97.970 E0.01214
G1 X117.413 Y112.030 E0.63007
G1 X117.952 Y112.030 E0.01708
G1 X103.892 Y97.970 E0.63007
G1 X104.431 Y97.970 E0.01708
G1 X118.491 Y112.030 E0.63007
G1 X119.030 Y112.030 E0.01708
G1 X104.970 Y97.970 E0.63007
G1 X105.509 Y97.970 E0.01708
G1 X119.569 Y112.030 E0.63007
G1 X120.108 Y112.030 E0.01708
G1 X106.048 Y97.970 E0.63007
G1 X106.587 Y97.970 E0.01708
G1 X120.647 Y112.030 E0.63007
M73 Q1 S81
M73 P1 R80
G1 X121.030 Y112.030 E0.01214
G1 X121.030 Y111.874 E0.00493
G1 X107.126 Y97.970 E0.62309
G1 X107.664 Y97.970 E0.01708
G1 X121.030 Y111.336 E0.59894
G1 X121.030 Y110.797 E0.01708
G1 X108.203 Y97.970 E0.57479
G1 X108.742 Y97.970 E0.01708
G1 X121.030 Y110.258 E0.55064
G1 X121.030 Y109.719 E0.01708
G1 X109.281 Y97.970 E0.52649
G1 X109.820 Y97.970 E0.01708
G1 X121.030 Y109.180 E0.50234
G1 X121.030 Y108.641 E0.01708
G1 X110.359 Y97.970 E0.47819
G1 X110.898 Y97.970 E0.01708
G1 X121.030 Y108.102 E0.45404
G1 X121.030 Y107.563 E0.01708
G1 X111.437 Y97.970 E0.42989
G1 X111.976 Y97.970 E0.01708
G1 X121.030 Y107.024 E0.40574
G1 X121.030 Y106.485 E0.01708
G1 X112.515 Y97.970 E0.38159
G1 X113.054 Y97.970 E0.01708
G1 X121.030 Y105.946 E0.35744
G1 X121.030 Y105.407 E0.01708
G1 X113.593 Y97.970 E0.33329
G1 X114.132 Y97.970 E0.01708
G1 X121.030 Y104.868 E0.30914
G1 X121.030 Y104.329 E0.01708
G1 X114.671 Y97.970 E0.28499
G1 X115.209 Y97.970 E0.01708
G1 X121.030 Y103.791 E0.26084
G1 X121.030 Y103.252 E0.01708
G1 X115.748 Y97.970 E0.23669
G1 X116.287 Y97.970 E0.01708
G1 X121.030 Y102.713 E0.21254
G1 X121.030 Y102.174 E0.01708
G1 X116.826 Y97.970 E0.18838
G1 X117.365 Y97.970 E0.01708
G1 X121.030 Y101.635 E0.16423
G1 X121.030 Y101.096 E0.01708
G1 X117.904 Y97.970 E0.14008
G1 X118.443 Y97.970 E0.01708
G1 X121.030 Y100.557 E0.11593
G1 X121.030 Y100.018 E0.01708
G1 X118.982 Y97.970 E0.09178
G1 X119.521 Y97.970 E0.01708
G1 X121.030 Y99.479 E0.06763
G1 X121.030 Y98.940 E0.01708
G1 X120.060 Y97.970 E0.04348
G1 X120.599 Y97.970 E0.01708
G1 X121.200 Y98.571 E0.02694
M204 S1000
G1 F8640
G1 X120.599 Y97.970 E-0.19628
G1 X120.060 Y97.970 E-0.12444
G1 X121.030 Y98.940 E-0.31685
G1 X121.030 Y99.470 E-0.12243
G1 E-0.04000 F2100.00000
G1 Z0.800 F10800.000
G1 X121.200 Y90.313
G1 Z0.200
G1 E0.80000 F2100.00000
M204 S20
G1 F1800
G1 X102.687 Y90.313 E0.58045
G1 X102.687 Y75.687 E0.45858
G1 X121.313 Y75.687 E0.58400
G1 X121.313 Y90.313 E0.45858
G1 X121.260 Y90.313 E0.00167
M204 S1000
G1 X121.690 Y90.690 F10800.000
M204 S20
G1 F1800
G1 X102.310 Y90.690 E0.60765
G1 X102.310 Y75.310 E0.48223
G1 X121.690 Y75.310 E0.60765
G1 X121.690 Y90.630 E0.48035
M204 S1000
G1 X121.300 Y90.601 F10800.000
G1 F8640
G1 X118.399 Y90.640 E-0.76000
G1 E-0.04000 F2100.00000
G1 Z0.800 F10800.000
G1 X121.200 Y76.571
G1 Z0.200
G1 E0.80000 F2100.00000
M204 S20
G1 F1800
G1 X120.599 Y75.970 E0.02694
G1 X120.060 Y75.970 E0.01708
G1 X121.030 Y76.940 E0.04348
G1 X121.030 Y77.479 E0.01708
G1 X119.521 Y75.970 E0.06763
G1 X118.982 Y75.970 E0.01708
G1 X121.030 Y78.018 E0.09178
G1 X121.030 Y78.557 E0.01708
G1 X118.443 Y75.970 E0.11593
G1 X117.904 Y75.970 E0.01708
G1 X121.030 Y79.096 E0.14008
G1 X121.030 Y79.635 E0.01708
G1 X117.365 Y75.970 E0.16423
G1 X116.826 Y75.970 E0.01708
G1 X121.030 Y80.174 E0.18838
G1 X121.030 Y80.713 E0.01708
G1 X116.287 Y75.970 E0.21254
G1 X115.748 Y75.970 E0.01708
G1 X121.030 Y81.252 E0.23669
G1 X121.030 Y81.791 E0.01708
G1 X115.209 Y75.970 E0.26084
G1 X114.671 Y75.970 E0.01708
G1 X121.030 Y82.329 E0.28499
G1 X121.030 Y82.868 E0.01708
G1 X114.132 Y75.970 E0.30914
G1 X113.593 Y75.970 E0.01708
G1 X121.030 Y83.407 E0.33329
G1 X121.030 Y83.946 E0.01708
G1 X113.054 Y75.970 E0.35744
G1 X112.515 Y75.970 E0.01708
G1 X121.030 Y84.485 E0.38159
G1 X121.030 Y85.024 E0.01708
G1 X111.976 Y75.970 E0.40574
G1 X111.437 Y75.970 E0.01708
G1 X121.030 Y85.563 E0.42989
G1 X121.030 Y86.102 E0.01708
G1 X110.898 Y75.970 E0.45404
G1 X110.359 Y75.970 E0.01708
G1 X121.030 Y86.641 E0.47819
G1 X121.030 Y87.180 E0.01708
G1 X109.820 Y75.970 E0.50234
G1 X109.281 Y75.970 E0.01708
G1 X121.030 Y87.719 E0.52649
G1 X121.030 Y88.258 E0.01708
G1 X108.742 Y75.970 E0.55064
G1 X108.203 Y75.970 E0.01708
G1 X121.030 Y88.797 E0.57479
G1 X121.030 Y89.336 E0.01708
G1 X107.664 Y75.970 E0.59894
G1 X107.126 Y75.970 E0.01708
G1 X121.030 Y89.874 E0.62309
G1 X121.030 Y90.030 E0.00493
G1 X120.647 Y90.030 E0.01214
G1 X106.587 Y75.970 E0.63007
G1 X106.048 Y75.970 E0.01708
G1 X120.108 Y90.030 E0.63007
G1 X119.569 Y90.030 E0.01708
G1 X105.509 Y75.970 E0.63007
G1 X104.970 Y75.970 E0.01708
G1 X119.030 Y90.030 E0.63007
G1 X118.491 Y90.030 E0.01708
G1 X104.431 Y75.970 E0.63007
G1 X103.892 Y75.970 E0.01708
M73 Q2 S80
M73 P2 R79
G1 X117.952 Y90.030 E0.63007
G1 X117.413 Y90.030 E0.01708
G1 X103.353 Y75.970 E0.63007
G1 X102.970 Y75.970 E0.01214
G1 X102.970 Y76.126 E0.00494
G1 X116.874 Y90.030 E0.62309
G1 X116.335 Y90.030 E0.01708
G1 X102.970 Y76.665 E0.59894
G1 X102.970 Y77.203 E0.01708
G1 X115.797 Y90.030 E0.57479
G1 X115.258 Y90.030 E0.01708
G1 X102.970 Y77.742 E0.55064
G1 X102.970 Y78.281 E0.01708
G1 X114.719 Y90.030 E0.52649
G1 X114.180 Y90.030 E0.01708
G1 X102.970 Y78.820 E0.50234
G1 X102.970 Y79.359 E0.01708
G1 X113.641 Y90.030 E0.47819
G1 X113.102 Y90.030 E0.01708
G1 X102.970 Y79.898 E0.45404
G1 X102.970 Y80.437 E0.01708
G1 X112.563 Y90.030 E0.42989
G1 X112.024 Y90.030 E0.01708
G1 X102.970 Y80.976 E0.40574
G1 X102.970 Y81.515 E0.01708
G1 X111.485 Y90.030 E0.38158
G1 X110.946 Y90.030 E0.01708
G1 X102.970 Y82.054 E0.35743
G1 X102.970 Y82.593 E0.01708
G1 X110.407 Y90.030 E0.33328
G1 X109.868 Y90.030 E0.01708
G1 X102.970 Y83.132 E0.30913
G1 X102.970 Y83.671 E0.01708
G1 X109.329 Y90.030 E0.28498
G1 X108.790 Y90.030 E0.01708
G1 X102.970 Y84.210 E0.26083
G1 X102.970 Y84.748 E0.01708
G1 X108.252 Y90.030 E0.23668
G1 X107.713 Y90.030 E0.01708
G1 X102.970 Y85.287 E0.21253
G1 X102.970 Y85.826 E0.01708
G1 X107.174 Y90.030 E0.18838
G1 X106.635 Y90.030 E0.01708
G1 X102.970 Y86.365 E0.16423
G1 X102.970 Y86.904 E0.01708
G1 X106.096 Y90.030 E0.14008
G1 X105.557 Y90.030 E0.01708
G1 X102.970 Y87.443 E0.11593
G1 X102.970 Y87.982 E0.01708
G1 X105.018 Y90.030 E0.09178
G1 X104.479 Y90.030 E0.01708
G1 X102.970 Y88.521 E0.06763
G1 X102.970 Y89.060 E0.01708
G1 X103.940 Y90.030 E0.04348
G1 X103.401 Y90.030 E0.01708
G1 X102.800 Y89.429 E0.02693
M204 S1000
G1 F8640
G1 X103.401 Y90.030 E-0.19625
G1 X103.940 Y90.030 E-0.12444
G1 X102.970 Y89.060 E-0.31682
G1 X102.970 Y88.529 E-0.12249
G1 E-0.04000 F2100.00000
G1 Z0.800 F10800.000
G1 X128.687 Y97.687
G1 Z0.200
G1 E0.80000 F2100.00000
M204 S20
G1 F1800
G1 X147.313 Y97.687 E0.58400
G1 X147.313 Y112.313 E0.45858
G1 X128.687 Y112.313 E0.58400
G1 X128.687 Y97.747 E0.45670
M204 S1000
G1 X128.310 Y97.310 F10800.000
M204 S20
G1 F1800
G1 X147.690 Y97.310 E0.60765
G1 X147.690 Y112.690 E0.48223
G1 X128.310 Y112.690 E0.60765
G1 X128.310 Y97.370 E0.48035
M204 S1000
G1 X128.700 Y97.399 F10800.000
G1 F8640
G1 X131.601 Y97.360 E-0.76000
G1 E-0.04000 F2100.00000
G1 Z0.800 F10800.000
G1 X128.800 Y111.429
G1 Z0.200
G1 E0.80000 F2100.00000
M204 S20
G1 F1800
G1 X129.401 Y112.030 E0.02693
G1 X129.940 Y112.030 E0.01708
G1 X128.970 Y111.060 E0.04348
G1 X128.970 Y110.521 E0.01708
G1 X130.479 Y112.030 E0.06763
G1 X131.018 Y112.030 E0.01708
G1 X128.970 Y109.982 E0.09178
G1 X128.970 Y109.443 E0.01708
G1 X131.557 Y112.030 E0.11593
G1 X132.096 Y112.030 E0.01708
G1 X128.970 Y108.904 E0.14008
G1 X128.970 Y108.365 E0.01708
G1 X132.635 Y112.030 E0.16423
G1 X133.174 Y112.030 E0.01708
G1 X128.970 Y107.826 E0.18838
G1 X128.970 Y107.287 E0.01708
G1 X133.713 Y112.030 E0.21253
G1 X134.252 Y112.030 E0.01708
G1 X128.970 Y106.748 E0.23668
G1 X128.970 Y106.210 E0.01708
G1 X134.790 Y112.030 E0.26083
G1 X135.329 Y112.030 E0.01708
G1 X128.970 Y105.671 E0.28498
G1 X128.970 Y105.132 E0.01708
G1 X135.868 Y112.030 E0.30913
G1 X136.407 Y112.030 E0.01708
G1 X128.970 Y104.593 E0.33328
G1 X128.970 Y104.054 E0.01708
G1 X136.946 Y112.030 E0.35743
G1 X137.485 Y112.030 E0.01708
G1 X128.970 Y103.515 E0.38158
G1 X128.970 Y102.976 E0.01708
G1 X138.024 Y112.030 E0.40574
G1 X138.563 Y112.030 E0.01708
G1 X128.970 Y102.437 E0.42989
G1 X128.970 Y101.898 E0.01708
G1 X139.102 Y112.030 E0.45404
G1 X139.641 Y112.030 E0.01708
G1 X128.970 Y101.359 E0.47819
G1 X128.970 Y100.820 E0.01708
G1 X140.180 Y112.030 E0.50234
G1 X140.719 Y112.030 E0.01708
G1 X128.970 Y100.281 E0.52649
G1 X128.970 Y99.742 E0.01708
G1 X141.258 Y112.030 E0.55064
G1 X141.797 Y112.030 E0.01708
G1 X128.970 Y99.203 E0.57479
G1 X128.970 Y98.665 E0.01708
G1 X142.335 Y112.030 E0.59894
G1 X142.874 Y112.030 E0.01708
G1 X128.970 Y98.126 E0.62309
G1 X128.970 Y97.970 E0.00494
G1 X129.353 Y97.970 E0.01214
G1 X143.413 Y112.030 E0.63007
G1 X143.952 Y112.030 E0.01708
G1 X129.892 Y97.970 E0.63007
G1 X130.431 Y97.970 E0.01708
G1 X144.491 Y112.030 E0.63007
M73 Q3 S79
M73 P3 R78
G1 X145.030 Y112.030 E0.01708
G1 X130.970 Y97.970 E0.63007
G1 X131.509 Y97.970 E0.01708
G1 X145.569 Y112.030 E0.63007
G1 X146.108 Y112.030 E0.01708
G1 X132.048 Y97.970 E0.63007
G1 X132.587 Y97.970 E0.01708
G1 X146.647 Y112.030 E0.63007
G1 X147.030 Y112.030 E0.01214
G1 X147.030 Y111.874 E0.00493
G1 X133.126 Y97.970 E0.62309
G1 X133.664 Y97.970 E0.01708
G1 X147.030 Y111.336 E0.59894
G1 X147.030 Y110.797 E0.01708
G1 X134.203 Y97.970 E0.57479
G1 X134.742 Y97.970 E0.01708
G1 X147.030 Y110.258 E0.55064
G1 X147.030 Y109.719 E0.01708
G1 X135.281 Y97.970 E0.52649
G1 X135.820 Y97.970 E0.01708
G1 X147.030 Y109.180 E0.50234
G1 X147.030 Y108.641 E0.01708
G1 X136.359 Y97.970 E0.47819
G1 X136.898 Y97.970 E0.01708
G1 X147.030 Y108.102 E0.45404
G1 X147.030 Y107.563 E0.01708
G1 X137.437 Y97.970 E0.42989
G1 X137.976 Y97.970 E0.01708
G1 X147.030 Y107.024 E0.40574
G1 X147.030 Y106.485 E0.01708
G1 X138.515 Y97.970 E0.38159
G1 X139.054 Y97.970 E0.01708
G1 X147.030 Y105.946 E0.35744
G1 X147.030 Y105.407 E0.01708
G1 X139.593 Y97.970 E0.33329
G1 X140.132 Y97.970 E0.01708
G1 X147.030 Y104.868 E0.30914
G1 X147.030 Y104.329 E0.01708
G1 X140.671 Y97.970 E0.28499
G1 X141.209 Y97.970 E0.01708
G1 X147.030 Y103.791 E0.26084
G1 X147.030 Y103.252 E0.01708
G1 X141.748 Y97.970 E0.23669
G1 X142.287 Y97.970 E0.01708
G1 X147.030 Y102.713 E0.21254
G1 X147.030 Y102.174 E0.01708
G1 X142.826 Y97.970 E0.18838
G1 X143.365 Y97.970 E0.01708
G1 X147.030 Y101.635 E0.16423
G1 X147.030 Y101.096 E0.01708
G1 X143.904 Y97.970 E0.14008
G1 X144.443 Y97.970 E0.01708
G1 X147.030 Y100.557 E0.11593
G1 X147.030 Y100.018 E0.01708
