; generated by Slic3r Prusa Edition 1.41.2 on 2019-02-24 at 20:16:51

; 

; external perimeters extrusion width = 0.45mm
; perimeters extrusion width = 0.45mm
; infill extrusion width = 0.45mm
; solid infill extrusion width = 0.45mm
; top infill extrusion width = 0.40mm
; first layer extrusion width = 0.42mm

M73 P0 R163
M73 Q0 S165
M201 X1000 Y1000 Z1000 E5000 ; sets maximum accelerations, mm/sec^2
M203 X200 Y200 Z12 E120 ; sets maximum feedrates, mm/sec
M204 P1250 R1250 T1250 ; sets acceleration (P, T) and retract acceleration (R), mm/sec^2
M205 X8.00 Y8.00 Z0.40 E1.50 ; sets the jerk limits, mm/sec
M205 S0 T0 ; sets the minimum extruding and travel feed rate, mm/sec
M107
M115 U3.4.0 ; tell printer latest fw version
M83  ; extruder relative mode
M104 S140 ; set extruder to warm-up temp
M140 S80 ; set bed temp
M190 S80 ; wait for bed temp
G28 W ; home all without mesh bed level
G80 ; mesh bed leveling
M104 S250 ; set extruder temp
M109 S250 ; wait for extruder temp
G1 Y-3.0 F1000.0 ; go outside print area
G92 E0.0
G1 X60.0 E9.0  F1000.0 ; intro line
M73 Q0 S165
M73 P0 R163
G1 X100.0 E12.5  F1000.0 ; intro line
G92 E0.0
M221 S95
M900 K45; Filament gcode
G21 ; set units to millimeters
G90 ; use absolute coordinates
M83 ; use relative distances for extrusion
;BEFORE_LAYER_CHANGE
G92 E0.0
;0.2


G1 E-0.80000 F2100.00000
G1 Z0.600 F10800.000
;AFTER_LAYER_CHANGE
;0.2
G1 X156.028 Y94.025
G1 Z0.200
G1 E0.80000 F2100.00000
M204 S20
G1 F1800
G1 X157.410 Y92.585 E0.06260
G1 X158.283 Y91.975 E0.03339
G1 X159.737 Y91.268 E0.05068
G1 X160.631 Y91.017 E0.02913
G1 X162.163 Y90.805 E0.04847
G1 X194.532 Y90.798 E1.01492
G1 X196.228 Y91.000 E0.05356
G1 X197.187 Y91.257 E0.03111
G1 X198.732 Y92.010 E0.05389
G1 X199.659 Y92.685 E0.03598
G1 X200.739 Y93.784 E0.04829
G1 X201.385 Y94.746 E0.03634
G1 X202.088 Y96.268 E0.05257
G1 X202.430 Y97.934 E0.05332
G1 X202.490 Y98.734 E0.02515
G1 X202.462 Y118.759 E0.62787
G1 X202.125 Y120.555 E0.05731
G1 X201.401 Y122.155 E0.05505
G1 X200.725 Y123.159 E0.03796
G1 X199.544 Y124.346 E0.05248
G1 X198.680 Y124.952 E0.03311
G1 X197.216 Y125.664 E0.05105
G1 X196.327 Y125.914 E0.02895
G1 X194.790 Y126.127 E0.04865
G1 X162.282 Y126.132 E1.01927
G1 X160.464 Y125.880 E0.05755
G1 X159.251 Y125.455 E0.04030
G1 X157.658 Y124.549 E0.05746
G1 X156.239 Y123.176 E0.06191
G1 X155.661 Y122.348 E0.03165
G1 X154.956 Y120.922 E0.04989
G1 X154.703 Y120.058 E0.02822
G1 X154.477 Y118.585 E0.04673
G1 X154.462 Y98.559 E0.62789
G1 X154.716 Y96.789 E0.05606
G1 X155.143 Y95.589 E0.03994
G1 X155.998 Y94.077 E0.05447
M204 S1000
G1 X156.325 Y94.262 F10800.000
M204 S20
G1 F1800
G1 X157.680 Y92.851 E0.06134
G1 X158.487 Y92.293 E0.03078
G1 X159.889 Y91.614 E0.04882
G1 X160.715 Y91.385 E0.02688
G1 X162.195 Y91.181 E0.04686
G1 X194.532 Y91.175 E1.01389
G1 X196.166 Y91.372 E0.05163
G1 X197.059 Y91.612 E0.02897
G1 X198.542 Y92.335 E0.05174
G1 X199.418 Y92.975 E0.03402
G1 X200.449 Y94.026 E0.04616
G1 X201.057 Y94.932 E0.03419
G1 X201.734 Y96.397 E0.05061
G1 X202.061 Y98.015 E0.05176
G1 X202.113 Y98.737 E0.02270
G1 X202.088 Y118.705 E0.62607
G1 X201.765 Y120.442 E0.05541
G1 X201.066 Y121.983 E0.05306
G1 X200.427 Y122.928 E0.03575
G1 X199.275 Y124.079 E0.05106
G1 X198.474 Y124.635 E0.03058
G1 X197.064 Y125.318 E0.04914
G1 X196.237 Y125.547 E0.02688
G1 X194.757 Y125.751 E0.04685
G1 X162.287 Y125.755 E1.01808
G1 X160.545 Y125.512 E0.05513
G1 X159.407 Y125.112 E0.03784
G1 X157.877 Y124.242 E0.05518
G1 X156.506 Y122.908 E0.05998
G1 X155.978 Y122.143 E0.02915
G1 X155.298 Y120.762 E0.04825
G1 X155.069 Y119.965 E0.02601
G1 X154.851 Y118.540 E0.04519
G1 X154.840 Y98.566 E0.62626
G1 X155.085 Y96.867 E0.05385
G1 X155.488 Y95.741 E0.03749
G1 X156.295 Y94.314 E0.05139
M204 S1000
G1 F8640
G1 X157.680 Y92.851 E-0.46517
G1 X158.487 Y92.293 E-0.22667
G1 X158.753 Y92.164 E-0.06816
G1 E-0.04000 F2100.00000
G1 Z0.800 F10800.000
G1 X158.025 Y93.185
G1 Z0.200
G1 E0.80000 F2100.00000
M204 S20
G1 F1800
G1 X159.992 Y92.085 E0.07067
G1 X162.242 Y91.653 E0.07182
G1 X194.759 Y91.655 E1.01956
G1 X197.186 Y92.166 E0.07778
G1 X198.684 Y92.997 E0.05369
G1 X199.972 Y94.187 E0.05500
G1 X201.121 Y96.106 E0.07012
G1 X201.609 Y98.262 E0.06931
G1 X201.618 Y118.600 E0.63771
G1 X201.296 Y120.344 E0.05558
G1 X200.562 Y121.938 E0.05503
G1 X198.927 Y123.748 E0.07648
G1 X196.960 Y124.847 E0.07065
G1 X194.711 Y125.280 E0.07181
G1 X162.255 Y125.280 E1.01764
G1 X160.368 Y124.973 E0.05994
G1 X158.665 Y124.207 E0.05855
G1 X156.845 Y122.567 E0.07681
G1 X155.745 Y120.600 E0.07067
G1 X155.313 Y118.351 E0.07181
G1 X155.313 Y98.595 E0.61944
G1 X155.619 Y96.708 E0.05994
G1 X156.385 Y95.005 E0.05855
G1 X157.985 Y93.229 E0.07493
M204 S1000
G1 X158.264 Y93.482 F10800.000
M204 S20
G1 F1800
G1 X160.148 Y92.429 E0.06768
G1 X162.259 Y92.030 E0.06737
G1 X194.740 Y92.032 E1.01841
G1 X197.028 Y92.510 E0.07331
G1 X198.481 Y93.315 E0.05206
G1 X199.695 Y94.445 E0.05200
G1 X200.781 Y96.272 E0.06666
G1 X201.237 Y98.323 E0.06587
G1 X201.244 Y118.550 E0.63422
G1 X200.944 Y120.208 E0.05281
G1 X200.231 Y121.753 E0.05336
G1 X198.669 Y123.471 E0.07279
G1 X196.804 Y124.503 E0.06683
G1 X194.693 Y124.902 E0.06736
G1 X162.269 Y124.902 E1.01663
G1 X160.500 Y124.619 E0.05620
G1 X158.847 Y123.876 E0.05682
G1 X157.122 Y122.309 E0.07305
G1 X156.090 Y120.444 E0.06684
G1 X155.690 Y118.333 E0.06736
G1 X155.690 Y98.609 E0.61843
G1 X155.973 Y96.839 E0.05620
G1 X156.717 Y95.187 E0.05682
G1 X158.224 Y93.527 E0.07029
M204 S1000
G1 X158.501 Y93.781 F10800.000
M204 S20
G1 F1800
G1 X158.539 Y93.740 E0.00177
G1 X160.302 Y92.775 E0.06301
G1 X162.276 Y92.407 E0.06296
G1 X194.721 Y92.409 E1.01727
G1 X196.872 Y92.854 E0.06888
G1 X198.241 Y93.607 E0.04899
G1 X199.418 Y94.702 E0.05039
G1 X200.441 Y96.437 E0.06316
G1 X200.864 Y98.383 E0.06243
G1 X200.870 Y118.500 E0.63075
G1 X200.577 Y120.116 E0.05151
G1 X199.902 Y121.567 E0.05018
G1 X198.413 Y123.193 E0.06912
G1 X196.650 Y124.157 E0.06300
G1 X194.676 Y124.525 E0.06296
G1 X162.285 Y124.525 E1.01562
G1 X160.585 Y124.251 E0.05399
G1 X159.030 Y123.545 E0.05353
G1 X157.400 Y122.053 E0.06930
G1 X156.435 Y120.290 E0.06301
G1 X156.067 Y118.316 E0.06295
G1 X156.067 Y98.625 E0.61742
G1 X156.342 Y96.925 E0.05399
G1 X157.047 Y95.370 E0.05353
G1 X158.461 Y93.825 E0.06565
M204 S1000
G1 X158.795 Y94.018 F10800.000
M204 S20
G1 F1800
G1 X160.401 Y93.140 E0.05739
G1 X162.294 Y92.784 E0.06039
G1 X194.702 Y92.786 E1.01613
G1 X196.715 Y93.198 E0.06444
G1 X198.038 Y93.926 E0.04735
G1 X199.140 Y94.958 E0.04732
G1 X200.100 Y96.600 E0.05966
G1 X200.491 Y98.441 E0.05901
G1 X200.495 Y118.451 E0.62738
G1 X200.224 Y119.980 E0.04870
G1 X199.573 Y121.381 E0.04846
G1 X198.157 Y122.914 E0.06542
G1 X196.551 Y123.792 E0.05739
G1 X194.659 Y124.148 E0.06038
G1 X162.299 Y124.148 E1.01460
G1 X160.718 Y123.897 E0.05022
G1 X159.214 Y123.214 E0.05177
G1 X157.678 Y121.797 E0.06552
G1 X156.800 Y120.191 E0.05739
G1 X156.444 Y118.299 E0.06038
G1 X156.444 Y98.639 E0.61640
G1 X156.696 Y97.057 E0.05022
G1 X157.378 Y95.554 E0.05177
G1 X158.755 Y94.062 E0.06364
M204 S1000
G1 X159.030 Y94.319 F10800.000
M204 S20
G1 F1800
G1 X160.554 Y93.486 E0.05444
G1 X162.311 Y93.161 E0.05603
G1 X194.683 Y93.163 E1.01501
G1 X196.560 Y93.543 E0.06004
G1 X197.798 Y94.218 E0.04421
G1 X198.861 Y95.214 E0.04567
G1 X199.758 Y96.762 E0.05611
G1 X200.118 Y98.498 E0.05559
G1 X200.121 Y118.403 E0.62408
G1 X199.872 Y119.844 E0.04586
G1 X199.243 Y121.195 E0.04672
G1 X197.903 Y122.634 E0.06166
G1 X196.399 Y123.446 E0.05360
G1 X194.642 Y123.771 E0.05602
G1 X162.315 Y123.771 E1.01359
G1 X160.803 Y123.529 E0.04800
G1 X159.399 Y122.884 E0.04843
G1 X157.958 Y121.543 E0.06174
G1 X157.146 Y120.039 E0.05360
G1 X156.821 Y118.282 E0.05602
G1 X156.821 Y98.654 E0.61539
G1 X157.064 Y97.143 E0.04800
G1 X157.708 Y95.739 E0.04843
G1 X158.989 Y94.363 E0.05897
M204 S1000
G1 X159.264 Y94.621 F10800.000
M204 S20
G1 F1800
G1 X159.302 Y94.580 E0.00177
G1 X160.704 Y93.833 E0.04981
G1 X162.327 Y93.538 E0.05172
G1 X194.665 Y93.540 E1.01391
G1 X196.405 Y93.888 E0.05564
G1 X197.596 Y94.537 E0.04254
G1 X198.582 Y95.468 E0.04252
G1 X199.416 Y96.923 E0.05256
G1 X199.744 Y98.554 E0.05218
G1 X199.747 Y118.354 E0.62082
G1 X199.505 Y119.754 E0.04455
G1 X198.915 Y121.007 E0.04341
G1 X197.650 Y122.353 E0.05792
G1 X196.248 Y123.099 E0.04981
G1 X194.625 Y123.394 E0.05172
G1 X162.330 Y123.394 E1.01259
G1 X160.890 Y123.161 E0.04575
G1 X159.586 Y122.556 E0.04505
G1 X158.240 Y121.290 E0.05794
G1 X157.493 Y119.888 E0.04981
G1 X157.198 Y118.265 E0.05172
G1 X157.198 Y98.670 E0.61439
G1 X157.432 Y97.229 E0.04575
G1 X158.037 Y95.926 E0.04505
G1 X159.223 Y94.664 E0.05429
M204 S1000
G1 X159.554 Y94.862 F10800.000
M204 S20
G1 F1800
G1 X160.853 Y94.180 E0.04601
G1 X162.344 Y93.915 E0.04747
G1 X194.647 Y93.917 E1.01284
G1 X196.250 Y94.233 E0.05123
G1 X197.393 Y94.856 E0.04083
G1 X198.301 Y95.721 E0.03932
G1 X199.072 Y97.081 E0.04902
G1 X199.371 Y98.608 E0.04878
G1 X199.372 Y118.308 E0.61767
G1 X199.152 Y119.617 E0.04164
G1 X198.587 Y120.819 E0.04162
G1 X197.399 Y122.070 E0.05411
G1 X196.099 Y122.752 E0.04601
G1 X194.609 Y123.017 E0.04747
G1 X162.344 Y123.017 E1.01163
G1 X161.024 Y122.807 E0.04191
G1 X159.773 Y122.227 E0.04324
G1 X158.522 Y121.039 E0.05409
G1 X157.840 Y119.739 E0.04601
G1 X157.575 Y118.249 E0.04747
G1 X157.575 Y98.684 E0.61343
G1 X157.785 Y97.364 E0.04191
G1 X158.365 Y96.113 E0.04324
G1 X159.512 Y94.906 E0.05221
M204 S1000
G1 X159.784 Y95.167 F10800.000
M204 S20
G1 F1800
G1 X161.000 Y94.529 E0.04305
G1 X162.360 Y94.292 E0.04328
G1 X194.629 Y94.294 E1.01178
G1 X196.097 Y94.579 E0.04689
G1 X197.152 Y95.147 E0.03757
G1 X198.020 Y95.975 E0.03761
G1 X198.728 Y97.238 E0.04541
G1 X198.997 Y98.660 E0.04539
G1 X198.998 Y118.263 E0.61463
G1 X198.800 Y119.481 E0.03870
G1 X198.259 Y120.630 E0.03980
G1 X197.149 Y121.785 E0.05024
G1 X195.953 Y122.403 E0.04222
G1 X194.593 Y122.640 E0.04328
G1 X162.360 Y122.640 E1.01065
G1 X161.111 Y122.439 E0.03965
G1 X159.962 Y121.899 E0.03979
G1 X158.807 Y120.789 E0.05024
G1 X158.189 Y119.593 E0.04222
G1 X157.952 Y118.233 E0.04328
G1 X157.952 Y98.699 E0.61245
G1 X158.153 Y97.451 E0.03965
G1 X158.693 Y96.302 E0.03979
G1 X159.742 Y95.210 E0.04749
M204 S1000
G1 X160.051 Y95.433 F10800.000
M204 S20
G1 F1800
G1 X161.144 Y94.878 E0.03843
G1 X162.375 Y94.669 E0.03916
G1 X194.611 Y94.672 E1.01075
G1 X195.946 Y94.925 E0.04259
G1 X196.911 Y95.438 E0.03425
G1 X197.739 Y96.227 E0.03587
G1 X198.383 Y97.392 E0.04174
G1 X198.623 Y98.710 E0.04201
G1 X198.623 Y118.217 E0.61162
G1 X198.432 Y119.394 E0.03737
G1 X197.933 Y120.439 E0.03631
G1 X196.902 Y121.499 E0.04639
G1 X195.809 Y122.054 E0.03843
G1 X194.577 Y122.263 E0.03916
G1 X162.375 Y122.263 E1.00968
M73 Q0 S164
M73 P0 R162
G1 X161.199 Y122.072 E0.03737
G1 X160.154 Y121.573 E0.03630
G1 X159.093 Y120.542 E0.04639
G1 X158.538 Y119.449 E0.03843
G1 X158.329 Y118.217 E0.03916
G1 X158.329 Y98.715 E0.61149
G1 X158.520 Y97.538 E0.03737
G1 X159.019 Y96.494 E0.03630
G1 X160.009 Y95.476 E0.04451
M204 S1000
G1 X160.277 Y95.740 F10800.000
M204 S20
G1 F1800
G1 X161.285 Y95.229 E0.03544
G1 X162.390 Y95.046 E0.03511
G1 X194.594 Y95.049 E1.00975
G1 X195.795 Y95.272 E0.03828
G1 X196.710 Y95.758 E0.03250
G1 X197.456 Y96.479 E0.03252
G1 X198.017 Y97.491 E0.03630
G1 X198.246 Y98.728 E0.03943
G1 X198.246 Y118.203 E0.61063
G1 X198.080 Y119.256 E0.03343
G1 X197.606 Y120.247 E0.03443
G1 X196.656 Y121.212 E0.04245
G1 X195.667 Y121.703 E0.03463
G1 X194.562 Y121.886 E0.03511
G1 X162.389 Y121.886 E1.00876
G1 X161.336 Y121.719 E0.03343
G1 X160.345 Y121.246 E0.03443
G1 X159.381 Y120.296 E0.04245
G1 X158.889 Y119.307 E0.03463
G1 X158.706 Y118.202 E0.03511
G1 X158.706 Y98.729 E0.61056
G1 X158.873 Y97.676 E0.03343
G1 X159.346 Y96.685 E0.03443
G1 X160.235 Y95.783 E0.03972
M204 S1000
G1 X160.539 Y96.010 F10800.000
M204 S20
G1 F1800
G1 X161.424 Y95.580 E0.03084
G1 X162.405 Y95.423 E0.03114
G1 X194.578 Y95.426 E1.00878
G1 X195.644 Y95.619 E0.03397
G1 X196.508 Y96.078 E0.03070
G1 X197.172 Y96.727 E0.02910
G1 X197.672 Y97.644 E0.03273
G1 X197.869 Y98.744 E0.03505
G1 X197.869 Y118.188 E0.60964
G1 X197.712 Y119.168 E0.03114
G1 X197.282 Y120.053 E0.03084
G1 X196.413 Y120.922 E0.03853
G1 X195.528 Y121.352 E0.03084
G1 X194.548 Y121.509 E0.03114
G1 X162.404 Y121.509 E1.00783
G1 X161.424 Y121.352 E0.03114
G1 X160.539 Y120.922 E0.03084
G1 X159.670 Y120.053 E0.03853
G1 X159.240 Y119.168 E0.03084
G1 X159.083 Y118.188 E0.03114
G1 X159.083 Y98.744 E0.60963
G1 X159.240 Y97.764 E0.03114
G1 X159.670 Y96.879 E0.03084
G1 X160.497 Y96.053 E0.03665
M204 S1000
G1 X160.735 Y96.334 F10800.000
M204 S20
G1 F1800
G1 X161.513 Y95.948 E0.02724
G1 X162.420 Y95.800 E0.02880
G1 X194.562 Y95.803 E1.00779
G1 X195.497 Y95.967 E0.02975
G1 X196.265 Y96.368 E0.02718
G1 X196.887 Y96.976 E0.02728
G1 X197.324 Y97.794 E0.02908
G1 X197.492 Y98.760 E0.03073
G1 X197.492 Y118.172 E0.60867
G1 X197.344 Y119.079 E0.02880
G1 X196.958 Y119.857 E0.02724
G1 X196.217 Y120.598 E0.03285
G1 X195.439 Y120.984 E0.02724
G1 X194.532 Y121.132 E0.02880
G1 X162.420 Y121.132 E1.00687
G1 X161.513 Y120.984 E0.02880
G1 X160.735 Y120.598 E0.02724
G1 X159.994 Y119.857 E0.03285
G1 X159.608 Y119.079 E0.02724
G1 X159.461 Y118.172 E0.02880
G1 X159.461 Y98.760 E0.60867
G1 X159.608 Y97.853 E0.02880
G1 X159.994 Y97.075 E0.02724
G1 X160.693 Y96.376 E0.03097
M204 S1000
G1 X160.930 Y96.658 F10800.000
M204 S20
G1 F1800
G1 X161.654 Y96.299 E0.02535
G1 X162.434 Y96.178 E0.02473
G1 X194.547 Y96.180 E1.00688
G1 X195.352 Y96.316 E0.02562
G1 X196.022 Y96.658 E0.02358
G1 X196.601 Y97.224 E0.02539
G1 X196.976 Y97.941 E0.02535
G1 X197.115 Y98.775 E0.02651
G1 X197.115 Y118.158 E0.60776
G1 X196.993 Y118.938 E0.02473
G1 X196.634 Y119.662 E0.02535
G1 X196.022 Y120.274 E0.02713
G1 X195.298 Y120.633 E0.02535
G1 X194.519 Y120.755 E0.02473
G1 X162.434 Y120.755 E1.00599
G1 X161.654 Y120.633 E0.02473
G1 X160.930 Y120.274 E0.02535
G1 X160.318 Y119.662 E0.02713
G1 X159.959 Y118.938 E0.02535
G1 X159.838 Y118.158 E0.02473
G1 X159.838 Y98.774 E0.60780
G1 X159.959 Y97.994 E0.02473
G1 X160.318 Y97.270 E0.02535
G1 X160.888 Y96.700 E0.02525
M204 S1000
; PURGING FINISHED
G1 F8640
G1 X161.654 Y96.299 E-0.19987
G1 X162.434 Y96.178 E-0.18214
G1 X164.071 Y96.178 E-0.37799
G1 E-0.04000 F2100.00000
G1 Z0.800 F10800.000
G1 X162.880 Y119.974
G1 Z0.200
G1 E0.80000 F2100.00000
M204 S20
G1 F1800
G1 X163.133 Y120.290 E0.01855
G1 X163.168 Y120.291 E0.00164
G1 X193.784 Y120.291 E1.40603
G1 X193.820 Y120.290 E0.00164
G1 X194.072 Y119.974 E0.01855
M204 S1000
G1 X194.296 Y120.148 F10800.000
M204 S20
G1 F1800
G1 X194.646 Y120.092 E0.01110
G1 X195.430 Y119.693 E0.02760
G1 X196.053 Y119.070 E0.02760
G1 X196.452 Y118.286 E0.02760
G1 X196.508 Y117.936 E0.01110
G1 X196.716 Y117.952 E0.00656
G1 X196.716 Y118.142 E0.00593
G1 X196.605 Y118.842 E0.02222
G1 X196.295 Y119.451 E0.02145
G1 X195.811 Y119.935 E0.02145
G1 X195.202 Y120.245 E0.02145
G1 X194.502 Y120.356 E0.02222
G1 X194.313 Y120.356 E0.00593
G1 X194.301 Y120.207 E0.00468
M204 S1000
G1 X194.646 Y120.204 F10800.000
G1 F8640
G1 X194.646 Y120.092 E-0.08395
G1 X195.430 Y119.693 E-0.20328
G1 X196.053 Y119.070 E-0.20328
G1 X196.452 Y118.286 E-0.20328
G1 X196.497 Y118.002 E-0.06621
G1 E-0.04000 F2100.00000
G1 Z0.800 F10800.000
G1 X196.335 Y117.712
G1 Z0.200
G1 E0.80000 F2100.00000
M204 S20
G1 F1800
G1 X196.650 Y117.460 E0.01855
G1 X196.651 Y117.424 E0.00164
G1 X196.651 Y99.508 E0.82278
G1 X196.650 Y99.473 E0.00164
G1 X196.335 Y99.220 E0.01854
M204 S1000
G1 X196.508 Y98.996 F10800.000
M204 S20
G1 F1800
G1 X196.452 Y98.647 E0.01110
G1 X196.053 Y97.862 E0.02760
G1 X195.430 Y97.240 E0.02760
G1 X194.646 Y96.840 E0.02760
G1 X194.296 Y96.785 E0.01110
G1 X194.313 Y96.576 E0.00656
G1 X194.502 Y96.576 E0.00593
G1 X195.202 Y96.687 E0.02222
G1 X195.811 Y96.997 E0.02145
G1 X196.295 Y97.481 E0.02145
G1 X196.605 Y98.090 E0.02145
G1 X196.716 Y98.790 E0.02222
G1 X196.716 Y98.980 E0.00593
G1 X196.567 Y98.991 E0.00468
M204 S1000
G1 X196.564 Y98.647 F10800.000
G1 F8640
G1 X196.452 Y98.647 E-0.08394
G1 X196.053 Y97.862 E-0.20328
G1 X195.430 Y97.240 E-0.20328
G1 X194.646 Y96.840 E-0.20328
G1 X194.362 Y96.795 E-0.06622
G1 E-0.04000 F2100.00000
G1 Z0.800 F10800.000
