; generated by Slic3r Prusa Edition 1.41.2 on 2019-02-25 at 08:53:26

; 

; external perimeters extrusion width = 0.45mm
; perimeters extrusion width = 0.45mm
; infill extrusion width = 0.45mm
; solid infill extrusion width = 0.45mm
; top infill extrusion width = 0.40mm
; first layer extrusion width = 0.42mm

M73 P0 R172
M73 Q0 S175
M201 X1000 Y1000 Z1000 E5000 ; sets maximum accelerations, mm/sec^2
M203 X200 Y200 Z12 E120 ; sets maximum feedrates, mm/sec
M204 P1250 R1250 T1250 ; sets acceleration (P, T) and retract acceleration (R), mm/sec^2
M205 X8.00 Y8.00 Z0.40 E1.50 ; sets the jerk limits, mm/sec
M205 S0 T0 ; sets the minimum extruding and travel feed rate, mm/sec
M107
M115 U3.4.0 ; tell printer latest fw version
M83  ; extruder relative mode
M104 S140 ; set extruder to warm-up temp
M140 S80 ; set bed temp
M190 S80 ; wait for bed temp
G28 W ; home all without mesh bed level
G80 ; mesh bed leveling
M104 S250 ; set extruder temp
M109 S250 ; wait for extruder temp
G1 Y-3.0 F1000.0 ; go outside print area
G92 E0.0
G1 X60.0 E9.0  F1000.0 ; intro line
M73 Q0 S175
M73 P0 R172
G1 X100.0 E12.5  F1000.0 ; intro line
G92 E0.0
M221 S95
M900 K45; Filament gcode
G21 ; set units to millimeters
G90 ; use absolute coordinates
M83 ; use relative distances for extrusion
;BEFORE_LAYER_CHANGE
G92 E0.0
;0.2


G1 E-0.80000 F2100.00000
G1 Z0.600 F10800.000
;AFTER_LAYER_CHANGE
;0.2
G1 X154.425 Y93.110
G1 Z0.200
G1 E0.80000 F2100.00000
M204 S20
G1 F1800
G1 X155.201 Y92.064 E0.04084
G1 X157.348 Y90.005 E0.09325
G1 X157.977 Y89.607 E0.02335
G1 X159.877 Y88.637 E0.06688
G1 X161.134 Y88.183 E0.04192
G1 X163.656 Y87.775 E0.08009
G1 X191.257 Y87.736 E0.86541
G1 X194.074 Y88.115 E0.08914
G1 X194.921 Y88.320 E0.02732
G1 X197.486 Y89.555 E0.08926
G1 X198.259 Y90.038 E0.02859
G1 X200.283 Y91.983 E0.08801
G1 X200.866 Y92.684 E0.02859
G1 X202.208 Y95.202 E0.08946
G1 X202.580 Y96.208 E0.03364
G1 X203.067 Y99.416 E0.10175
G1 X203.050 Y115.519 E0.50488
G1 X202.663 Y118.040 E0.07997
G1 X202.397 Y118.978 E0.03057
G1 X201.139 Y121.502 E0.08840
G1 X200.360 Y122.553 E0.04102
G1 X198.205 Y124.618 E0.09360
G1 X197.575 Y125.015 E0.02335
G1 X195.602 Y126.020 E0.06942
G1 X194.320 Y126.457 E0.04246
G1 X191.457 Y126.877 E0.09075
G1 X163.884 Y126.864 E0.86453
G1 X161.340 Y126.476 E0.08069
G1 X160.401 Y126.211 E0.03057
G1 X157.873 Y124.952 E0.08858
G1 X156.826 Y124.177 E0.04084
G1 X154.756 Y122.017 E0.09379
G1 X154.362 Y121.392 E0.02317
G1 X153.361 Y119.430 E0.06906
G1 X152.921 Y118.150 E0.04246
G1 X152.500 Y115.338 E0.08912
G1 X152.530 Y98.925 E0.51464
G1 X152.906 Y96.542 E0.07563
G1 X153.177 Y95.606 E0.03057
G1 X154.399 Y93.163 E0.08562
M204 S1000
G1 F8640
G1 X155.201 Y92.064 E-0.31440
G1 X156.594 Y90.728 E-0.44560
G1 E-0.04000 F2100.00000
G1 Z0.800 F10800.000
G1 X157.575 Y90.306
G1 Z0.200
G1 E0.80000 F2100.00000
M204 S20
G1 F1800
G1 X160.053 Y88.971 E0.08823
G1 X161.235 Y88.547 E0.03940
G1 X163.719 Y88.147 E0.07887
G1 X191.257 Y88.113 E0.86342
G1 X194.015 Y88.487 E0.08728
G1 X194.800 Y88.677 E0.02532
G1 X197.309 Y89.888 E0.08737
G1 X198.032 Y90.339 E0.02671
G1 X200.011 Y92.245 E0.08616
G1 X200.557 Y92.899 E0.02671
G1 X201.868 Y95.365 E0.08756
G1 X202.220 Y96.320 E0.03193
G1 X202.690 Y99.434 E0.09872
G1 X202.674 Y115.481 E0.50315
G1 X202.294 Y117.959 E0.07862
G1 X202.047 Y118.838 E0.02862
G1 X200.813 Y121.313 E0.08671
G1 X200.069 Y122.312 E0.03905
G1 X197.978 Y124.317 E0.09085
G1 X195.434 Y125.683 E0.09051
G1 X194.234 Y126.090 E0.03974
G1 X191.437 Y126.500 E0.08862
G1 X163.927 Y126.489 E0.86258
G1 X161.421 Y126.108 E0.07949
G1 X160.541 Y125.861 E0.02862
G1 X158.061 Y124.625 E0.08689
G1 X157.062 Y123.881 E0.03905
G1 X155.060 Y121.794 E0.09069
G1 X153.699 Y119.262 E0.09015
G1 X153.288 Y118.062 E0.03974
G1 X152.877 Y115.316 E0.08706
G1 X152.903 Y98.980 E0.51221
G1 X153.274 Y96.624 E0.07478
G1 X153.527 Y95.747 E0.02862
G1 X154.752 Y93.299 E0.08584
G1 X155.493 Y92.304 E0.03888
G1 X157.532 Y90.347 E0.08863
M204 S1000
G1 F8640
G1 X160.053 Y88.971 E-0.66312
G1 X160.448 Y88.829 E-0.09688
G1 E-0.04000 F2100.00000
G1 Z0.800 F10800.000
G1 X160.597 Y89.241
G1 Z0.200
G1 E0.80000 F2100.00000
M204 S20
G1 F1800
G1 X164.127 Y88.590 E0.11256
G1 X191.465 Y88.592 E0.85716
G1 X194.950 Y89.236 E0.11113
G1 X197.979 Y90.898 E0.10832
G1 X200.088 Y93.069 E0.09491
G1 X201.526 Y95.735 E0.09497
G1 X202.175 Y98.921 E0.10195
G1 X202.179 Y115.663 E0.52495
G1 X201.646 Y118.538 E0.09168
G1 X200.371 Y121.147 E0.09105
G1 X198.078 Y123.639 E0.10617
G1 X194.970 Y125.374 E0.11161
G1 X191.436 Y126.027 E0.11267
G1 X164.125 Y126.027 E0.85632
G1 X160.509 Y125.346 E0.11536
G1 X157.892 Y123.948 E0.09304
G1 X155.711 Y121.862 E0.09461
G1 X154.021 Y118.837 E0.10865
G1 X153.369 Y115.486 E0.10703
G1 X153.347 Y99.368 E0.50538
G1 X154.028 Y95.752 E0.11538
G1 X155.426 Y93.135 E0.09303
G1 X157.512 Y90.953 E0.09463
G1 X160.544 Y89.270 E0.10874
M204 S1000
G1 X160.726 Y89.600 F10800.000
M204 S20
G1 F1800
G1 X164.144 Y88.967 E0.10897
G1 X191.448 Y88.969 E0.85610
G1 X194.797 Y89.581 E0.10673
G1 X197.728 Y91.182 E0.10472
G1 X199.799 Y93.313 E0.09318
G1 X201.181 Y95.888 E0.09163
G1 X201.801 Y98.977 E0.09878
G1 X201.805 Y115.613 E0.52161
G1 X201.296 Y118.396 E0.08872
G1 X200.044 Y120.956 E0.08936
G1 X197.822 Y123.360 E0.10265
G1 X194.814 Y125.029 E0.10785
G1 X191.419 Y125.650 E0.10821
G1 X164.142 Y125.650 E0.85525
G1 X160.661 Y125.000 E0.11103
G1 X158.093 Y123.627 E0.09131
G1 X155.993 Y121.610 E0.09130
G1 X154.365 Y118.681 E0.10507
G1 X153.743 Y115.433 E0.10368
G1 X153.725 Y99.385 E0.50318
G1 X154.374 Y95.904 E0.11104
G1 X155.746 Y93.335 E0.09130
G1 X157.764 Y91.236 E0.09130
G1 X160.674 Y89.629 E0.10422
M204 S1000
G1 X160.855 Y89.960 F10800.000
M204 S20
G1 F1800
G1 X160.906 Y89.932 E0.00182
G1 X164.160 Y89.344 E0.10369
G1 X191.431 Y89.346 E0.85506
G1 X194.643 Y89.927 E0.10235
G1 X197.479 Y91.466 E0.10113
G1 X199.480 Y93.515 E0.08980
G1 X200.835 Y96.041 E0.08990
G1 X201.428 Y99.032 E0.09558
G1 X201.431 Y115.562 E0.51829
G1 X200.930 Y118.303 E0.08736
G1 X199.718 Y120.765 E0.08605
G1 X197.566 Y123.082 E0.09915
G1 X194.716 Y124.663 E0.10221
G1 X191.402 Y125.272 E0.10564
G1 X164.159 Y125.272 E0.85417
G1 X160.812 Y124.653 E0.10673
G1 X158.335 Y123.337 E0.08795
G1 X156.275 Y121.358 E0.08957
G1 X154.710 Y118.525 E0.10147
G1 X154.116 Y115.381 E0.10034
G1 X154.102 Y99.402 E0.50101
G1 X154.721 Y96.055 E0.10673
G1 X156.036 Y93.578 E0.08794
G1 X158.016 Y91.518 E0.08957
G1 X160.802 Y89.988 E0.09967
M204 S1000
G1 X160.979 Y90.310 F10800.000
M204 S20
G1 F1800
G1 X164.177 Y89.721 E0.10196
G1 X191.415 Y89.723 E0.85401
G1 X194.491 Y90.273 E0.09800
G1 X197.229 Y91.750 E0.09752
G1 X199.191 Y93.759 E0.08805
G1 X200.489 Y96.194 E0.08651
G1 X201.054 Y99.086 E0.09240
G1 X201.057 Y115.512 E0.51502
G1 X200.580 Y118.160 E0.08437
G1 X199.392 Y120.573 E0.08434
G1 X197.311 Y122.802 E0.09561
G1 X194.561 Y124.318 E0.09847
G1 X191.385 Y124.895 E0.10120
G1 X164.176 Y124.895 E0.85312
G1 X160.963 Y124.307 E0.10242
G1 X158.535 Y123.017 E0.08620
G1 X156.558 Y121.107 E0.08621
G1 X155.055 Y118.371 E0.09787
G1 X154.490 Y115.329 E0.09699
G1 X154.479 Y99.419 E0.49886
G1 X155.067 Y96.206 E0.10241
G1 X156.357 Y93.778 E0.08619
G1 X158.267 Y91.800 E0.08621
G1 X160.927 Y90.339 E0.09515
M204 S1000
G1 X161.107 Y90.670 F10800.000
M204 S20
G1 F1800
G1 X161.157 Y90.643 E0.00178
G1 X164.194 Y90.098 E0.09674
G1 X191.398 Y90.100 E0.85298
G1 X194.340 Y90.620 E0.09366
G1 X196.980 Y92.035 E0.09391
G1 X198.871 Y93.960 E0.08462
G1 X200.143 Y96.346 E0.08476
G1 X200.681 Y99.139 E0.08919
G1 X200.683 Y115.462 E0.51180
G1 X200.230 Y118.018 E0.08136
G1 X199.066 Y120.381 E0.08261
G1 X197.057 Y122.522 E0.09205
G1 X194.407 Y123.973 E0.09473
G1 X191.369 Y124.518 E0.09679
G1 X164.193 Y124.518 E0.85207
G1 X161.113 Y123.960 E0.09814
G1 X158.778 Y122.727 E0.08280
G1 X156.840 Y120.856 E0.08446
G1 X155.401 Y118.217 E0.09425
G1 X154.864 Y115.278 E0.09366
G1 X154.856 Y99.435 E0.49675
G1 X155.414 Y96.356 E0.09813
G1 X156.647 Y94.021 E0.08279
G1 X158.518 Y92.083 E0.08446
G1 X161.055 Y90.699 E0.09060
M204 S1000
G1 X161.234 Y91.030 F10800.000
M204 S20
G1 F1800
G1 X161.309 Y90.989 E0.00269
G1 X164.210 Y90.475 E0.09237
G1 X191.382 Y90.477 E0.85194
G1 X194.245 Y90.986 E0.09117
G1 X196.731 Y92.319 E0.08846
G1 X198.583 Y94.205 E0.08286
G1 X199.796 Y96.497 E0.08131
G1 X200.307 Y99.192 E0.08601
G1 X200.308 Y115.413 E0.50860
G1 X199.863 Y117.925 E0.07999
G1 X198.741 Y120.189 E0.07921
G1 X196.804 Y122.241 E0.08850
G1 X194.254 Y123.627 E0.09099
G1 X191.352 Y124.141 E0.09241
G1 X164.210 Y124.141 E0.85104
G1 X161.263 Y123.612 E0.09385
G1 X158.978 Y122.406 E0.08103
G1 X157.124 Y120.606 E0.08103
G1 X155.747 Y118.064 E0.09062
G1 X155.238 Y115.229 E0.09033
G1 X155.233 Y99.452 E0.49467
G1 X155.762 Y96.506 E0.09384
G1 X156.968 Y94.221 E0.08102
G1 X158.768 Y92.366 E0.08104
G1 X161.181 Y91.059 E0.08606
M204 S1000
G1 X161.360 Y91.390 F10800.000
M204 S20
G1 F1800
G1 X161.461 Y91.336 E0.00361
G1 X164.226 Y90.852 E0.08802
G1 X191.366 Y90.854 E0.85093
G1 X194.094 Y91.333 E0.08686
G1 X196.483 Y92.605 E0.08486
G1 X198.262 Y94.406 E0.07938
G1 X199.450 Y96.648 E0.07953
G1 X199.933 Y99.243 E0.08279
G1 X199.934 Y115.364 E0.50546
G1 X199.513 Y117.782 E0.07695
G1 X198.416 Y119.995 E0.07745
G1 X196.551 Y121.959 E0.08491
G1 X194.102 Y123.280 E0.08725
G1 X191.336 Y123.764 E0.08805
G1 X164.226 Y123.764 E0.85002
G1 X161.412 Y123.265 E0.08960
G1 X159.221 Y122.116 E0.07757
G1 X157.408 Y120.355 E0.07926
G1 X156.093 Y117.913 E0.08696
G1 X155.613 Y115.180 E0.08701
G1 X155.610 Y99.468 E0.49263
G1 X156.109 Y96.655 E0.08959
G1 X157.257 Y94.464 E0.07757
G1 X159.018 Y92.650 E0.07926
G1 X161.307 Y91.419 E0.08148
M204 S1000
G1 X161.612 Y91.683 F10800.000
M204 S20
G1 F1800
G1 X164.242 Y91.229 E0.08370
G1 X191.350 Y91.232 E0.84993
G1 X193.945 Y91.681 E0.08259
G1 X196.236 Y92.890 E0.08123
G1 X197.974 Y94.651 E0.07758
G1 X199.102 Y96.797 E0.07602
G1 X199.559 Y99.294 E0.07959
G1 X199.560 Y115.316 E0.50235
G1 X199.146 Y117.690 E0.07556
G1 X198.092 Y119.801 E0.07399
G1 X196.300 Y121.677 E0.08133
G1 X193.952 Y122.933 E0.08350
G1 X191.320 Y123.387 E0.08373
G1 X164.242 Y123.387 E0.84901
G1 X161.561 Y122.917 E0.08534
G1 X159.421 Y121.795 E0.07578
G1 X157.692 Y120.106 E0.07577
G1 X156.440 Y117.763 E0.08331
G1 X155.987 Y115.132 E0.08369
G1 X155.987 Y99.484 E0.49062
G1 X156.457 Y96.804 E0.08533
G1 X157.579 Y94.663 E0.07577
G1 X159.267 Y92.935 E0.07578
G1 X161.559 Y91.711 E0.08144
M73 Q0 S174
M73 P0 R171
M204 S1000
G1 X161.735 Y92.044 F10800.000
M204 S20
G1 F1800
G1 X164.258 Y91.606 E0.08028
G1 X191.334 Y91.609 E0.84895
G1 X193.797 Y92.029 E0.07834
G1 X195.989 Y93.177 E0.07761
G1 X197.654 Y94.852 E0.07403
G1 X198.755 Y96.947 E0.07421
G1 X199.185 Y99.344 E0.07637
G1 X199.185 Y115.268 E0.49930
G1 X198.796 Y117.547 E0.07247
G1 X197.767 Y119.607 E0.07220
G1 X196.049 Y121.394 E0.07774
G1 X193.857 Y122.567 E0.07794
G1 X191.304 Y123.010 E0.08126
G1 X164.258 Y123.010 E0.84800
G1 X161.709 Y122.569 E0.08111
G1 X159.664 Y121.506 E0.07226
G1 X157.977 Y119.857 E0.07396
G1 X156.788 Y117.613 E0.07963
G1 X156.364 Y115.116 E0.07940
G1 X156.364 Y99.500 E0.48963
G1 X156.805 Y96.951 E0.08110
G1 X157.868 Y94.907 E0.07226
G1 X159.516 Y93.219 E0.07397
G1 X161.682 Y92.072 E0.07684
M204 S1000
G1 X161.854 Y92.397 F10800.000
M204 S20
G1 F1800
G1 X164.274 Y91.983 E0.07697
G1 X191.318 Y91.986 E0.84796
G1 X193.650 Y92.377 E0.07412
G1 X195.744 Y93.465 E0.07399
G1 X197.333 Y95.053 E0.07045
G1 X198.407 Y97.096 E0.07237
G1 X198.811 Y99.393 E0.07312
G1 X198.811 Y115.222 E0.49632
G1 X198.446 Y117.404 E0.06935
G1 X197.443 Y119.412 E0.07040
G1 X195.799 Y121.110 E0.07410
G1 X193.708 Y122.220 E0.07423
G1 X191.288 Y122.633 E0.07696
G1 X164.274 Y122.633 E0.84702
G1 X161.857 Y122.221 E0.07688
G1 X159.863 Y121.184 E0.07044
G1 X158.262 Y119.609 E0.07043
G1 X157.154 Y117.520 E0.07414
G1 X156.741 Y115.100 E0.07696
G1 X156.741 Y99.516 E0.48864
G1 X157.153 Y97.099 E0.07687
G1 X158.189 Y95.106 E0.07044
G1 X159.765 Y93.504 E0.07043
G1 X161.801 Y92.425 E0.07227
M204 S1000
G1 X161.976 Y92.758 F10800.000
M204 S20
G1 F1800
G1 X164.289 Y92.360 E0.07358
G1 X191.302 Y92.363 E0.84698
G1 X193.558 Y92.744 E0.07171
G1 X195.499 Y93.753 E0.06859
G1 X197.013 Y95.254 E0.06686
G1 X198.060 Y97.245 E0.07051
G1 X198.436 Y99.440 E0.06985
G1 X198.436 Y115.175 E0.49336
G1 X198.079 Y117.313 E0.06796
G1 X197.120 Y119.216 E0.06682
G1 X195.550 Y120.825 E0.07047
G1 X193.559 Y121.872 E0.07053
G1 X191.273 Y122.256 E0.07270
G1 X164.289 Y122.256 E0.84605
G1 X162.003 Y121.872 E0.07269
G1 X160.107 Y120.895 E0.06686
G1 X158.548 Y119.361 E0.06860
G1 X157.502 Y117.372 E0.07046
G1 X157.118 Y115.085 E0.07270
G1 X157.118 Y99.531 E0.48767
G1 X157.502 Y97.247 E0.07264
G1 X158.511 Y95.305 E0.06860
G1 X160.012 Y93.791 E0.06686
G1 X161.923 Y92.786 E0.06771
M204 S1000
G1 X162.097 Y93.120 F10800.000
M204 S20
G1 F1800
G1 X162.149 Y93.093 E0.00185
G1 X164.304 Y92.738 E0.06848
G1 X191.287 Y92.740 E0.84603
G1 X193.412 Y93.093 E0.06753
G1 X195.254 Y94.041 E0.06497
G1 X196.727 Y95.501 E0.06501
G1 X197.711 Y97.392 E0.06684
G1 X198.062 Y99.487 E0.06660
G1 X198.062 Y115.130 E0.49048
G1 X197.729 Y117.169 E0.06479
G1 X196.796 Y119.020 E0.06497
G1 X195.303 Y120.539 E0.06680
G1 X193.412 Y121.523 E0.06682
G1 X191.258 Y121.879 E0.06848
G1 X164.304 Y121.879 E0.84510
G1 X162.149 Y121.523 E0.06849
G1 X160.306 Y120.574 E0.06501
G1 X158.834 Y119.115 E0.06497
G1 X157.851 Y117.225 E0.06680
G1 X157.495 Y115.070 E0.06848
G1 X157.495 Y99.547 E0.48672
G1 X157.850 Y97.392 E0.06845
G1 X158.799 Y95.550 E0.06497
G1 X160.259 Y94.077 E0.06501
G1 X162.044 Y93.148 E0.06311
M204 S1000
G1 X162.216 Y93.483 F10800.000
M204 S20
G1 F1800
G1 X162.295 Y93.442 E0.00277
G1 X164.319 Y93.115 E0.06429
G1 X191.272 Y93.117 E0.84509
G1 X193.267 Y93.442 E0.06338
G1 X195.010 Y94.330 E0.06131
G1 X196.440 Y95.747 E0.06314
G1 X197.362 Y97.537 E0.06313
G1 X197.687 Y99.532 E0.06337
G1 X197.687 Y115.084 E0.48764
G1 X197.362 Y117.079 E0.06338
G1 X196.474 Y118.822 E0.06131
G1 X195.057 Y120.252 E0.06314
G1 X193.267 Y121.174 E0.06312
G1 X191.243 Y121.502 E0.06429
G1 X164.319 Y121.502 E0.84417
G1 X162.295 Y121.174 E0.06429
G1 X160.505 Y120.252 E0.06314
G1 X159.122 Y118.869 E0.06131
G1 X158.200 Y117.079 E0.06314
G1 X157.872 Y115.055 E0.06429
G1 X157.872 Y99.561 E0.48579
G1 X158.200 Y97.537 E0.06431
G1 X159.088 Y95.794 E0.06131
G1 X160.505 Y94.364 E0.06314
G1 X162.163 Y93.510 E0.05847
M204 S1000
; PURGING FINISHED
G1 F8640
G1 X162.295 Y93.442 E-0.03427
G1 X164.319 Y93.115 E-0.47347
G1 X165.412 Y93.115 E-0.25226
G1 E-0.04000 F2100.00000
G1 Z0.800 F10800.000
G1 X164.335 Y93.513
G1 Z0.200
G1 E0.80000 F2100.00000
M204 S20
G1 F1800
G1 X164.525 Y93.513 E0.00593
G1 X164.541 Y93.722 E0.00656
G1 X163.002 Y93.965 E0.04886
G1 X161.144 Y94.912 E0.06537
G1 X159.670 Y96.386 E0.06537
G1 X158.723 Y98.244 E0.06537
G1 X158.479 Y99.783 E0.04886
G1 X158.271 Y99.767 E0.00656
G1 X158.271 Y99.578 E0.00593
G1 X158.570 Y97.688 E0.05999
G1 X159.428 Y96.005 E0.05921
G1 X160.763 Y94.670 E0.05921
G1 X162.446 Y93.812 E0.05921
G1 X164.276 Y93.523 E0.05811
M204 S1000
G1 X164.447 Y93.666 F10800.000
G1 F8640
G1 X164.525 Y93.513 E-0.05742
G1 X164.541 Y93.722 E-0.04829
G1 X163.002 Y93.965 E-0.35985
G1 X161.866 Y94.544 E-0.29444
G1 E-0.04000 F2100.00000
G1 Z0.800 F10800.000
G1 X164.765 Y120.722
G1 Z0.200
G1 E0.80000 F2100.00000
M204 S20
G1 F1800
G1 X165.017 Y121.037 E0.01854
G1 X165.053 Y121.038 E0.00164
G1 X190.509 Y121.038 E1.16905
G1 X190.544 Y121.037 E0.00164
G1 X190.797 Y120.722 E0.01854
M204 S1000
G1 X191.021 Y120.895 F10800.000
M204 S20
G1 F1800
G1 X192.560 Y120.651 E0.04886
G1 X194.418 Y119.704 E0.06537
G1 X195.892 Y118.230 E0.06537
G1 X196.839 Y116.372 E0.06537
G1 X197.082 Y114.833 E0.04886
G1 X197.291 Y114.850 E0.00656
G1 X197.291 Y115.039 E0.00593
G1 X196.992 Y116.928 E0.05999
G1 X196.134 Y118.611 E0.05921
G1 X194.799 Y119.947 E0.05921
G1 X193.116 Y120.804 E0.05921
G1 X191.227 Y121.103 E0.05999
G1 X191.037 Y121.103 E0.00593
G1 X191.026 Y120.954 E0.00468
M204 S1000
G1 X191.416 Y120.958 F10800.000
G1 F8640
G1 X192.560 Y120.651 E-0.36120
G1 X194.099 Y119.867 E-0.39880
G1 E-0.04000 F2100.00000
G1 Z0.800 F10800.000
