; generated by Slic3r Prusa Edition 1.41.2 on 2019-02-18 at 13:46:09

; 

; external perimeters extrusion width = 0.45mm
; perimeters extrusion width = 0.45mm
; infill extrusion width = 0.45mm
; solid infill extrusion width = 0.45mm
; top infill extrusion width = 0.40mm
; first layer extrusion width = 0.42mm

M73 P0 R19
M73 Q0 S19
M201 X1000 Y1000 Z1000 E5000 ; sets maximum accelerations, mm/sec^2
M203 X200 Y200 Z12 E120 ; sets maximum feedrates, mm/sec
M204 P1250 R1250 T1250 ; sets acceleration (P, T) and retract acceleration (R), mm/sec^2
M205 X8.00 Y8.00 Z0.40 E1.50 ; sets the jerk limits, mm/sec
M205 S0 T0 ; sets the minimum extruding and travel feed rate, mm/sec
M107
M115 U3.4.0 ; tell printer latest fw version
M83  ; extruder relative mode
M104 S140 ; set extruder to warm-up temp
M140 S80 ; set bed temp
M190 S80 ; wait for bed temp
G28 W ; home all without mesh bed level
G80 ; mesh bed leveling
M104 S250 ; set extruder temp
M109 S250 ; wait for extruder temp
G1 Y-3.0 F1000.0 ; go outside print area
G92 E0.0
G1 X60.0 E9.0  F1000.0 ; intro line
M73 Q0 S19
M73 P0 R19
G1 X100.0 E12.5  F1000.0 ; intro line
G92 E0.0
M221 S95
M900 K45; Filament gcode
G21 ; set units to millimeters
G90 ; use absolute coordinates
M83 ; use relative distances for extrusion
;BEFORE_LAYER_CHANGE
G92 E0.0
;0.2


G1 E-0.80000 F2100.00000
G1 Z0.600 F10800.000
;AFTER_LAYER_CHANGE
;0.2
G1 X139.916 Y102.116
G1 Z0.200
G1 E0.80000 F2100.00000
M204 S20
G1 F1800
G1 X140.818 Y101.248 E0.03927
G1 X141.918 Y100.660 E0.03910
G1 X143.141 Y100.390 E0.03927
G1 X174.508 Y100.376 E0.98349
G1 X175.358 Y100.457 E0.02677
G1 X176.178 Y100.694 E0.02677
G1 X176.940 Y101.081 E0.02677
G1 X177.616 Y101.602 E0.02677
G1 X189.309 Y113.396 E0.52075
G1 X189.916 Y114.206 E0.03171
G1 X190.330 Y115.129 E0.03171
G1 X190.490 Y115.800 E0.02166
G1 X190.548 Y116.494 E0.02183
G1 X190.548 Y147.539 E0.97338
G1 X190.459 Y148.420 E0.02776
G1 X190.200 Y149.272 E0.02793
G1 X189.559 Y150.360 E0.03960
G1 X188.645 Y151.232 E0.03960
G1 X187.527 Y151.819 E0.03960
G1 X186.286 Y152.079 E0.03976
G1 X154.935 Y152.088 E0.98299
G1 X154.070 Y151.997 E0.02727
G1 X153.233 Y151.740 E0.02743
G1 X152.474 Y151.338 E0.02694
G1 X151.804 Y150.801 E0.02694
G1 X140.227 Y139.122 E0.51562
G1 X139.553 Y138.232 E0.03500
G1 X139.115 Y137.205 E0.03500
G1 X138.937 Y135.970 E0.03910
G1 X138.937 Y104.920 E0.97355
G1 X139.027 Y104.039 E0.02776
G1 X139.285 Y103.192 E0.02776
G1 X139.885 Y102.168 E0.03722
M204 S1000
G1 X140.209 Y102.359 F10800.000
M204 S20
G1 F1800
G1 X141.054 Y101.543 E0.03683
G1 X142.070 Y101.006 E0.03603
G1 X143.193 Y100.764 E0.03603
G1 X174.508 Y100.753 E0.98184
G1 X175.287 Y100.827 E0.02454
G1 X176.043 Y101.046 E0.02469
G1 X176.745 Y101.404 E0.02469
G1 X177.368 Y101.886 E0.02469
G1 X189.028 Y113.647 E0.51927
G1 X189.591 Y114.397 E0.02943
G1 X189.976 Y115.259 E0.02958
G1 X190.171 Y116.498 E0.03933
G1 X190.171 Y147.538 E0.97325
G1 X190.087 Y148.357 E0.02580
G1 X189.847 Y149.138 E0.02564
G1 X189.256 Y150.136 E0.03635
G1 X188.411 Y150.936 E0.03650
G1 X187.382 Y151.471 E0.03635
G1 X186.241 Y151.704 E0.03650
G1 X154.942 Y151.711 E0.98137
G1 X154.139 Y151.626 E0.02533
G1 X153.367 Y151.388 E0.02533
G1 X152.676 Y151.020 E0.02454
G1 X152.063 Y150.526 E0.02469
G1 X140.499 Y138.861 E0.51499
G1 X139.878 Y138.041 E0.03226
G1 X139.476 Y137.094 E0.03226
G1 X139.314 Y135.961 E0.03587
G1 X139.314 Y104.921 E0.97325
G1 X139.398 Y104.108 E0.02564
G1 X139.638 Y103.326 E0.02564
G1 X140.178 Y102.411 E0.03332
M204 S1000
; PURGING FINISHED
G1 F8640
G1 X141.054 Y101.543 E-0.28462
G1 X142.070 Y101.006 E-0.26535
G1 X142.959 Y100.815 E-0.21003
G1 E-0.04000 F2100.00000
G1 Z0.800 F10800.000
G1 X155.669 Y117.210
G1 Z0.200
G1 E0.80000 F2100.00000
M204 S20
G1 F1800
G1 X160.295 Y117.210 E0.14504
G1 X160.295 Y118.836 E0.05098
G1 X157.295 Y118.836 E0.09406
G1 X157.295 Y145.210 E0.82694
G1 X183.669 Y145.210 E0.82694
G1 X183.669 Y117.210 E0.87792
G1 X185.295 Y117.210 E0.05098
G1 X185.295 Y146.836 E0.92890
G1 X155.669 Y146.836 E0.92890
G1 X155.669 Y117.270 E0.92702
M204 S1000
G1 F8640
G1 X158.961 Y117.227 E-0.76000
G1 E-0.04000 F2100.00000
G1 Z0.800 F10800.000
G1 X157.672 Y119.213
G1 Z0.200
G1 E0.80000 F2100.00000
M204 S20
G1 F1800
G1 X157.672 Y144.833 E0.80330
G1 X183.292 Y144.833 E0.80330
G1 X183.292 Y116.833 E0.87792
G1 X185.672 Y116.833 E0.07462
G1 X185.672 Y147.213 E0.95254
G1 X155.292 Y147.213 E0.95254
G1 X155.292 Y116.833 E0.95254
G1 X160.672 Y116.833 E0.16869
G1 X160.672 Y119.213 E0.07462
G1 X157.732 Y119.213 E0.09218
M204 S1000
G1 X157.282 Y119.302 F10800.000
G1 F8640
G1 X157.725 Y122.504 E-0.76000
G1 E-0.04000 F2100.00000
G1 Z0.800 F10800.000
G1 X159.797 Y117.323
G1 Z0.200
G1 E0.80000 F2100.00000
M204 S20
G1 F1800
G1 X160.013 Y117.539 E0.00960
G1 X160.013 Y118.074 E0.01684
G1 X159.431 Y117.493 E0.02587
G1 X158.896 Y117.493 E0.01684
G1 X159.956 Y118.553 E0.04719
G1 X159.421 Y118.553 E0.01684
G1 X158.361 Y117.493 E0.04719
G1 X157.826 Y117.493 E0.01684
G1 X158.886 Y118.553 E0.04719
G1 X158.351 Y118.553 E0.01684
G1 X157.290 Y117.493 E0.04719
G1 X156.755 Y117.493 E0.01684
G1 X157.815 Y118.553 E0.04719
G1 X157.280 Y118.553 E0.01684
G1 X156.220 Y117.493 E0.04719
G1 X155.952 Y117.493 E0.00842
G1 X155.952 Y117.761 E0.00842
G1 X157.013 Y118.821 E0.04719
G1 X157.013 Y119.356 E0.01684
G1 X155.952 Y118.296 E0.04719
G1 X155.952 Y118.831 E0.01684
G1 X157.013 Y119.891 E0.04719
G1 X157.013 Y120.426 E0.01684
G1 X155.952 Y119.366 E0.04719
G1 X155.952 Y119.901 E0.01684
G1 X157.013 Y120.962 E0.04719
G1 X157.013 Y121.497 E0.01684
G1 X155.952 Y120.437 E0.04719
G1 X155.952 Y120.972 E0.01684
G1 X157.013 Y122.032 E0.04719
G1 X157.013 Y122.567 E0.01684
G1 X155.952 Y121.507 E0.04719
G1 X155.952 Y122.042 E0.01684
G1 X157.013 Y123.103 E0.04719
G1 X157.013 Y123.638 E0.01684
G1 X155.952 Y122.578 E0.04719
G1 X155.952 Y123.113 E0.01684
G1 X157.013 Y124.173 E0.04719
G1 X157.013 Y124.708 E0.01684
G1 X155.952 Y123.648 E0.04719
G1 X155.952 Y124.183 E0.01684
G1 X157.013 Y125.243 E0.04719
G1 X157.013 Y125.779 E0.01684
G1 X155.952 Y124.718 E0.04719
G1 X155.952 Y125.254 E0.01684
G1 X157.013 Y126.314 E0.04719
G1 X157.013 Y126.849 E0.01684
G1 X155.952 Y125.789 E0.04719
G1 X155.952 Y126.324 E0.01684
G1 X157.013 Y127.384 E0.04719
G1 X157.013 Y127.920 E0.01684
G1 X155.952 Y126.859 E0.04719
G1 X155.952 Y127.395 E0.01684
G1 X157.013 Y128.455 E0.04719
G1 X157.013 Y128.990 E0.01684
G1 X155.952 Y127.930 E0.04719
G1 X155.952 Y128.465 E0.01684
G1 X157.013 Y129.525 E0.04719
G1 X157.013 Y130.060 E0.01684
G1 X155.952 Y129.000 E0.04719
G1 X155.952 Y129.535 E0.01684
G1 X157.013 Y130.596 E0.04719
G1 X157.013 Y131.131 E0.01684
G1 X155.952 Y130.071 E0.04719
G1 X155.952 Y130.606 E0.01684
G1 X157.013 Y131.666 E0.04719
G1 X157.013 Y132.201 E0.01684
G1 X155.952 Y131.141 E0.04719
G1 X155.952 Y131.676 E0.01684
G1 X157.013 Y132.737 E0.04719
G1 X157.013 Y133.272 E0.01684
G1 X155.952 Y132.212 E0.04719
G1 X155.952 Y132.747 E0.01684
G1 X157.013 Y133.807 E0.04719
G1 X157.013 Y134.342 E0.01684
G1 X155.952 Y133.282 E0.04719
G1 X155.952 Y133.817 E0.01684
G1 X157.013 Y134.878 E0.04719
G1 X157.013 Y135.413 E0.01684
G1 X155.952 Y134.352 E0.04719
G1 X155.952 Y134.888 E0.01684
G1 X157.013 Y135.948 E0.04719
G1 X157.013 Y136.483 E0.01684
G1 X155.952 Y135.423 E0.04719
G1 X155.952 Y135.958 E0.01684
G1 X157.013 Y137.018 E0.04719
G1 X157.013 Y137.554 E0.01684
G1 X155.952 Y136.493 E0.04719
G1 X155.952 Y137.029 E0.01684
G1 X157.013 Y138.089 E0.04719
G1 X157.013 Y138.624 E0.01684
G1 X155.952 Y137.564 E0.04719
G1 X155.952 Y138.099 E0.01684
G1 X157.013 Y139.159 E0.04719
G1 X157.013 Y139.695 E0.01684
G1 X155.952 Y138.634 E0.04719
G1 X155.952 Y139.169 E0.01684
G1 X157.013 Y140.230 E0.04719
G1 X157.013 Y140.765 E0.01684
G1 X155.952 Y139.705 E0.04719
G1 X155.952 Y140.240 E0.01684
G1 X157.013 Y141.300 E0.04719
G1 X157.013 Y141.835 E0.01684
G1 X155.952 Y140.775 E0.04719
G1 X155.952 Y141.310 E0.01684
G1 X157.013 Y142.371 E0.04719
G1 X157.013 Y142.906 E0.01684
G1 X155.952 Y141.846 E0.04719
G1 X155.952 Y142.381 E0.01684
G1 X157.013 Y143.441 E0.04719
G1 X157.013 Y143.976 E0.01684
G1 X155.952 Y142.916 E0.04719
G1 X155.952 Y143.451 E0.01684
G1 X157.013 Y144.512 E0.04719
G1 X157.013 Y145.047 E0.01684
G1 X155.952 Y143.986 E0.04719
G1 X155.952 Y144.522 E0.01684
G1 X157.984 Y146.553 E0.09041
G1 X158.519 Y146.553 E0.01684
G1 X157.459 Y145.493 E0.04719
G1 X157.994 Y145.493 E0.01684
G1 X159.054 Y146.553 E0.04719
G1 X159.589 Y146.553 E0.01684
G1 X158.529 Y145.493 E0.04719
G1 X159.064 Y145.493 E0.01684
G1 X160.125 Y146.553 E0.04719
G1 X160.660 Y146.553 E0.01684
G1 X159.600 Y145.493 E0.04719
G1 X160.135 Y145.493 E0.01684
G1 X161.195 Y146.553 E0.04719
G1 X161.730 Y146.553 E0.01684
G1 X160.670 Y145.493 E0.04719
G1 X161.205 Y145.493 E0.01684
G1 X162.266 Y146.553 E0.04719
G1 X162.801 Y146.553 E0.01684
G1 X161.741 Y145.493 E0.04719
G1 X162.276 Y145.493 E0.01684
G1 X163.336 Y146.553 E0.04719
G1 X163.871 Y146.553 E0.01684
G1 X162.811 Y145.493 E0.04719
G1 X163.346 Y145.493 E0.01684
G1 X164.406 Y146.553 E0.04719
G1 X164.942 Y146.553 E0.01684
G1 X163.881 Y145.493 E0.04719
G1 X164.417 Y145.493 E0.01684
G1 X165.477 Y146.553 E0.04719
G1 X166.012 Y146.553 E0.01684
G1 X164.952 Y145.493 E0.04719
G1 X165.487 Y145.493 E0.01684
G1 X166.547 Y146.553 E0.04719
G1 X167.083 Y146.553 E0.01684
G1 X166.022 Y145.493 E0.04719
G1 X166.558 Y145.493 E0.01684
G1 X167.618 Y146.553 E0.04719
G1 X168.153 Y146.553 E0.01684
G1 X167.093 Y145.493 E0.04719
G1 X167.628 Y145.493 E0.01684
G1 X168.688 Y146.553 E0.04719
G1 X169.223 Y146.553 E0.01684
G1 X168.163 Y145.493 E0.04719
G1 X168.698 Y145.493 E0.01684
G1 X169.759 Y146.553 E0.04719
M73 Q5 S18
G1 X170.294 Y146.553 E0.01684
G1 X169.234 Y145.493 E0.04719
G1 X169.769 Y145.493 E0.01684
M73 P5 R18
G1 X170.829 Y146.553 E0.04719
G1 X171.364 Y146.553 E0.01684
G1 X170.304 Y145.493 E0.04719
G1 X170.839 Y145.493 E0.01684
G1 X171.900 Y146.553 E0.04719
G1 X172.435 Y146.553 E0.01684
G1 X171.375 Y145.493 E0.04719
G1 X171.910 Y145.493 E0.01684
G1 X172.970 Y146.553 E0.04719
G1 X173.505 Y146.553 E0.01684
G1 X172.445 Y145.493 E0.04719
G1 X172.980 Y145.493 E0.01684
G1 X174.040 Y146.553 E0.04719
G1 X174.576 Y146.553 E0.01684
G1 X173.515 Y145.493 E0.04719
G1 X174.051 Y145.493 E0.01684
G1 X175.111 Y146.553 E0.04719
G1 X175.646 Y146.553 E0.01684
G1 X174.586 Y145.493 E0.04719
G1 X175.121 Y145.493 E0.01684
G1 X176.181 Y146.553 E0.04719
G1 X176.717 Y146.553 E0.01684
G1 X175.656 Y145.493 E0.04719
G1 X176.192 Y145.493 E0.01684
G1 X177.252 Y146.553 E0.04719
G1 X177.787 Y146.553 E0.01684
G1 X176.727 Y145.493 E0.04719
G1 X177.262 Y145.493 E0.01684
G1 X178.322 Y146.553 E0.04719
G1 X178.857 Y146.553 E0.01684
G1 X177.797 Y145.493 E0.04719
G1 X178.332 Y145.493 E0.01684
G1 X179.393 Y146.553 E0.04719
G1 X179.928 Y146.553 E0.01684
G1 X178.868 Y145.493 E0.04719
G1 X179.403 Y145.493 E0.01684
G1 X180.463 Y146.553 E0.04719
G1 X180.998 Y146.553 E0.01684
G1 X179.938 Y145.493 E0.04719
G1 X180.473 Y145.493 E0.01684
G1 X181.534 Y146.553 E0.04719
G1 X182.069 Y146.553 E0.01684
G1 X181.009 Y145.493 E0.04719
G1 X181.544 Y145.493 E0.01684
G1 X182.604 Y146.553 E0.04719
G1 X183.139 Y146.553 E0.01684
G1 X182.079 Y145.493 E0.04719
G1 X182.614 Y145.493 E0.01684
G1 X183.674 Y146.553 E0.04719
G1 X184.210 Y146.553 E0.01684
G1 X183.149 Y145.493 E0.04719
G1 X183.685 Y145.493 E0.01684
G1 X184.745 Y146.553 E0.04719
G1 X185.013 Y146.553 E0.00842
G1 X185.013 Y146.286 E0.00842
G1 X183.952 Y145.225 E0.04719
G1 X183.952 Y144.690 E0.01684
G1 X185.013 Y145.750 E0.04719
G1 X185.013 Y145.215 E0.01684
G1 X183.952 Y144.155 E0.04719
G1 X183.952 Y143.620 E0.01684
G1 X185.013 Y144.680 E0.04719
G1 X185.013 Y144.145 E0.01684
G1 X183.952 Y143.084 E0.04719
G1 X183.952 Y142.549 E0.01684
G1 X185.013 Y143.609 E0.04719
G1 X185.013 Y143.074 E0.01684
G1 X183.952 Y142.014 E0.04719
G1 X183.952 Y141.479 E0.01684
G1 X185.013 Y142.539 E0.04719
G1 X185.013 Y142.004 E0.01684
G1 X183.952 Y140.944 E0.04719
G1 X183.952 Y140.408 E0.01684
G1 X185.013 Y141.469 E0.04719
G1 X185.013 Y140.933 E0.01684
G1 X183.952 Y139.873 E0.04719
G1 X183.952 Y139.338 E0.01684
G1 X185.013 Y140.398 E0.04719
G1 X185.013 Y139.863 E0.01684
G1 X183.952 Y138.803 E0.04719
G1 X183.952 Y138.267 E0.01684
G1 X185.013 Y139.328 E0.04719
G1 X185.013 Y138.792 E0.01684
G1 X183.952 Y137.732 E0.04719
G1 X183.952 Y137.197 E0.01684
G1 X185.013 Y138.257 E0.04719
G1 X185.013 Y137.722 E0.01684
G1 X183.952 Y136.662 E0.04719
G1 X183.952 Y136.127 E0.01684
G1 X185.013 Y137.187 E0.04719
G1 X185.013 Y136.652 E0.01684
G1 X183.952 Y135.591 E0.04719
G1 X183.952 Y135.056 E0.01684
G1 X185.013 Y136.116 E0.04719
G1 X185.013 Y135.581 E0.01684
G1 X183.952 Y134.521 E0.04719
G1 X183.952 Y133.986 E0.01684
G1 X185.013 Y135.046 E0.04719
G1 X185.013 Y134.511 E0.01684
G1 X183.952 Y133.450 E0.04719
G1 X183.952 Y132.915 E0.01684
G1 X185.013 Y133.975 E0.04719
G1 X185.013 Y133.440 E0.01684
G1 X183.952 Y132.380 E0.04719
G1 X183.952 Y131.845 E0.01684
G1 X185.013 Y132.905 E0.04719
G1 X185.013 Y132.370 E0.01684
G1 X183.952 Y131.310 E0.04719
G1 X183.952 Y130.774 E0.01684
G1 X185.013 Y131.835 E0.04719
G1 X185.013 Y131.299 E0.01684
G1 X183.952 Y130.239 E0.04719
G1 X183.952 Y129.704 E0.01684
G1 X185.013 Y130.764 E0.04719
G1 X185.013 Y130.229 E0.01684
G1 X183.952 Y129.169 E0.04719
G1 X183.952 Y128.633 E0.01684
G1 X185.013 Y129.694 E0.04719
G1 X185.013 Y129.158 E0.01684
G1 X183.952 Y128.098 E0.04719
G1 X183.952 Y127.563 E0.01684
G1 X185.013 Y128.623 E0.04719
G1 X185.013 Y128.088 E0.01684
G1 X183.952 Y127.028 E0.04719
G1 X183.952 Y126.493 E0.01684
G1 X185.013 Y127.553 E0.04719
G1 X185.013 Y127.018 E0.01684
G1 X183.952 Y125.957 E0.04719
G1 X183.952 Y125.422 E0.01684
G1 X185.013 Y126.482 E0.04719
G1 X185.013 Y125.947 E0.01684
G1 X183.952 Y124.887 E0.04719
G1 X183.952 Y124.352 E0.01684
G1 X185.013 Y125.412 E0.04719
G1 X185.013 Y124.877 E0.01684
G1 X183.952 Y123.816 E0.04719
G1 X183.952 Y123.281 E0.01684
G1 X185.013 Y124.341 E0.04719
G1 X185.013 Y123.806 E0.01684
G1 X183.952 Y122.746 E0.04719
G1 X183.952 Y122.211 E0.01684
G1 X185.013 Y123.271 E0.04719
G1 X185.013 Y122.736 E0.01684
G1 X183.952 Y121.675 E0.04719
G1 X183.952 Y121.140 E0.01684
G1 X185.013 Y122.201 E0.04719
G1 X185.013 Y121.665 E0.01684
G1 X183.952 Y120.605 E0.04719
G1 X183.952 Y120.070 E0.01684
G1 X185.013 Y121.130 E0.04719
G1 X185.013 Y120.595 E0.01684
G1 X183.952 Y119.535 E0.04719
G1 X183.952 Y118.999 E0.01684
G1 X185.013 Y120.060 E0.04719
G1 X185.013 Y119.524 E0.01684
G1 X183.952 Y118.464 E0.04719
G1 X183.952 Y117.929 E0.01684
G1 X185.013 Y118.989 E0.04719
G1 X185.013 Y118.454 E0.01684
G1 X184.052 Y117.493 E0.04277
G1 X184.587 Y117.493 E0.01684
G1 X185.182 Y118.088 E0.02650
M204 S1000
G1 F8640
G1 X184.587 Y117.493 E-0.19446
G1 X184.052 Y117.493 E-0.12358
G1 X185.013 Y118.454 E-0.31383
G1 X185.013 Y118.989 E-0.12358
G1 X184.999 Y118.975 E-0.00454
G1 E-0.04000 F2100.00000
G1 Z0.800 F10800.000
G1 X157.618 Y146.723
G1 Z0.200
G1 E0.80000 F2100.00000
M204 S20
G1 F1800
G1 X155.952 Y145.057 E0.07414
G1 X155.952 Y145.592 E0.01684
G1 X156.913 Y146.553 E0.04277
G1 X156.378 Y146.553 E0.01684
G1 X155.783 Y145.958 E0.02650
M204 S1000
G1 F8640
G1 X156.378 Y146.553 E-0.19446
G1 X156.913 Y146.553 E-0.12358
G1 X155.952 Y145.592 E-0.31382
G1 X155.952 Y145.057 E-0.12358
G1 X155.966 Y145.071 E-0.00455
G1 E-0.04000 F2100.00000
G1 Z0.800 F10800.000
G1 X145.815 Y135.254
G1 Z0.200
G1 E0.80000 F2100.00000
M204 S20
G1 F1800
G1 X144.190 Y135.254 E0.05098
G1 X144.190 Y105.628 E0.92890
G1 X173.815 Y105.628 E0.92890
G1 X173.815 Y135.254 E0.92890
G1 X169.190 Y135.254 E0.14504
G1 X169.190 Y133.628 E0.05098
G1 X172.190 Y133.628 E0.09406
G1 X172.190 Y107.254 E0.82694
G1 X145.815 Y107.254 E0.82694
G1 X145.815 Y135.194 E0.87604
M204 S1000
G1 F8640
G1 X144.190 Y135.254 E-0.37567
G1 X144.190 Y133.590 E-0.38433
G1 E-0.04000 F2100.00000
G1 Z0.800 F10800.000
G1 X171.812 Y133.251
G1 Z0.200
G1 E0.80000 F2100.00000
M204 S20
G1 F1800
G1 X171.812 Y107.631 E0.80330
G1 X146.192 Y107.631 E0.80330
G1 X146.192 Y135.631 E0.87792
G1 X143.812 Y135.631 E0.07462
G1 X143.812 Y105.251 E0.95254
G1 X174.192 Y105.251 E0.95254
G1 X174.192 Y135.631 E0.95254
G1 X168.812 Y135.631 E0.16869
