; generated by Slic3r Prusa Edition 1.41.2 on 2019-02-18 at 12:39:55

; 

; external perimeters extrusion width = 0.45mm
; perimeters extrusion width = 0.45mm
; infill extrusion width = 0.45mm
; solid infill extrusion width = 0.45mm
; top infill extrusion width = 0.40mm
; first layer extrusion width = 0.42mm

M73 P0 R79
M73 Q0 S80
M201 X1000 Y1000 Z1000 E5000 ; sets maximum accelerations, mm/sec^2
M203 X200 Y200 Z12 E120 ; sets maximum feedrates, mm/sec
M204 P1250 R1250 T1250 ; sets acceleration (P, T) and retract acceleration (R), mm/sec^2
M205 X8.00 Y8.00 Z0.40 E1.50 ; sets the jerk limits, mm/sec
M205 S0 T0 ; sets the minimum extruding and travel feed rate, mm/sec
M107
M115 U3.4.0 ; tell printer latest fw version
M83  ; extruder relative mode
M104 S140 ; set extruder to warm-up temp
M140 S80 ; set bed temp
M190 S80 ; wait for bed temp
G28 W ; home all without mesh bed level
G80 ; mesh bed leveling
M104 S250 ; set extruder temp
M109 S250 ; wait for extruder temp
G1 Y-3.0 F1000.0 ; go outside print area
G92 E0.0
G1 X60.0 E9.0  F1000.0 ; intro line
M73 Q0 S80
M73 P0 R79
G1 X100.0 E12.5  F1000.0 ; intro line
G92 E0.0
M221 S95
M900 K45; Filament gcode
G21 ; set units to millimeters
G90 ; use absolute coordinates
M83 ; use relative distances for extrusion
;BEFORE_LAYER_CHANGE
G92 E0.0
;0.2


G1 E-0.80000 F2100.00000
G1 Z0.600 F10800.000
;AFTER_LAYER_CHANGE
;0.2
G1 X139.258 Y77.128
G1 Z0.200
G1 E0.80000 F2100.00000
M204 S20
G1 F1800
G1 X140.044 Y76.067 E0.04140
G1 X149.772 Y66.331 E0.43153
G1 X150.741 Y65.650 E0.03714
G1 X151.858 Y65.241 E0.03730
G1 X152.848 Y65.130 E0.03122
G1 X197.863 Y65.130 E1.41143
G1 X198.713 Y65.211 E0.02677
G1 X199.529 Y65.447 E0.02661
G1 X200.291 Y65.832 E0.02677
G1 X200.968 Y66.353 E0.02677
G1 X201.536 Y66.990 E0.02677
G1 X201.975 Y67.722 E0.02677
G1 X202.271 Y68.523 E0.02677
G1 X202.412 Y69.366 E0.02677
G1 X202.424 Y126.201 E1.78203
G1 X202.329 Y127.118 E0.02892
G1 X201.920 Y128.280 E0.03861
G1 X201.212 Y129.293 E0.03878
G1 X191.493 Y139.032 E0.43137
G1 X190.789 Y139.602 E0.02842
G1 X189.758 Y140.107 E0.03599
G1 X188.634 Y140.339 E0.03599
G1 X183.223 Y140.352 E0.16966
G1 X182.359 Y140.259 E0.02727
G1 X181.606 Y140.034 E0.02463
G1 X180.898 Y139.681 E0.02480
G1 X180.262 Y139.212 E0.02480
G1 X179.719 Y138.643 E0.02463
G1 X139.547 Y86.914 E2.05360
G1 X138.991 Y85.850 E0.03763
G1 X138.732 Y84.678 E0.03763
G1 X138.716 Y79.229 E0.17085
G1 X138.810 Y78.365 E0.02727
G1 X139.238 Y77.185 E0.03935
M204 S1000
G1 X139.589 Y77.312 F10800.000
M204 S20
G1 F1800
G1 X140.314 Y76.331 E0.03824
G1 X150.018 Y66.617 E0.43052
G1 X150.921 Y65.982 E0.03462
G1 X151.959 Y65.605 E0.03462
G1 X152.847 Y65.507 E0.02801
G1 X197.863 Y65.507 E1.41146
G1 X198.642 Y65.581 E0.02454
G1 X199.399 Y65.801 E0.02469
G1 X200.096 Y66.155 E0.02454
G1 X200.719 Y66.637 E0.02469
G1 X201.238 Y67.222 E0.02454
G1 X201.642 Y67.899 E0.02469
G1 X201.911 Y68.639 E0.02469
G1 X202.037 Y69.416 E0.02469
G1 X202.047 Y126.201 E1.78043
G1 X201.960 Y127.044 E0.02659
G1 X201.582 Y128.113 E0.03556
G1 X200.927 Y129.046 E0.03572
G1 X191.227 Y138.764 E0.43053
G1 X190.584 Y139.286 E0.02596
G1 X189.633 Y139.752 E0.03320
G1 X188.591 Y139.964 E0.03336
G1 X183.231 Y139.975 E0.16806
G1 X182.433 Y139.889 E0.02517
G1 X181.741 Y139.682 E0.02264
G1 X181.095 Y139.360 E0.02264
G1 X180.510 Y138.928 E0.02280
G1 X180.011 Y138.405 E0.02264
G1 X139.856 Y86.698 E2.05271
G1 X139.343 Y85.714 E0.03477
G1 X139.107 Y84.631 E0.03477
G1 X139.093 Y79.237 E0.16913
G1 X139.180 Y78.439 E0.02517
G1 X139.569 Y77.369 E0.03569
M204 S1000
; PURGING FINISHED
G1 F8640
G1 X140.314 Y76.331 E-0.29493
G1 X141.737 Y74.906 E-0.46507
G1 E-0.04000 F2100.00000
G1 Z0.800 F10800.000
G1 X153.545 Y74.008
G1 Z0.200
G1 E0.80000 F2100.00000
M204 S20
G1 F1800
G1 X153.545 Y70.383 E0.11369
G1 X197.171 Y70.383 E1.36786
G1 X197.171 Y125.508 E1.72843
G1 X193.545 Y125.508 E0.11369
G1 X193.545 Y79.411 E1.44536
G1 X188.143 Y74.008 E0.23956
G1 X153.605 Y74.008 E1.08290
M204 S1000
G1 X153.168 Y74.386 F10800.000
M204 S20
G1 F1800
G1 X153.168 Y70.006 E0.13733
G1 X197.548 Y70.006 E1.39150
G1 X197.548 Y125.886 E1.75208
G1 X193.168 Y125.886 E0.13733
G1 X193.168 Y79.567 E1.45228
G1 X187.986 Y74.386 E0.22976
G1 X153.228 Y74.386 E1.08983
M204 S1000
G1 X153.383 Y74.048 F10800.000
G1 F8640
G1 X153.183 Y71.094 E-0.76000
G1 E-0.04000 F2100.00000
G1 Z0.800 F10800.000
G1 X154.170 Y73.895
G1 Z0.200
G1 E0.80000 F2100.00000
M204 S20
G1 F1800
G1 X153.828 Y73.553 E0.01525
G1 X153.828 Y73.017 E0.01686
G1 X154.536 Y73.726 E0.03154
G1 X155.072 Y73.726 E0.01686
G1 X153.828 Y72.482 E0.05539
G1 X153.828 Y71.946 E0.01686
G1 X155.607 Y73.726 E0.07924
G1 X156.143 Y73.726 E0.01686
G1 X153.828 Y71.411 E0.10308
G1 X153.828 Y70.875 E0.01686
G1 X156.678 Y73.726 E0.12693
G1 X157.214 Y73.726 E0.01686
G1 X154.154 Y70.665 E0.13628
G1 X154.689 Y70.665 E0.01686
G1 X157.749 Y73.726 E0.13628
G1 X158.285 Y73.726 E0.01686
G1 X155.225 Y70.665 E0.13628
G1 X155.760 Y70.665 E0.01686
G1 X158.821 Y73.726 E0.13628
G1 X159.356 Y73.726 E0.01686
G1 X156.296 Y70.665 E0.13628
G1 X156.831 Y70.665 E0.01686
G1 X159.892 Y73.726 E0.13628
G1 X160.427 Y73.726 E0.01686
G1 X157.367 Y70.665 E0.13628
G1 X157.902 Y70.665 E0.01686
G1 X160.963 Y73.726 E0.13628
G1 X161.498 Y73.726 E0.01686
G1 X158.438 Y70.665 E0.13628
G1 X158.974 Y70.665 E0.01686
G1 X162.034 Y73.726 E0.13628
G1 X162.569 Y73.726 E0.01686
G1 X159.509 Y70.665 E0.13628
G1 X160.045 Y70.665 E0.01686
G1 X163.105 Y73.726 E0.13628
G1 X163.640 Y73.726 E0.01686
G1 X160.580 Y70.665 E0.13628
G1 X161.116 Y70.665 E0.01686
G1 X164.176 Y73.726 E0.13628
G1 X164.712 Y73.726 E0.01686
G1 X161.651 Y70.665 E0.13628
G1 X162.187 Y70.665 E0.01686
G1 X165.247 Y73.726 E0.13628
G1 X165.783 Y73.726 E0.01686
G1 X162.722 Y70.665 E0.13628
G1 X163.258 Y70.665 E0.01686
G1 X166.318 Y73.726 E0.13628
G1 X166.854 Y73.726 E0.01686
G1 X163.793 Y70.665 E0.13628
G1 X164.329 Y70.665 E0.01686
G1 X167.389 Y73.726 E0.13628
G1 X167.925 Y73.726 E0.01686
G1 X164.865 Y70.665 E0.13628
G1 X165.400 Y70.665 E0.01686
G1 X168.460 Y73.726 E0.13628
G1 X168.996 Y73.726 E0.01686
G1 X165.936 Y70.665 E0.13628
G1 X166.471 Y70.665 E0.01686
G1 X169.531 Y73.726 E0.13628
G1 X170.067 Y73.726 E0.01686
G1 X167.007 Y70.665 E0.13628
G1 X167.542 Y70.665 E0.01686
G1 X170.603 Y73.726 E0.13628
G1 X171.138 Y73.726 E0.01686
G1 X168.078 Y70.665 E0.13628
G1 X168.613 Y70.665 E0.01686
G1 X171.674 Y73.726 E0.13628
G1 X172.209 Y73.726 E0.01686
G1 X169.149 Y70.665 E0.13628
G1 X169.685 Y70.665 E0.01686
G1 X172.745 Y73.726 E0.13628
G1 X173.280 Y73.726 E0.01686
G1 X170.220 Y70.665 E0.13628
G1 X170.756 Y70.665 E0.01686
G1 X173.816 Y73.726 E0.13628
G1 X174.351 Y73.726 E0.01686
G1 X171.291 Y70.665 E0.13628
G1 X171.827 Y70.665 E0.01686
G1 X174.887 Y73.726 E0.13628
G1 X175.423 Y73.726 E0.01686
G1 X172.362 Y70.665 E0.13628
G1 X172.898 Y70.665 E0.01686
G1 X175.958 Y73.726 E0.13628
M73 Q1 S79
M73 P1 R78
G1 X176.494 Y73.726 E0.01686
G1 X173.433 Y70.665 E0.13628
G1 X173.969 Y70.665 E0.01686
G1 X177.029 Y73.726 E0.13628
G1 X177.565 Y73.726 E0.01686
G1 X174.504 Y70.665 E0.13628
G1 X175.040 Y70.665 E0.01686
G1 X178.100 Y73.726 E0.13628
G1 X178.636 Y73.726 E0.01686
G1 X175.576 Y70.665 E0.13628
G1 X176.111 Y70.665 E0.01686
G1 X179.171 Y73.726 E0.13628
G1 X179.707 Y73.726 E0.01686
G1 X176.647 Y70.665 E0.13628
G1 X177.182 Y70.665 E0.01686
G1 X180.242 Y73.726 E0.13628
G1 X180.778 Y73.726 E0.01686
G1 X177.718 Y70.665 E0.13628
G1 X178.253 Y70.665 E0.01686
G1 X181.314 Y73.726 E0.13628
G1 X181.849 Y73.726 E0.01686
G1 X178.789 Y70.665 E0.13628
G1 X179.324 Y70.665 E0.01686
G1 X182.385 Y73.726 E0.13628
G1 X182.920 Y73.726 E0.01686
G1 X179.860 Y70.665 E0.13628
G1 X180.395 Y70.665 E0.01686
G1 X183.456 Y73.726 E0.13628
G1 X183.991 Y73.726 E0.01686
G1 X180.931 Y70.665 E0.13628
G1 X181.467 Y70.665 E0.01686
G1 X184.527 Y73.726 E0.13628
G1 X185.062 Y73.726 E0.01686
G1 X182.002 Y70.665 E0.13628
G1 X182.538 Y70.665 E0.01686
G1 X185.598 Y73.726 E0.13628
G1 X186.133 Y73.726 E0.01686
G1 X183.073 Y70.665 E0.13628
G1 X183.609 Y70.665 E0.01686
G1 X186.669 Y73.726 E0.13628
G1 X187.205 Y73.726 E0.01686
G1 X184.144 Y70.665 E0.13628
G1 X184.680 Y70.665 E0.01686
G1 X187.910 Y73.895 E0.14383
M204 S1000
G1 F8640
G1 X185.582 Y71.568 E-0.76000
G1 E-0.04000 F2100.00000
G1 Z0.800 F10800.000
G1 X197.058 Y71.261
G1 Z0.200
G1 E0.80000 F2100.00000
M204 S20
G1 F1800
G1 X196.462 Y70.665 E0.02654
G1 X195.926 Y70.665 E0.01686
G1 X196.888 Y71.627 E0.04283
G1 X196.888 Y72.163 E0.01686
G1 X195.391 Y70.665 E0.06668
G1 X194.855 Y70.665 E0.01686
G1 X196.888 Y72.698 E0.09053
G1 X196.888 Y73.234 E0.01686
G1 X194.320 Y70.665 E0.11438
G1 X193.784 Y70.665 E0.01686
G1 X196.888 Y73.769 E0.13823
G1 X196.888 Y74.305 E0.01686
G1 X193.249 Y70.665 E0.16207
G1 X192.713 Y70.665 E0.01686
G1 X196.888 Y74.841 E0.18592
G1 X196.888 Y75.376 E0.01686
G1 X192.177 Y70.665 E0.20977
G1 X191.642 Y70.665 E0.01686
G1 X196.888 Y75.912 E0.23362
G1 X196.888 Y76.447 E0.01686
G1 X191.106 Y70.665 E0.25747
G1 X190.571 Y70.665 E0.01686
G1 X196.888 Y76.983 E0.28132
G1 X196.888 Y77.518 E0.01686
G1 X190.035 Y70.665 E0.30517
G1 X189.500 Y70.665 E0.01686
G1 X196.888 Y78.054 E0.32901
G1 X196.888 Y78.589 E0.01686
G1 X188.964 Y70.665 E0.35286
G1 X188.429 Y70.665 E0.01686
G1 X196.888 Y79.125 E0.37671
G1 X196.888 Y79.660 E0.01686
G1 X187.893 Y70.665 E0.40056
G1 X187.358 Y70.665 E0.01686
G1 X196.888 Y80.196 E0.42441
G1 X196.888 Y80.732 E0.01686
G1 X186.822 Y70.665 E0.44826
G1 X186.286 Y70.665 E0.01686
G1 X196.888 Y81.267 E0.47210
G1 X196.888 Y81.803 E0.01686
G1 X185.751 Y70.665 E0.49595
G1 X185.215 Y70.665 E0.01686
G1 X196.888 Y82.338 E0.51980
G1 X196.888 Y82.874 E0.01686
G1 X193.828 Y79.813 E0.13628
G1 X193.828 Y80.349 E0.01686
G1 X196.888 Y83.409 E0.13628
G1 X196.888 Y83.945 E0.01686
G1 X193.828 Y80.885 E0.13628
G1 X193.828 Y81.420 E0.01686
G1 X196.888 Y84.480 E0.13628
G1 X196.888 Y85.016 E0.01686
G1 X193.828 Y81.956 E0.13628
G1 X193.828 Y82.491 E0.01686
G1 X196.888 Y85.552 E0.13628
G1 X196.888 Y86.087 E0.01686
G1 X193.828 Y83.027 E0.13628
G1 X193.828 Y83.562 E0.01686
G1 X196.888 Y86.623 E0.13628
G1 X196.888 Y87.158 E0.01686
G1 X193.828 Y84.098 E0.13628
G1 X193.828 Y84.633 E0.01686
G1 X196.888 Y87.694 E0.13628
G1 X196.888 Y88.229 E0.01686
G1 X193.828 Y85.169 E0.13628
G1 X193.828 Y85.705 E0.01686
G1 X196.888 Y88.765 E0.13628
G1 X196.888 Y89.300 E0.01686
G1 X193.828 Y86.240 E0.13628
G1 X193.828 Y86.776 E0.01686
G1 X196.888 Y89.836 E0.13628
G1 X196.888 Y90.371 E0.01686
G1 X193.828 Y87.311 E0.13628
G1 X193.828 Y87.847 E0.01686
G1 X196.888 Y90.907 E0.13628
G1 X196.888 Y91.443 E0.01686
G1 X193.828 Y88.382 E0.13628
G1 X193.828 Y88.918 E0.01686
G1 X196.888 Y91.978 E0.13628
G1 X196.888 Y92.514 E0.01686
G1 X193.828 Y89.453 E0.13628
G1 X193.828 Y89.989 E0.01686
G1 X196.888 Y93.049 E0.13628
G1 X196.888 Y93.585 E0.01686
G1 X193.828 Y90.524 E0.13628
G1 X193.828 Y91.060 E0.01686
G1 X196.888 Y94.120 E0.13628
G1 X196.888 Y94.656 E0.01686
G1 X193.828 Y91.596 E0.13628
G1 X193.828 Y92.131 E0.01686
G1 X196.888 Y95.191 E0.13628
G1 X196.888 Y95.727 E0.01686
G1 X193.828 Y92.667 E0.13628
G1 X193.828 Y93.202 E0.01686
G1 X196.888 Y96.262 E0.13628
G1 X196.888 Y96.798 E0.01686
G1 X193.828 Y93.738 E0.13628
G1 X193.828 Y94.273 E0.01686
G1 X196.888 Y97.334 E0.13628
G1 X196.888 Y97.869 E0.01686
G1 X193.828 Y94.809 E0.13628
G1 X193.828 Y95.344 E0.01686
G1 X196.888 Y98.405 E0.13628
G1 X196.888 Y98.940 E0.01686
G1 X193.828 Y95.880 E0.13628
G1 X193.828 Y96.415 E0.01686
G1 X196.888 Y99.476 E0.13628
G1 X196.888 Y100.011 E0.01686
G1 X193.828 Y96.951 E0.13628
G1 X193.828 Y97.487 E0.01686
G1 X196.888 Y100.547 E0.13628
G1 X196.888 Y101.082 E0.01686
G1 X193.828 Y98.022 E0.13628
G1 X193.828 Y98.558 E0.01686
G1 X196.888 Y101.618 E0.13628
G1 X196.888 Y102.153 E0.01686
G1 X193.828 Y99.093 E0.13628
G1 X193.828 Y99.629 E0.01686
G1 X196.888 Y102.689 E0.13628
G1 X196.888 Y103.225 E0.01686
G1 X193.828 Y100.164 E0.13628
G1 X193.828 Y100.700 E0.01686
G1 X196.888 Y103.760 E0.13628
G1 X196.888 Y104.296 E0.01686
G1 X193.828 Y101.235 E0.13628
G1 X193.828 Y101.771 E0.01686
G1 X196.888 Y104.831 E0.13628
G1 X196.888 Y105.367 E0.01686
G1 X193.828 Y102.306 E0.13628
G1 X193.828 Y102.842 E0.01686
G1 X196.888 Y105.902 E0.13628
G1 X196.888 Y106.438 E0.01686
G1 X193.828 Y103.378 E0.13628
G1 X193.828 Y103.913 E0.01686
G1 X196.888 Y106.973 E0.13628
G1 X196.888 Y107.509 E0.01686
G1 X193.828 Y104.449 E0.13628
G1 X193.828 Y104.984 E0.01686
G1 X196.888 Y108.044 E0.13628
G1 X196.888 Y108.580 E0.01686
G1 X193.828 Y105.520 E0.13628
G1 X193.828 Y106.055 E0.01686
G1 X196.888 Y109.116 E0.13628
G1 X196.888 Y109.651 E0.01686
G1 X193.828 Y106.591 E0.13628
G1 X193.828 Y107.126 E0.01686
G1 X196.888 Y110.187 E0.13628
G1 X196.888 Y110.722 E0.01686
G1 X193.828 Y107.662 E0.13628
G1 X193.828 Y108.197 E0.01686
G1 X196.888 Y111.258 E0.13628
G1 X196.888 Y111.793 E0.01686
G1 X193.828 Y108.733 E0.13628
G1 X193.828 Y109.269 E0.01686
G1 X196.888 Y112.329 E0.13628
G1 X196.888 Y112.864 E0.01686
G1 X193.828 Y109.804 E0.13628
G1 X193.828 Y110.340 E0.01686
G1 X196.888 Y113.400 E0.13628
G1 X196.888 Y113.935 E0.01686
G1 X193.828 Y110.875 E0.13628
G1 X193.828 Y111.411 E0.01686
G1 X196.888 Y114.471 E0.13628
G1 X196.888 Y115.007 E0.01686
G1 X193.828 Y111.946 E0.13628
G1 X193.828 Y112.482 E0.01686
G1 X196.888 Y115.542 E0.13628
G1 X196.888 Y116.078 E0.01686
G1 X193.828 Y113.017 E0.13628
G1 X193.828 Y113.553 E0.01686
G1 X196.888 Y116.613 E0.13628
G1 X196.888 Y117.149 E0.01686
G1 X193.828 Y114.089 E0.13628
G1 X193.828 Y114.624 E0.01686
G1 X196.888 Y117.684 E0.13628
G1 X196.888 Y118.220 E0.01686
G1 X193.828 Y115.160 E0.13628
G1 X193.828 Y115.695 E0.01686
G1 X196.888 Y118.755 E0.13628
G1 X196.888 Y119.291 E0.01686
G1 X193.828 Y116.231 E0.13628
G1 X193.828 Y116.766 E0.01686
G1 X196.888 Y119.827 E0.13628
G1 X196.888 Y120.362 E0.01686
G1 X193.828 Y117.302 E0.13628
G1 X193.828 Y117.837 E0.01686
G1 X196.888 Y120.898 E0.13628
G1 X196.888 Y121.433 E0.01686
M73 Q2 S78
G1 X193.828 Y118.373 E0.13628
M73 P2 R77
G1 X193.828 Y118.908 E0.01686
G1 X196.888 Y121.969 E0.13628
G1 X196.888 Y122.504 E0.01686
G1 X193.828 Y119.444 E0.13628
G1 X193.828 Y119.980 E0.01686
G1 X196.888 Y123.040 E0.13628
G1 X196.888 Y123.575 E0.01686
G1 X193.828 Y120.515 E0.13628
G1 X193.828 Y121.051 E0.01686
G1 X196.888 Y124.111 E0.13628
G1 X196.888 Y124.646 E0.01686
G1 X193.828 Y121.586 E0.13628
G1 X193.828 Y122.122 E0.01686
G1 X196.888 Y125.182 E0.13628
G1 X196.888 Y125.226 E0.00138
G1 X196.396 Y125.226 E0.01549
G1 X193.828 Y122.657 E0.11437
G1 X193.828 Y123.193 E0.01686
G1 X195.861 Y125.226 E0.09053
G1 X195.325 Y125.226 E0.01686
G1 X193.828 Y123.728 E0.06668
G1 X193.828 Y124.264 E0.01686
G1 X194.790 Y125.226 E0.04283
G1 X194.254 Y125.226 E0.01686
G1 X193.658 Y124.630 E0.02654
M204 S1000
G1 F8640
G1 X194.254 Y125.226 E-0.19459
G1 X194.790 Y125.226 E-0.12366
G1 X193.828 Y124.264 E-0.31406
G1 X193.828 Y123.728 E-0.12366
G1 X193.840 Y123.741 E-0.00403
G1 E-0.04000 F2100.00000
G1 Z0.800 F10800.000
G1 X183.968 Y89.003
G1 Z0.200
G1 E0.80000 F2100.00000
M204 S20
G1 F1800
G1 X178.566 Y83.600 E0.23956
G1 X143.968 Y83.600 E1.08478
G1 X143.968 Y79.974 E0.11369
G1 X187.594 Y79.974 E1.36786
G1 X187.594 Y135.100 E1.72843
G1 X183.968 Y135.100 E0.11369
G1 X183.968 Y89.063 E1.44347
M204 S1000
G1 X183.591 Y89.159 F10800.000
M204 S20
G1 F1800
G1 X178.410 Y83.977 E0.22976
G1 X143.591 Y83.977 E1.09171
G1 X143.591 Y79.597 E0.13733
G1 X187.971 Y79.597 E1.39150
G1 X187.971 Y135.477 E1.75208
G1 X183.591 Y135.477 E0.13733
G1 X183.591 Y89.219 E1.45040
M204 S1000
G1 X183.780 Y88.806 F10800.000
G1 F8640
G1 X181.277 Y86.878 E-0.76000
G1 E-0.04000 F2100.00000
G1 Z0.800 F10800.000
G1 X178.333 Y83.487
G1 Z0.200
G1 E0.80000 F2100.00000
M204 S20
G1 F1800
G1 X175.103 Y80.257 E0.14383
G1 X174.567 Y80.257 E0.01686
G1 X177.628 Y83.317 E0.13628
G1 X177.092 Y83.317 E0.01686
G1 X174.032 Y80.257 E0.13628
G1 X173.496 Y80.257 E0.01686
G1 X176.557 Y83.317 E0.13628
G1 X176.021 Y83.317 E0.01686
G1 X172.961 Y80.257 E0.13628
G1 X172.425 Y80.257 E0.01686
G1 X175.486 Y83.317 E0.13628
G1 X174.950 Y83.317 E0.01686
G1 X171.890 Y80.257 E0.13628
G1 X171.354 Y80.257 E0.01686
G1 X174.414 Y83.317 E0.13628
