; generated by Slic3r Prusa Edition 1.41.2 on 2019-02-17 at 18:13:14

; 

; external perimeters extrusion width = 0.45mm
; perimeters extrusion width = 0.45mm
; infill extrusion width = 0.45mm
; solid infill extrusion width = 0.45mm
; top infill extrusion width = 0.40mm
; support material extrusion width = 0.35mm
; first layer extrusion width = 0.42mm

M73 P0 R28
M73 Q0 S28
M201 X1000 Y1000 Z1000 E5000 ; sets maximum accelerations, mm/sec^2
M203 X200 Y200 Z12 E120 ; sets maximum feedrates, mm/sec
M204 P1250 R1250 T1250 ; sets acceleration (P, T) and retract acceleration (R), mm/sec^2
M205 X8.00 Y8.00 Z0.40 E1.50 ; sets the jerk limits, mm/sec
M205 S0 T0 ; sets the minimum extruding and travel feed rate, mm/sec
M107
M115 U3.4.0 ; tell printer latest fw version
M83  ; extruder relative mode
M104 S140 ; set extruder to warm-up temp
M140 S80 ; set bed temp
M190 S80 ; wait for bed temp
G28 W ; home all without mesh bed level
G80 ; mesh bed leveling
M104 S250 ; set extruder temp
M109 S250 ; wait for extruder temp
G1 Y-3.0 F1000.0 ; go outside print area
G92 E0.0
G1 X60.0 E9.0  F1000.0 ; intro line
M73 Q0 S28
M73 P0 R28
G1 X100.0 E12.5  F1000.0 ; intro line
G92 E0.0
M221 S95
M900 K45; Filament gcode
G21 ; set units to millimeters
G90 ; use absolute coordinates
M83 ; use relative distances for extrusion
;BEFORE_LAYER_CHANGE
G92 E0.0
;0.2


G1 E-0.80000 F2100.00000
G1 Z0.600 F10800.000
;AFTER_LAYER_CHANGE
;0.2
G1 X147.472 Y108.466
G1 Z0.200
G1 E0.80000 F2100.00000
M204 S20
G1 F1800
G1 X147.949 Y107.829 E0.02496
G1 X148.618 Y107.218 E0.02842
G1 X149.395 Y106.750 E0.02842
G1 X150.248 Y106.446 E0.02842
G1 X151.146 Y106.316 E0.02842
G1 X182.354 Y106.311 E0.97853
G1 X183.194 Y106.390 E0.02644
G1 X184.005 Y106.622 E0.02644
G1 X184.759 Y106.999 E0.02644
G1 X185.431 Y107.509 E0.02644
G1 X185.998 Y108.133 E0.02644
G1 X186.441 Y108.851 E0.02644
G1 X186.744 Y109.638 E0.02644
G1 X186.896 Y110.468 E0.02644
G1 X186.912 Y141.035 E0.95841
G1 X186.816 Y141.820 E0.02480
G1 X186.584 Y142.582 E0.02496
G1 X186.227 Y143.287 E0.02480
G1 X185.749 Y143.924 E0.02496
G1 X185.046 Y144.560 E0.02974
G1 X184.232 Y145.036 E0.02957
G1 X183.337 Y145.334 E0.02957
G1 X182.394 Y145.442 E0.02974
G1 X151.196 Y145.440 E0.97820
G1 X150.411 Y145.345 E0.02480
G1 X149.649 Y145.114 E0.02496
G1 X148.939 Y144.754 E0.02496
G1 X148.302 Y144.277 E0.02496
G1 X147.665 Y143.574 E0.02974
G1 X147.190 Y142.759 E0.02957
G1 X146.892 Y141.864 E0.02957
G1 X146.784 Y140.922 E0.02974
G1 X146.786 Y110.718 E0.94701
G1 X146.882 Y109.933 E0.02480
G1 X147.114 Y109.172 E0.02496
G1 X147.444 Y108.520 E0.02291
M204 S1000
G1 F8640
G1 X147.949 Y107.829 E-0.19748
G1 X148.618 Y107.218 E-0.20931
G1 X149.395 Y106.750 E-0.20931
G1 X149.982 Y106.541 E-0.14391
G1 E-0.04000 F2100.00000
G1 Z0.800 F10800.000
G1 X148.860 Y107.508
G1 Z0.200
G1 E0.80000 F2100.00000
M204 S20
G1 F1800
G1 X149.575 Y107.082 E0.02611
G1 X150.356 Y106.807 E0.02596
G1 X151.181 Y106.691 E0.02611
G1 X182.354 Y106.688 E0.97741
G1 X183.123 Y106.760 E0.02422
G1 X183.871 Y106.974 E0.02438
G1 X184.566 Y107.323 E0.02438
G1 X185.184 Y107.794 E0.02438
G1 X185.705 Y108.371 E0.02438
G1 X186.111 Y109.034 E0.02438
G1 X186.386 Y109.761 E0.02438
G1 X186.523 Y110.527 E0.02438
G1 X186.535 Y141.013 E0.95587
G1 X186.448 Y141.740 E0.02296
G1 X186.233 Y142.445 E0.02312
G1 X185.898 Y143.102 E0.02312
G1 X185.452 Y143.690 E0.02312
G1 X184.810 Y144.266 E0.02706
G1 X184.063 Y144.698 E0.02706
G1 X183.243 Y144.969 E0.02706
G1 X182.381 Y145.065 E0.02722
G1 X151.218 Y145.063 E0.97710
G1 X150.486 Y144.975 E0.02312
G1 X149.780 Y144.760 E0.02312
G1 X149.124 Y144.425 E0.02312
G1 X148.536 Y143.980 E0.02312
G1 X147.960 Y143.338 E0.02706
G1 X147.527 Y142.591 E0.02706
G1 X147.257 Y141.771 E0.02706
G1 X147.161 Y140.913 E0.02706
G1 X147.163 Y110.740 E0.94606
G1 X147.250 Y110.013 E0.02296
G1 X147.465 Y109.308 E0.02312
G1 X147.801 Y108.651 E0.02312
G1 X148.246 Y108.064 E0.02312
G1 X148.815 Y107.548 E0.02408
M204 S1000
; PURGING FINISHED
G1 F8640
G1 X149.575 Y107.082 E-0.20592
G1 X150.356 Y106.807 E-0.19115
G1 X151.181 Y106.691 E-0.19232
G1 X151.920 Y106.691 E-0.17061
G1 E-0.04000 F2100.00000
G1 Z0.800 F10800.000
G1 X152.036 Y111.564
G1 Z0.200
G1 E0.80000 F2100.00000
M204 S20
G1 F1800
G1 X181.662 Y111.564 E0.92890
G1 X181.662 Y140.190 E0.89754
G1 X152.036 Y140.190 E0.92890
G1 X152.036 Y111.624 E0.89566
M204 S1000
G1 X151.659 Y111.187 F10800.000
M204 S20
G1 F1800
G1 X182.039 Y111.187 E0.95254
G1 X182.039 Y140.567 E0.92119
G1 X151.659 Y140.567 E0.95254
G1 X151.659 Y111.247 E0.91931
M204 S1000
G1 X152.046 Y111.288 F10800.000
G1 F8640
G1 X154.950 Y111.240 E-0.76000
G1 E-0.04000 F2100.00000
G1 Z0.800 F10800.000
G1 X152.915 Y140.076
G1 Z0.200
G1 E0.80000 F2100.00000
M204 S20
G1 F1800
G1 X152.319 Y139.480 E0.02657
G1 X152.319 Y138.944 E0.01688
G1 X153.282 Y139.907 E0.04289
G1 X153.817 Y139.907 E0.01688
G1 X152.319 Y138.408 E0.06677
G1 X152.319 Y137.872 E0.01688
G1 X154.353 Y139.907 E0.09065
G1 X154.889 Y139.907 E0.01688
G1 X152.319 Y137.337 E0.11452
G1 X152.319 Y136.801 E0.01688
G1 X155.425 Y139.907 E0.13840
G1 X155.961 Y139.907 E0.01688
G1 X152.319 Y136.265 E0.16228
G1 X152.319 Y135.729 E0.01688
G1 X156.497 Y139.907 E0.18616
G1 X157.033 Y139.907 E0.01688
G1 X152.319 Y135.193 E0.21003
G1 X152.319 Y134.657 E0.01688
G1 X157.569 Y139.907 E0.23391
G1 X158.104 Y139.907 E0.01688
G1 X152.319 Y134.121 E0.25779
G1 X152.319 Y133.585 E0.01688
G1 X158.640 Y139.907 E0.28167
G1 X159.176 Y139.907 E0.01688
G1 X152.319 Y133.050 E0.30555
G1 X152.319 Y132.514 E0.01688
G1 X159.712 Y139.907 E0.32942
G1 X160.248 Y139.907 E0.01688
G1 X152.319 Y131.978 E0.35330
G1 X152.319 Y131.442 E0.01688
G1 X160.784 Y139.907 E0.37718
G1 X161.320 Y139.907 E0.01688
G1 X152.319 Y130.906 E0.40106
G1 X152.319 Y130.370 E0.01688
G1 X161.856 Y139.907 E0.42493
G1 X162.391 Y139.907 E0.01688
G1 X152.319 Y129.834 E0.44881
G1 X152.319 Y129.298 E0.01688
G1 X162.927 Y139.907 E0.47269
G1 X163.463 Y139.907 E0.01688
G1 X152.319 Y128.763 E0.49657
G1 X152.319 Y128.227 E0.01688
G1 X163.999 Y139.907 E0.52045
G1 X164.535 Y139.907 E0.01688
G1 X152.319 Y127.691 E0.54432
G1 X152.319 Y127.155 E0.01688
G1 X165.071 Y139.907 E0.56820
G1 X165.607 Y139.907 E0.01688
G1 X152.319 Y126.619 E0.59208
G1 X152.319 Y126.083 E0.01688
G1 X166.143 Y139.907 E0.61596
G1 X166.678 Y139.907 E0.01688
G1 X152.319 Y125.547 E0.63983
G1 X152.319 Y125.011 E0.01688
G1 X167.214 Y139.907 E0.66371
G1 X167.750 Y139.907 E0.01688
G1 X152.319 Y124.475 E0.68759
G1 X152.319 Y123.940 E0.01688
G1 X168.286 Y139.907 E0.71147
G1 X168.822 Y139.907 E0.01688
G1 X152.319 Y123.404 E0.73535
M73 Q3 S27
G1 X152.319 Y122.868 E0.01688
G1 X169.358 Y139.907 E0.75922
M73 P3 R27
G1 X169.894 Y139.907 E0.01688
G1 X152.319 Y122.332 E0.78310
G1 X152.319 Y121.796 E0.01688
G1 X170.430 Y139.907 E0.80698
G1 X170.965 Y139.907 E0.01688
G1 X152.319 Y121.260 E0.83086
G1 X152.319 Y120.724 E0.01688
G1 X171.501 Y139.907 E0.85473
G1 X172.037 Y139.907 E0.01688
G1 X152.319 Y120.188 E0.87861
G1 X152.319 Y119.653 E0.01688
G1 X172.573 Y139.907 E0.90249
G1 X173.109 Y139.907 E0.01688
G1 X152.319 Y119.117 E0.92637
G1 X152.319 Y118.581 E0.01688
G1 X173.645 Y139.907 E0.95025
G1 X174.181 Y139.907 E0.01688
G1 X152.319 Y118.045 E0.97412
G1 X152.319 Y117.509 E0.01688
G1 X174.717 Y139.907 E0.99800
G1 X175.252 Y139.907 E0.01688
G1 X152.319 Y116.973 E1.02188
G1 X152.319 Y116.437 E0.01688
G1 X175.788 Y139.907 E1.04576
G1 X176.324 Y139.907 E0.01688
G1 X152.319 Y115.901 E1.06963
G1 X152.319 Y115.366 E0.01688
G1 X176.860 Y139.907 E1.09351
G1 X177.396 Y139.907 E0.01688
G1 X152.319 Y114.830 E1.11739
G1 X152.319 Y114.294 E0.01688
G1 X177.932 Y139.907 E1.14127
G1 X178.468 Y139.907 E0.01688
G1 X152.319 Y113.758 E1.16514
G1 X152.319 Y113.222 E0.01688
G1 X179.004 Y139.907 E1.18902
G1 X179.539 Y139.907 E0.01688
G1 X152.319 Y112.686 E1.21290
G1 X152.319 Y112.150 E0.01688
G1 X180.075 Y139.907 E1.23678
G1 X180.611 Y139.907 E0.01688
G1 X152.551 Y111.846 E1.25032
G1 X153.087 Y111.846 E0.01688
G1 X181.147 Y139.907 E1.25032
G1 X181.379 Y139.907 E0.00731
G1 X181.379 Y139.603 E0.00957
G1 X153.623 Y111.846 E1.23678
G1 X154.159 Y111.846 E0.01688
G1 X181.379 Y139.067 E1.21291
G1 X181.379 Y138.531 E0.01688
G1 X154.694 Y111.846 E1.18903
G1 X155.230 Y111.846 E0.01688
G1 X181.379 Y137.995 E1.16515
G1 X181.379 Y137.459 E0.01688
G1 X155.766 Y111.846 E1.14127
G1 X156.302 Y111.846 E0.01688
G1 X181.379 Y136.924 E1.11740
G1 X181.379 Y136.388 E0.01688
G1 X156.838 Y111.846 E1.09352
G1 X157.374 Y111.846 E0.01688
G1 X181.379 Y135.852 E1.06964
G1 X181.379 Y135.316 E0.01688
G1 X157.910 Y111.846 E1.04576
M73 Q7 S26
G1 X158.446 Y111.846 E0.01688
G1 X181.379 Y134.780 E1.02188
M73 P7 R26
G1 X181.379 Y134.244 E0.01688
G1 X158.981 Y111.846 E0.99801
G1 X159.517 Y111.846 E0.01688
G1 X181.379 Y133.708 E0.97413
G1 X181.379 Y133.172 E0.01688
G1 X160.053 Y111.846 E0.95025
G1 X160.589 Y111.846 E0.01688
G1 X181.379 Y132.637 E0.92637
G1 X181.379 Y132.101 E0.01688
G1 X161.125 Y111.846 E0.90250
G1 X161.661 Y111.846 E0.01688
G1 X181.379 Y131.565 E0.87862
G1 X181.379 Y131.029 E0.01688
G1 X162.197 Y111.846 E0.85474
G1 X162.733 Y111.846 E0.01688
G1 X181.379 Y130.493 E0.83086
G1 X181.379 Y129.957 E0.01688
G1 X163.268 Y111.846 E0.80698
G1 X163.804 Y111.846 E0.01688
G1 X181.379 Y129.421 E0.78311
G1 X181.379 Y128.885 E0.01688
G1 X164.340 Y111.846 E0.75923
G1 X164.876 Y111.846 E0.01688
G1 X181.379 Y128.350 E0.73535
G1 X181.379 Y127.814 E0.01688
G1 X165.412 Y111.846 E0.71147
G1 X165.948 Y111.846 E0.01688
G1 X181.379 Y127.278 E0.68760
G1 X181.379 Y126.742 E0.01688
G1 X166.484 Y111.846 E0.66372
G1 X167.020 Y111.846 E0.01688
G1 X181.379 Y126.206 E0.63984
G1 X181.379 Y125.670 E0.01688
G1 X167.555 Y111.846 E0.61596
G1 X168.091 Y111.846 E0.01688
G1 X181.379 Y125.134 E0.59208
G1 X181.379 Y124.598 E0.01688
G1 X168.627 Y111.846 E0.56821
G1 X169.163 Y111.846 E0.01688
G1 X181.379 Y124.063 E0.54433
G1 X181.379 Y123.527 E0.01688
G1 X169.699 Y111.846 E0.52045
G1 X170.235 Y111.846 E0.01688
G1 X181.379 Y122.991 E0.49657
G1 X181.379 Y122.455 E0.01688
G1 X170.771 Y111.846 E0.47270
G1 X171.307 Y111.846 E0.01688
G1 X181.379 Y121.919 E0.44882
G1 X181.379 Y121.383 E0.01688
G1 X171.843 Y111.846 E0.42494
G1 X172.378 Y111.846 E0.01688
G1 X181.379 Y120.847 E0.40106
G1 X181.379 Y120.311 E0.01688
G1 X172.914 Y111.846 E0.37718
G1 X173.450 Y111.846 E0.01688
G1 X181.379 Y119.776 E0.35331
G1 X181.379 Y119.240 E0.01688
G1 X173.986 Y111.846 E0.32943
G1 X174.522 Y111.846 E0.01688
G1 X181.379 Y118.704 E0.30555
G1 X181.379 Y118.168 E0.01688
G1 X175.058 Y111.846 E0.28167
G1 X175.594 Y111.846 E0.01688
G1 X181.379 Y117.632 E0.25780
G1 X181.379 Y117.096 E0.01688
G1 X176.130 Y111.846 E0.23392
G1 X176.665 Y111.846 E0.01688
G1 X181.379 Y116.560 E0.21004
G1 X181.379 Y116.024 E0.01688
G1 X177.201 Y111.846 E0.18616
G1 X177.737 Y111.846 E0.01688
G1 X181.379 Y115.489 E0.16228
G1 X181.379 Y114.953 E0.01688
G1 X178.273 Y111.846 E0.13841
G1 X178.809 Y111.846 E0.01688
G1 X181.379 Y114.417 E0.11453
G1 X181.379 Y113.881 E0.01688
G1 X179.345 Y111.846 E0.09065
G1 X179.881 Y111.846 E0.01688
G1 X181.379 Y113.345 E0.06677
G1 X181.379 Y112.809 E0.01688
G1 X180.417 Y111.846 E0.04290
G1 X180.952 Y111.846 E0.01688
G1 X181.549 Y112.443 E0.02658
M204 S1000
;BEFORE_LAYER_CHANGE
G92 E0.0
;0.4


G1 F8640
G1 X180.952 Y111.846 E-0.19478
G1 X180.417 Y111.846 E-0.12374
G1 X181.379 Y112.809 E-0.31436
G1 X181.379 Y113.345 E-0.12374
G1 X181.369 Y113.335 E-0.00339
G1 E-0.04000 F2100.00000
G1 Z0.800 F10800.000
;AFTER_LAYER_CHANGE
;0.4
M140 S90 ; set bed temperature
G1 X186.896 Y110.468
G1 Z0.400
G1 E0.80000 F2100.00000
G1 F3000
G1 X186.912 Y141.035 E0.95841
G1 X186.816 Y141.820 E0.02480
G1 X186.584 Y142.582 E0.02496
G1 X186.227 Y143.287 E0.02480
G1 X185.749 Y143.924 E0.02496
G1 X185.046 Y144.560 E0.02974
G1 X184.232 Y145.036 E0.02957
G1 X183.337 Y145.334 E0.02957
G1 X182.394 Y145.442 E0.02974
G1 X151.196 Y145.440 E0.97820
G1 X150.411 Y145.345 E0.02480
G1 X149.649 Y145.114 E0.02496
G1 X148.939 Y144.754 E0.02496
G1 X148.302 Y144.277 E0.02496
G1 X147.665 Y143.574 E0.02974
G1 X147.190 Y142.759 E0.02957
G1 X146.892 Y141.864 E0.02957
G1 X146.784 Y140.922 E0.02974
G1 X146.786 Y110.718 E0.94701
G1 X146.882 Y109.933 E0.02480
G1 X147.114 Y109.172 E0.02496
G1 X147.472 Y108.466 E0.02480
G1 X147.949 Y107.829 E0.02496
G1 X148.618 Y107.218 E0.02842
G1 X149.395 Y106.750 E0.02842
G1 X150.248 Y106.446 E0.02842
G1 X151.146 Y106.316 E0.02842
G1 X182.354 Y106.311 E0.97853
G1 X183.194 Y106.390 E0.02644
G1 X184.005 Y106.622 E0.02644
G1 X184.759 Y106.999 E0.02644
G1 X185.431 Y107.509 E0.02644
G1 X185.998 Y108.133 E0.02644
G1 X186.441 Y108.851 E0.02644
G1 X186.744 Y109.638 E0.02644
G1 X186.885 Y110.409 E0.02456
G1 X186.514 Y110.475 F10800.000
G1 F3000
G1 X186.535 Y141.013 E0.95750
G1 X186.448 Y141.740 E0.02296
G1 X186.233 Y142.445 E0.02312
G1 X185.898 Y143.102 E0.02312
G1 X185.452 Y143.690 E0.02312
G1 X184.810 Y144.266 E0.02706
G1 X184.063 Y144.698 E0.02706
G1 X183.243 Y144.969 E0.02706
G1 X182.381 Y145.065 E0.02722
G1 X151.218 Y145.063 E0.97710
G1 X150.486 Y144.975 E0.02312
G1 X149.780 Y144.760 E0.02312
G1 X149.124 Y144.425 E0.02312
G1 X148.536 Y143.980 E0.02312
G1 X147.960 Y143.338 E0.02706
G1 X147.527 Y142.591 E0.02706
G1 X147.257 Y141.771 E0.02706
G1 X147.161 Y140.913 E0.02706
G1 X147.163 Y110.740 E0.94606
G1 X147.250 Y110.013 E0.02296
G1 X147.465 Y109.308 E0.02312
G1 X147.801 Y108.651 E0.02312
G1 X148.246 Y108.064 E0.02312
G1 X148.860 Y107.508 E0.02596
G1 X149.575 Y107.082 E0.02611
G1 X150.356 Y106.807 E0.02596
G1 X151.181 Y106.691 E0.02611
G1 X182.354 Y106.688 E0.97741
G1 X183.123 Y106.760 E0.02422
G1 X183.871 Y106.974 E0.02438
G1 X184.566 Y107.323 E0.02438
G1 X185.184 Y107.794 E0.02438
G1 X185.705 Y108.371 E0.02438
G1 X186.111 Y109.034 E0.02438
G1 X186.386 Y109.761 E0.02438
G1 X186.503 Y110.416 E0.02085
; PURGING FINISHED
G1 F8640
G1 X186.507 Y113.707 E-0.76000
G1 E-0.04000 F2100.00000
G1 Z1.000 F10800.000
G1 X181.717 Y111.509
G1 Z0.400
G1 E0.80000 F2100.00000
M204 S800
G1 F2700
G1 X181.717 Y140.245 E0.97267
G1 X151.981 Y140.245 E1.00652
G1 X151.981 Y111.509 E0.97267
G1 X181.657 Y111.509 E1.00449
M204 S1000
G1 X182.124 Y111.102 F10800.000
M204 S800
G1 F2100
G1 X182.124 Y140.652 E1.00023
G1 X151.574 Y140.652 E1.03408
G1 X151.574 Y111.102 E1.00023
M73 Q10 S25
G1 X182.064 Y111.102 E1.03205
M204 S1000
G1 X182.018 Y111.487 F10800.000
G1 F8640
G1 X182.071 Y114.393 E-0.76000
G1 E-0.04000 F2100.00000
G1 Z1.000 F10800.000
G1 X180.765 Y140.122
G1 Z0.400
G1 E0.80000 F2100.00000
M204 S1250
G1 F5845.4
G1 X181.412 Y139.475 E0.03124
G1 X181.412 Y138.895 E0.01982
G1 X180.367 Y139.939 E0.05043
G1 X179.786 Y139.939 E0.01982
G1 X181.412 Y138.314 E0.07847
G1 X181.412 Y137.733 E0.01982
M73 P11 R25
G1 X179.206 Y139.939 E0.10650
G1 X178.625 Y139.939 E0.01982
G1 X181.412 Y137.153 E0.13454
G1 X181.412 Y136.572 E0.01982
G1 X178.045 Y139.939 E0.16257
G1 X177.464 Y139.939 E0.01982
G1 X181.412 Y135.991 E0.19061
G1 X181.412 Y135.411 E0.01982
G1 X176.883 Y139.939 E0.21864
G1 X176.303 Y139.939 E0.01982
G1 X181.412 Y134.830 E0.24667
G1 X181.412 Y134.249 E0.01982
G1 X175.722 Y139.939 E0.27471
G1 X175.141 Y139.939 E0.01982
G1 X181.412 Y133.669 E0.30274
G1 X181.412 Y133.088 E0.01982
G1 X174.561 Y139.939 E0.33078
G1 X173.980 Y139.939 E0.01982
G1 X181.412 Y132.507 E0.35881
G1 X181.412 Y131.927 E0.01982
G1 X173.399 Y139.939 E0.38684
G1 X172.819 Y139.939 E0.01982
G1 X181.412 Y131.346 E0.41488
G1 X181.412 Y130.766 E0.01982
G1 X172.238 Y139.939 E0.44291
G1 X171.657 Y139.939 E0.01982
G1 X181.412 Y130.185 E0.47095
G1 X181.412 Y129.604 E0.01982
G1 X171.077 Y139.939 E0.49898
G1 X170.496 Y139.939 E0.01982
G1 X181.412 Y129.024 E0.52702
G1 X181.412 Y128.443 E0.01982
G1 X169.915 Y139.939 E0.55505
G1 X169.335 Y139.939 E0.01982
G1 X181.412 Y127.862 E0.58308
G1 X181.412 Y127.282 E0.01982
G1 X168.754 Y139.939 E0.61112
G1 X168.174 Y139.939 E0.01982
G1 X181.412 Y126.701 E0.63915
G1 X181.412 Y126.120 E0.01982
G1 X167.593 Y139.939 E0.66719
G1 X167.012 Y139.939 E0.01982
G1 X181.412 Y125.540 E0.69522
G1 X181.412 Y124.959 E0.01982
G1 X166.432 Y139.939 E0.72325
G1 X165.851 Y139.939 E0.01982
G1 X181.412 Y124.378 E0.75129
