; generated by PrusaSlicer 2.0.0 on 2019-08-20 at 23:39:52

; 

; external perimeters extrusion width = 0.45mm
; perimeters extrusion width = 0.45mm
; infill extrusion width = 0.45mm
; solid infill extrusion width = 0.45mm
; top infill extrusion width = 0.40mm
; first layer extrusion width = 0.42mm

M73 P0 R47
M73 Q0 S47
M201 X1000 Y1000 Z1000 E5000 ; sets maximum accelerations, mm/sec^2
M203 X200 Y200 Z12 E120 ; sets maximum feedrates, mm/sec
M204 P1250 R1250 T1250 ; sets acceleration (P, T) and retract acceleration (R), mm/sec^2
M205 X8.00 Y8.00 Z0.40 E1.50 ; sets the jerk limits, mm/sec
M205 S0 T0 ; sets the minimum extruding and travel feed rate, mm/sec
M107
M115 U3.4.0 ; tell printer latest fw version
M83  ; extruder relative mode
M104 S140 ; set extruder to warm-up temp
M140 S85 ; set bed temp
M190 S85 ; wait for bed temp
G28 W ; home all without mesh bed level
G80 ; mesh bed leveling
M104 S230 ; set extruder temp
M109 S230 ; wait for extruder temp
G1 Y-3.0 F1000.0 ; go outside print area
G92 E0.0
G1 X60.0 E9.0  F1000.0 ; intro line
M73 Q0 S47
M73 P0 R47
G1 X100.0 E12.5  F1000.0 ; intro line
G92 E0.0
M221 S95
M900 K45 ; Filament gcode
G21 ; set units to millimeters
G90 ; use absolute coordinates
M83 ; use relative distances for extrusion
;BEFORE_LAYER_CHANGE
G92 E0.0
;0.2


G1 E-0.80000 F2100.00000
G1 Z0.600 F10800.000
;AFTER_LAYER_CHANGE
;0.2
G1 X46.179 Y27.501
G1 Z0.200
G1 E0.80000 F2100.00000
M204 S40
G1 F1800
G1 X46.722 Y26.822 E0.02727
G1 X47.411 Y26.240 E0.02826
G1 X48.200 Y25.804 E0.02826
G1 X49.059 Y25.532 E0.02826
G1 X49.960 Y25.435 E0.02842
G1 X200.005 Y25.434 E4.70456
G1 X200.866 Y25.517 E0.02710
G1 X201.695 Y25.761 E0.02710
G1 X202.464 Y26.156 E0.02710
G1 X203.144 Y26.690 E0.02710
G1 X203.712 Y27.341 E0.02710
G1 X204.149 Y28.094 E0.02727
G1 X204.434 Y28.910 E0.02710
G1 X204.560 Y29.765 E0.02710
G1 X204.565 Y86.100 E1.76636
G1 X204.466 Y86.949 E0.02677
G1 X204.211 Y87.764 E0.02677
G1 X203.812 Y88.513 E0.02661
G1 X203.278 Y89.178 E0.02677
G1 X109.225 Y183.232 E4.17048
G1 X108.353 Y183.913 E0.03467
G1 X107.242 Y184.393 E0.03796
G1 X106.049 Y184.565 E0.03779
G1 X49.952 Y184.565 E1.75887
G1 X49.093 Y184.475 E0.02710
G1 X48.261 Y184.221 E0.02727
G1 X47.496 Y183.818 E0.02710
G1 X46.822 Y183.278 E0.02710
G1 X46.234 Y182.581 E0.02859
G1 X45.796 Y181.781 E0.02859
G1 X45.526 Y180.910 E0.02859
G1 X45.434 Y180.003 E0.02859
G1 X45.435 Y29.963 E4.70440
G1 X45.524 Y29.098 E0.02727
G1 X45.777 Y28.266 E0.02727
G1 X46.151 Y27.554 E0.02522
M204 S1000
G1 X46.484 Y27.729 F10800.000
M204 S40
G1 F1800
G1 X46.997 Y27.080 E0.02594
G1 X47.630 Y26.547 E0.02596
G1 X48.351 Y26.150 E0.02580
G1 X49.140 Y25.901 E0.02596
G1 X49.963 Y25.812 E0.02596
G1 X200.005 Y25.811 E4.70445
G1 X200.794 Y25.887 E0.02485
G1 X201.559 Y26.113 E0.02501
G1 X202.264 Y26.476 E0.02485
G1 X202.891 Y26.969 E0.02501
G1 X203.413 Y27.572 E0.02501
G1 X203.811 Y28.263 E0.02501
G1 X204.072 Y29.017 E0.02501
G1 X204.184 Y29.802 E0.02485
G1 X204.188 Y86.081 E1.76460
G1 X204.099 Y86.863 E0.02469
G1 X203.864 Y87.615 E0.02469
G1 X203.494 Y88.310 E0.02469
G1 X203.003 Y88.920 E0.02454
G1 X108.958 Y182.965 E4.17012
G1 X108.163 Y183.587 E0.03163
G1 X107.141 Y184.030 E0.03493
G1 X106.044 Y184.188 E0.03477
G1 X49.960 Y184.188 E1.75848
G1 X49.166 Y184.105 E0.02501
G1 X48.403 Y183.872 E0.02501
G1 X47.698 Y183.499 E0.02501
G1 X47.080 Y183.003 E0.02485
G1 X46.544 Y182.366 E0.02611
G1 X46.142 Y181.631 E0.02627
G1 X45.895 Y180.830 E0.02627
G1 X45.811 Y180.000 E0.02615
G1 X45.812 Y29.970 E4.70410
G1 X45.893 Y29.176 E0.02501
G1 X46.126 Y28.408 E0.02517
G1 X46.456 Y27.782 E0.02218
M204 S1000
G1 F8640
G1 X46.997 Y27.080 E-0.20470
G1 X47.630 Y26.547 E-0.19115
G1 X48.351 Y26.150 E-0.18999
G1 X49.070 Y25.923 E-0.17415
G1 E-0.04000 F2100.00000
G1 Z0.800 F10800.000
G1 X50.687 Y30.687
G1 Z0.200
G1 E0.80000 F2100.00000
M204 S40
G1 F1800
G1 X199.313 Y30.687 E4.66006
G1 X199.313 Y85.313 E1.71276
G1 X105.313 Y85.313 E2.94730
G1 X105.313 Y179.313 E2.94730
G1 X50.687 Y179.313 E1.71276
G1 X50.687 Y30.747 E4.65818
M73 Q2 S46
M73 P2 R46
M204 S1000
G1 F8640
G1 X53.979 Y30.746 E-0.76000
G1 E-0.04000 F2100.00000
G1 Z0.800 F10800.000
G1 X105.690 Y85.690
G1 Z0.200
G1 E0.80000 F2100.00000
M204 S40
G1 F1800
G1 X105.690 Y179.690 E2.94730
G1 X50.310 Y179.690 E1.73640
G1 X50.310 Y30.310 E4.68371
G1 X199.690 Y30.310 E4.68371
G1 X199.690 Y85.690 E1.73640
G1 X105.750 Y85.690 E2.94542
M204 S1000
G1 X105.296 Y85.761 F10800.000
G1 F8640
G1 X105.748 Y88.981 E-0.76000
G1 E-0.04000 F2100.00000
G1 Z0.800 F10800.000
G1 X199.200 Y31.563
G1 Z0.200
G1 E0.80000 F2100.00000
M204 S40
G1 F1800
G1 X198.606 Y30.970 E0.02635
G1 X198.072 Y30.970 E0.01676
G1 X199.030 Y31.928 E0.04253
G1 X199.030 Y32.462 E0.01676
G1 X197.538 Y30.970 E0.06623
G1 X197.004 Y30.970 E0.01676
G1 X199.030 Y32.996 E0.08994
G1 X199.030 Y33.530 E0.01676
G1 X196.470 Y30.970 E0.11365
G1 X195.936 Y30.970 E0.01676
G1 X199.030 Y34.064 E0.13735
G1 X199.030 Y34.597 E0.01676
G1 X195.403 Y30.970 E0.16106
G1 X194.869 Y30.970 E0.01676
G1 X199.030 Y35.131 E0.18476
G1 X199.030 Y35.665 E0.01676
G1 X194.335 Y30.970 E0.20847
G1 X193.801 Y30.970 E0.01676
G1 X199.030 Y36.199 E0.23218
G1 X199.030 Y36.733 E0.01676
G1 X193.267 Y30.970 E0.25588
G1 X192.733 Y30.970 E0.01676
G1 X199.030 Y37.267 E0.27959
G1 X199.030 Y37.801 E0.01676
G1 X192.199 Y30.970 E0.30329
G1 X191.665 Y30.970 E0.01676
G1 X199.030 Y38.335 E0.32700
G1 X199.030 Y38.869 E0.01676
G1 X191.131 Y30.970 E0.35071
G1 X190.597 Y30.970 E0.01676
G1 X199.030 Y39.403 E0.37441
G1 X199.030 Y39.937 E0.01676
G1 X190.063 Y30.970 E0.39812
G1 X189.529 Y30.970 E0.01676
G1 X199.030 Y40.471 E0.42182
G1 X199.030 Y41.005 E0.01676
G1 X188.995 Y30.970 E0.44553
G1 X188.461 Y30.970 E0.01676
G1 X199.030 Y41.539 E0.46924
G1 X199.030 Y42.073 E0.01676
G1 X187.927 Y30.970 E0.49294
G1 X187.393 Y30.970 E0.01676
G1 X199.030 Y42.607 E0.51665
G1 X199.030 Y43.141 E0.01676
G1 X186.859 Y30.970 E0.54035
G1 X186.325 Y30.970 E0.01676
G1 X199.030 Y43.675 E0.56406
G1 X199.030 Y44.208 E0.01676
G1 X185.792 Y30.970 E0.58777
G1 X185.258 Y30.970 E0.01676
G1 X199.030 Y44.742 E0.61147
G1 X199.030 Y45.276 E0.01676
G1 X184.724 Y30.970 E0.63518
G1 X184.190 Y30.970 E0.01676
G1 X199.030 Y45.810 E0.65888
G1 X199.030 Y46.344 E0.01676
G1 X183.656 Y30.970 E0.68259
G1 X183.122 Y30.970 E0.01676
G1 X199.030 Y46.878 E0.70630
G1 X199.030 Y47.412 E0.01676
G1 X182.588 Y30.970 E0.73000
G1 X182.054 Y30.970 E0.01676
G1 X199.030 Y47.946 E0.75371
G1 X199.030 Y48.480 E0.01676
G1 X181.520 Y30.970 E0.77741
G1 X180.986 Y30.970 E0.01676
G1 X199.030 Y49.014 E0.80112
G1 X199.030 Y49.548 E0.01676
G1 X180.452 Y30.970 E0.82483
G1 X179.918 Y30.970 E0.01676
G1 X199.030 Y50.082 E0.84853
G1 X199.030 Y50.616 E0.01676
G1 X179.384 Y30.970 E0.87224
G1 X178.850 Y30.970 E0.01676
G1 X199.030 Y51.150 E0.89594
G1 X199.030 Y51.684 E0.01676
G1 X178.316 Y30.970 E0.91965
G1 X177.782 Y30.970 E0.01676
G1 X199.030 Y52.218 E0.94336
G1 X199.030 Y52.752 E0.01676
G1 X177.248 Y30.970 E0.96706
M73 Q4 S45
M73 P4 R45
G1 X176.714 Y30.970 E0.01676
G1 X199.030 Y53.286 E0.99077
G1 X199.030 Y53.820 E0.01676
G1 X176.180 Y30.970 E1.01447
G1 X175.647 Y30.970 E0.01676
G1 X199.030 Y54.353 E1.03818
G1 X199.030 Y54.887 E0.01676
G1 X175.113 Y30.970 E1.06189
G1 X174.579 Y30.970 E0.01676
G1 X199.030 Y55.421 E1.08559
G1 X199.030 Y55.955 E0.01676
G1 X174.045 Y30.970 E1.10930
G1 X173.511 Y30.970 E0.01676
G1 X199.030 Y56.489 E1.13300
G1 X199.030 Y57.023 E0.01676
G1 X172.977 Y30.970 E1.15671
G1 X172.443 Y30.970 E0.01676
G1 X199.030 Y57.557 E1.18042
G1 X199.030 Y58.091 E0.01676
G1 X171.909 Y30.970 E1.20412
G1 X171.375 Y30.970 E0.01676
G1 X199.030 Y58.625 E1.22783
G1 X199.030 Y59.159 E0.01676
G1 X170.841 Y30.970 E1.25154
G1 X170.307 Y30.970 E0.01676
G1 X199.030 Y59.693 E1.27524
G1 X199.030 Y60.227 E0.01676
G1 X169.773 Y30.970 E1.29895
G1 X169.239 Y30.970 E0.01676
G1 X199.030 Y60.761 E1.32265
G1 X199.030 Y61.295 E0.01676
G1 X168.705 Y30.970 E1.34636
G1 X168.171 Y30.970 E0.01676
G1 X199.030 Y61.829 E1.37007
G1 X199.030 Y62.363 E0.01676
G1 X167.637 Y30.970 E1.39377
G1 X167.103 Y30.970 E0.01676
G1 X199.030 Y62.897 E1.41748
G1 X199.030 Y63.431 E0.01676
G1 X166.569 Y30.970 E1.44118
G1 X166.036 Y30.970 E0.01676
G1 X199.030 Y63.964 E1.46489
G1 X199.030 Y64.498 E0.01676
G1 X165.502 Y30.970 E1.48860
G1 X164.968 Y30.970 E0.01676
G1 X199.030 Y65.032 E1.51230
G1 X199.030 Y65.566 E0.01676
G1 X164.434 Y30.970 E1.53601
G1 X163.900 Y30.970 E0.01676
G1 X199.030 Y66.100 E1.55971
G1 X199.030 Y66.634 E0.01676
G1 X163.366 Y30.970 E1.58342
G1 X162.832 Y30.970 E0.01676
G1 X199.030 Y67.168 E1.60713
G1 X199.030 Y67.702 E0.01676
G1 X162.298 Y30.970 E1.63083
G1 X161.764 Y30.970 E0.01676
G1 X199.030 Y68.236 E1.65454
G1 X199.030 Y68.770 E0.01676
G1 X161.230 Y30.970 E1.67824
G1 X160.696 Y30.970 E0.01676
G1 X199.030 Y69.304 E1.70195
G1 X199.030 Y69.838 E0.01676
G1 X160.162 Y30.970 E1.72566
G1 X159.628 Y30.970 E0.01676
G1 X199.030 Y70.372 E1.74936
M73 Q6 S44
M73 P6 R44
G1 X199.030 Y70.906 E0.01676
G1 X159.094 Y30.970 E1.77307
G1 X158.560 Y30.970 E0.01676
G1 X199.030 Y71.440 E1.79677
G1 X199.030 Y71.974 E0.01676
G1 X158.026 Y30.970 E1.82048
G1 X157.492 Y30.970 E0.01676
G1 X199.030 Y72.508 E1.84419
G1 X199.030 Y73.042 E0.01676
G1 X156.958 Y30.970 E1.86789
G1 X156.424 Y30.970 E0.01676
G1 X199.030 Y73.576 E1.89160
G1 X199.030 Y74.109 E0.01676
G1 X155.891 Y30.970 E1.91530
G1 X155.357 Y30.970 E0.01676
G1 X199.030 Y74.643 E1.93901
G1 X199.030 Y75.177 E0.01676
G1 X154.823 Y30.970 E1.96272
G1 X154.289 Y30.970 E0.01676
G1 X199.030 Y75.711 E1.98642
G1 X199.030 Y76.245 E0.01676
G1 X153.755 Y30.970 E2.01013
G1 X153.221 Y30.970 E0.01676
G1 X199.030 Y76.779 E2.03383
G1 X199.030 Y77.313 E0.01676
G1 X152.687 Y30.970 E2.05754
G1 X152.153 Y30.970 E0.01676
G1 X199.030 Y77.847 E2.08125
G1 X199.030 Y78.381 E0.01676
G1 X151.619 Y30.970 E2.10495
G1 X151.085 Y30.970 E0.01676
G1 X199.030 Y78.915 E2.12866
G1 X199.030 Y79.449 E0.01676
G1 X150.551 Y30.970 E2.15236
G1 X150.017 Y30.970 E0.01676
G1 X199.030 Y79.983 E2.17607
G1 X199.030 Y80.517 E0.01676
G1 X149.483 Y30.970 E2.19978
G1 X148.949 Y30.970 E0.01676
G1 X199.030 Y81.051 E2.22348
G1 X199.030 Y81.585 E0.01676
G1 X148.415 Y30.970 E2.24719
G1 X147.881 Y30.970 E0.01676
G1 X199.030 Y82.119 E2.27090
G1 X199.030 Y82.653 E0.01676
G1 X147.347 Y30.970 E2.29460
G1 X146.813 Y30.970 E0.01676
G1 X199.030 Y83.187 E2.31831
M73 Q9 S43
M73 P9 R43
G1 X199.030 Y83.721 E0.01676
G1 X146.279 Y30.970 E2.34201
G1 X145.746 Y30.970 E0.01676
G1 X199.030 Y84.254 E2.36572
G1 X199.030 Y84.788 E0.01676
G1 X145.212 Y30.970 E2.38943
G1 X144.678 Y30.970 E0.01676
G1 X198.738 Y85.030 E2.40016
G1 X198.204 Y85.030 E0.01676
G1 X144.144 Y30.970 E2.40016
G1 X143.610 Y30.970 E0.01676
G1 X197.670 Y85.030 E2.40016
G1 X197.136 Y85.030 E0.01676
G1 X143.076 Y30.970 E2.40016
G1 X142.542 Y30.970 E0.01676
G1 X196.602 Y85.030 E2.40016
G1 X196.068 Y85.030 E0.01676
G1 X142.008 Y30.970 E2.40016
G1 X141.474 Y30.970 E0.01676
G1 X195.534 Y85.030 E2.40016
G1 X195.000 Y85.030 E0.01676
G1 X140.940 Y30.970 E2.40016
G1 X140.406 Y30.970 E0.01676
G1 X194.466 Y85.030 E2.40016
G1 X193.932 Y85.030 E0.01676
G1 X139.872 Y30.970 E2.40016
G1 X139.338 Y30.970 E0.01676
G1 X193.398 Y85.030 E2.40016
G1 X192.865 Y85.030 E0.01676
G1 X138.804 Y30.970 E2.40016
G1 X138.270 Y30.970 E0.01676
G1 X192.331 Y85.030 E2.40016
G1 X191.797 Y85.030 E0.01676
G1 X137.736 Y30.970 E2.40016
G1 X137.202 Y30.970 E0.01676
G1 X191.263 Y85.030 E2.40016
G1 X190.729 Y85.030 E0.01676
G1 X136.668 Y30.970 E2.40016
G1 X136.135 Y30.970 E0.01676
G1 X190.195 Y85.030 E2.40016
G1 X189.661 Y85.030 E0.01676
G1 X135.601 Y30.970 E2.40016
M73 Q11 S42
M73 P11 R42
G1 X135.067 Y30.970 E0.01676
G1 X189.127 Y85.030 E2.40016
G1 X188.593 Y85.030 E0.01676
G1 X134.533 Y30.970 E2.40016
G1 X133.999 Y30.970 E0.01676
G1 X188.059 Y85.030 E2.40016
G1 X187.525 Y85.030 E0.01676
G1 X133.465 Y30.970 E2.40016
G1 X132.931 Y30.970 E0.01676
G1 X186.991 Y85.030 E2.40016
G1 X186.457 Y85.030 E0.01676
G1 X132.397 Y30.970 E2.40016
G1 X131.863 Y30.970 E0.01676
G1 X185.923 Y85.030 E2.40016
G1 X185.389 Y85.030 E0.01676
G1 X131.329 Y30.970 E2.40016
G1 X130.795 Y30.970 E0.01676
G1 X184.855 Y85.030 E2.40016
G1 X184.321 Y85.030 E0.01676
G1 X130.261 Y30.970 E2.40016
G1 X129.727 Y30.970 E0.01676
G1 X183.787 Y85.030 E2.40016
G1 X183.253 Y85.030 E0.01676
G1 X129.193 Y30.970 E2.40016
G1 X128.659 Y30.970 E0.01676
G1 X182.720 Y85.030 E2.40016
G1 X182.186 Y85.030 E0.01676
G1 X128.125 Y30.970 E2.40016
G1 X127.591 Y30.970 E0.01676
G1 X181.652 Y85.030 E2.40016
G1 X181.118 Y85.030 E0.01676
G1 X127.057 Y30.970 E2.40016
G1 X126.523 Y30.970 E0.01676
G1 X180.584 Y85.030 E2.40016
G1 X180.050 Y85.030 E0.01676
G1 X125.990 Y30.970 E2.40016
G1 X125.456 Y30.970 E0.01676
G1 X179.516 Y85.030 E2.40016
G1 X178.982 Y85.030 E0.01676
G1 X124.922 Y30.970 E2.40016
G1 X124.388 Y30.970 E0.01676
G1 X178.448 Y85.030 E2.40016
M73 Q13 S41
M73 P13 R41
G1 X177.914 Y85.030 E0.01676
G1 X123.854 Y30.970 E2.40016
G1 X123.320 Y30.970 E0.01676
G1 X177.380 Y85.030 E2.40016
G1 X176.846 Y85.030 E0.01676
G1 X122.786 Y30.970 E2.40016
G1 X122.252 Y30.970 E0.01676
G1 X176.312 Y85.030 E2.40016
G1 X175.778 Y85.030 E0.01676
G1 X121.718 Y30.970 E2.40016
G1 X121.184 Y30.970 E0.01676
G1 X175.244 Y85.030 E2.40016
G1 X174.710 Y85.030 E0.01676
G1 X120.650 Y30.970 E2.40016
G1 X120.116 Y30.970 E0.01676
G1 X174.176 Y85.030 E2.40016
G1 X173.642 Y85.030 E0.01676
G1 X119.582 Y30.970 E2.40016
G1 X119.048 Y30.970 E0.01676
G1 X173.109 Y85.030 E2.40016
G1 X172.575 Y85.030 E0.01676
G1 X118.514 Y30.970 E2.40016
G1 X117.980 Y30.970 E0.01676
G1 X172.041 Y85.030 E2.40016
G1 X171.507 Y85.030 E0.01676
G1 X117.446 Y30.970 E2.40016
G1 X116.912 Y30.970 E0.01676
G1 X170.973 Y85.030 E2.40016
G1 X170.439 Y85.030 E0.01676
G1 X116.379 Y30.970 E2.40016
G1 X115.845 Y30.970 E0.01676
G1 X169.905 Y85.030 E2.40016
G1 X169.371 Y85.030 E0.01676
G1 X115.311 Y30.970 E2.40016
G1 X114.777 Y30.970 E0.01676
G1 X168.837 Y85.030 E2.40016
G1 X168.303 Y85.030 E0.01676
G1 X114.243 Y30.970 E2.40016
G1 X113.709 Y30.970 E0.01676
G1 X167.769 Y85.030 E2.40016
G1 X167.235 Y85.030 E0.01676
G1 X113.175 Y30.970 E2.40016
M73 Q15 S40
M73 P15 R40
G1 X112.641 Y30.970 E0.01676
G1 X166.701 Y85.030 E2.40016
G1 X166.167 Y85.030 E0.01676
G1 X112.107 Y30.970 E2.40016
G1 X111.573 Y30.970 E0.01676
G1 X165.633 Y85.030 E2.40016
G1 X165.099 Y85.030 E0.01676
G1 X111.039 Y30.970 E2.40016
G1 X110.505 Y30.970 E0.01676
G1 X164.565 Y85.030 E2.40016
G1 X164.031 Y85.030 E0.01676
G1 X109.971 Y30.970 E2.40016
G1 X109.437 Y30.970 E0.01676
G1 X163.497 Y85.030 E2.40016
G1 X162.964 Y85.030 E0.01676
G1 X108.903 Y30.970 E2.40016
G1 X108.369 Y30.970 E0.01676
G1 X162.430 Y85.030 E2.40016
G1 X161.896 Y85.030 E0.01676
G1 X107.835 Y30.970 E2.40016
G1 X107.301 Y30.970 E0.01676
G1 X161.362 Y85.030 E2.40016
G1 X160.828 Y85.030 E0.01676
G1 X106.767 Y30.970 E2.40016
G1 X106.234 Y30.970 E0.01676
G1 X160.294 Y85.030 E2.40016
G1 X159.760 Y85.030 E0.01676
G1 X105.700 Y30.970 E2.40016
G1 X105.166 Y30.970 E0.01676
G1 X159.226 Y85.030 E2.40016
G1 X158.692 Y85.030 E0.01676
G1 X104.632 Y30.970 E2.40016
G1 X104.098 Y30.970 E0.01676
G1 X158.158 Y85.030 E2.40016
G1 X157.624 Y85.030 E0.01676
G1 X103.564 Y30.970 E2.40016
G1 X103.030 Y30.970 E0.01676
G1 X157.090 Y85.030 E2.40016
G1 X156.556 Y85.030 E0.01676
G1 X102.496 Y30.970 E2.40016
G1 X101.962 Y30.970 E0.01676
G1 X156.022 Y85.030 E2.40016
M73 Q17 S39
M73 P17 R39
G1 X155.488 Y85.030 E0.01676
G1 X101.428 Y30.970 E2.40016
G1 X100.894 Y30.970 E0.01676
G1 X154.954 Y85.030 E2.40016
G1 X154.420 Y85.030 E0.01676
G1 X100.360 Y30.970 E2.40016
G1 X99.826 Y30.970 E0.01676
G1 X153.886 Y85.030 E2.40016
G1 X153.352 Y85.030 E0.01676
G1 X99.292 Y30.970 E2.40016
G1 X98.758 Y30.970 E0.01676
G1 X152.819 Y85.030 E2.40016
G1 X152.285 Y85.030 E0.01676
G1 X98.224 Y30.970 E2.40016
G1 X97.690 Y30.970 E0.01676
G1 X151.751 Y85.030 E2.40016
G1 X151.217 Y85.030 E0.01676
G1 X97.156 Y30.970 E2.40016
G1 X96.622 Y30.970 E0.01676
G1 X150.683 Y85.030 E2.40016
G1 X150.149 Y85.030 E0.01676
G1 X96.089 Y30.970 E2.40016
G1 X95.555 Y30.970 E0.01676
G1 X149.615 Y85.030 E2.40016
G1 X149.081 Y85.030 E0.01676
