; generated by PrusaSlicer 2.0.0 on 2019-08-21 at 10:40:11

; 

; external perimeters extrusion width = 0.45mm
; perimeters extrusion width = 0.45mm
; infill extrusion width = 0.45mm
; solid infill extrusion width = 0.45mm
; top infill extrusion width = 0.40mm
; first layer extrusion width = 0.42mm

M73 P0 R99
M73 Q0 S99
M201 X1000 Y1000 Z1000 E5000 ; sets maximum accelerations, mm/sec^2
M203 X200 Y200 Z12 E120 ; sets maximum feedrates, mm/sec
M204 P1250 R1250 T1250 ; sets acceleration (P, T) and retract acceleration (R), mm/sec^2
M205 X8.00 Y8.00 Z0.40 E1.50 ; sets the jerk limits, mm/sec
M205 S0 T0 ; sets the minimum extruding and travel feed rate, mm/sec
M107
M115 U3.4.0 ; tell printer latest fw version
M83  ; extruder relative mode
M104 S140 ; set extruder to warm-up temp
M140 S80 ; set bed temp
M190 S80 ; wait for bed temp
G28 W ; home all without mesh bed level
G80 ; mesh bed leveling
M104 S250 ; set extruder temp
M109 S250 ; wait for extruder temp
G1 Y-3.0 F1000.0 ; go outside print area
G92 E0.0
G1 X60.0 E9.0  F1000.0 ; intro line
M73 Q0 S99
M73 P0 R99
G1 X100.0 E12.5  F1000.0 ; intro line
G92 E0.0
M221 S95
M900 K45; Filament gcode
G21 ; set units to millimeters
G90 ; use absolute coordinates
M83 ; use relative distances for extrusion
;BEFORE_LAYER_CHANGE
G92 E0.0
;0.2


G1 E-0.80000 F2100.00000
G1 Z0.600 F10800.000
;AFTER_LAYER_CHANGE
;0.2
G1 X21.450 Y25.368
G1 Z0.200
G1 E0.80000 F2100.00000
M204 S20
G1 F1800
G1 X21.533 Y25.298 E0.00341
G1 X22.322 Y24.863 E0.02826
G1 X23.181 Y24.591 E0.02826
G1 X24.082 Y24.493 E0.02842
G1 X174.127 Y24.493 E4.70456
G1 X234.209 Y24.746 E1.88385
G1 X235.485 Y24.992 E0.04074
G1 X236.640 Y25.588 E0.04074
G1 X237.580 Y26.485 E0.04074
G1 X238.229 Y27.611 E0.04074
G1 X238.473 Y28.440 E0.02710
G1 X238.556 Y29.295 E0.02694
G1 X238.556 Y179.332 E4.70430
G1 X238.468 Y180.198 E0.02727
G1 X238.217 Y181.030 E0.02727
G1 X237.814 Y181.801 E0.02727
G1 X237.268 Y182.484 E0.02743
G1 X236.579 Y183.066 E0.02826
G1 X235.790 Y183.502 E0.02826
G1 X234.931 Y183.773 E0.02826
G1 X234.030 Y183.871 E0.02842
G1 X83.985 Y183.872 E4.70456
G1 X24.014 Y183.623 E1.88037
G1 X23.165 Y183.523 E0.02677
G1 X22.356 Y183.268 E0.02661
G1 X21.603 Y182.866 E0.02677
G1 X20.942 Y182.334 E0.02661
G1 X20.354 Y181.637 E0.02859
G1 X19.917 Y180.836 E0.02859
G1 X19.648 Y179.965 E0.02859
G1 X19.557 Y179.064 E0.02842
G1 X19.557 Y29.021 E4.70447
G1 X19.647 Y28.156 E0.02727
G1 X19.899 Y27.324 E0.02727
G1 X20.301 Y26.559 E0.02710
G1 X20.845 Y25.880 E0.02727
G1 X21.404 Y25.407 E0.02297
M204 S1000
G1 F8640
G1 X21.533 Y25.298 E-0.03894
G1 X22.322 Y24.863 E-0.20809
G1 X23.181 Y24.591 E-0.20809
G1 X24.082 Y24.493 E-0.20931
G1 X24.496 Y24.493 E-0.09557
G1 E-0.04000 F2100.00000
G1 Z0.800 F10800.000
G1 X23.262 Y24.959
G1 Z0.200
G1 E0.80000 F2100.00000
M204 S20
G1 F1800
G1 X24.085 Y24.870 E0.02596
G1 X174.127 Y24.870 E4.70445
G1 X234.179 Y25.122 E1.88290
G1 X235.357 Y25.347 E0.03760
G1 X236.419 Y25.893 E0.03744
G1 X237.283 Y26.718 E0.03744
G1 X237.880 Y27.752 E0.03744
G1 X238.102 Y28.508 E0.02469
G1 X238.179 Y29.297 E0.02485
G1 X238.178 Y179.331 E4.70423
G1 X238.097 Y180.130 E0.02517
G1 X237.866 Y180.893 E0.02501
G1 X237.495 Y181.599 E0.02501
G1 X236.993 Y182.226 E0.02517
G1 X236.364 Y182.757 E0.02580
G1 X235.639 Y183.156 E0.02596
G1 X234.850 Y183.405 E0.02596
G1 X234.027 Y183.494 E0.02596
G1 X83.985 Y183.494 E4.70445
G1 X24.024 Y183.246 E1.88005
G1 X23.247 Y183.154 E0.02454
G1 X22.500 Y182.920 E0.02454
G1 X21.810 Y182.551 E0.02454
G1 X21.201 Y182.060 E0.02454
G1 X20.662 Y181.418 E0.02627
G1 X20.263 Y180.687 E0.02611
G1 X20.017 Y179.891 E0.02611
G1 X19.934 Y179.063 E0.02611
G1 X19.934 Y29.028 E4.70423
G1 X20.015 Y28.235 E0.02501
G1 X20.248 Y27.466 E0.02517
G1 X20.620 Y26.761 E0.02501
G1 X21.119 Y26.139 E0.02501
G1 X21.752 Y25.605 E0.02596
G1 X22.473 Y25.208 E0.02580
G1 X23.205 Y24.977 E0.02408
M204 S1000
G1 F8640
G1 X24.085 Y24.870 E-0.20476
G1 X26.490 Y24.870 E-0.55524
G1 E-0.04000 F2100.00000
G1 Z0.800 F10800.000
G1 X24.809 Y29.745
G1 Z0.200
G1 E0.80000 F2100.00000
M204 S20
G1 F1800
G1 X173.435 Y29.745 E4.66006
M73 Q1 S98
M73 P1 R98
G1 X173.435 Y84.371 E1.71276
G1 X79.435 Y84.371 E2.94730
G1 X79.435 Y178.371 E2.94730
G1 X24.809 Y178.371 E1.71276
G1 X24.809 Y29.805 E4.65818
M204 S1000
G1 F8640
G1 X28.101 Y29.804 E-0.76000
G1 E-0.04000 F2100.00000
G1 Z0.800 F10800.000
G1 X79.812 Y84.748
G1 Z0.200
G1 E0.80000 F2100.00000
M204 S20
G1 F1800
G1 X79.812 Y178.748 E2.94730
G1 X24.432 Y178.748 E1.73640
G1 X24.432 Y29.368 E4.68371
G1 X173.812 Y29.368 E4.68371
G1 X173.812 Y84.748 E1.73640
G1 X79.872 Y84.748 E2.94542
M204 S1000
G1 X79.418 Y84.819 F10800.000
G1 F8640
G1 X79.870 Y88.040 E-0.76000
G1 E-0.04000 F2100.00000
G1 Z0.800 F10800.000
G1 X173.322 Y30.622
G1 Z0.200
G1 E0.80000 F2100.00000
M204 S20
G1 F1800
G1 X172.728 Y30.028 E0.02635
G1 X172.194 Y30.028 E0.01676
G1 X173.152 Y30.986 E0.04253
G1 X173.152 Y31.520 E0.01676
G1 X171.660 Y30.028 E0.06623
G1 X171.127 Y30.028 E0.01676
G1 X173.152 Y32.054 E0.08994
G1 X173.152 Y32.588 E0.01676
G1 X170.593 Y30.028 E0.11365
G1 X170.059 Y30.028 E0.01676
G1 X173.152 Y33.122 E0.13735
G1 X173.152 Y33.656 E0.01676
G1 X169.525 Y30.028 E0.16106
G1 X168.991 Y30.028 E0.01676
G1 X173.152 Y34.190 E0.18476
G1 X173.152 Y34.724 E0.01676
G1 X168.457 Y30.028 E0.20847
G1 X167.923 Y30.028 E0.01676
G1 X173.152 Y35.258 E0.23218
G1 X173.152 Y35.792 E0.01676
G1 X167.389 Y30.028 E0.25588
G1 X166.855 Y30.028 E0.01676
G1 X173.152 Y36.326 E0.27959
G1 X173.152 Y36.860 E0.01676
G1 X166.321 Y30.028 E0.30329
G1 X165.787 Y30.028 E0.01676
G1 X173.152 Y37.393 E0.32700
G1 X173.152 Y37.927 E0.01676
G1 X165.253 Y30.028 E0.35071
G1 X164.719 Y30.028 E0.01676
G1 X173.152 Y38.461 E0.37441
G1 X173.152 Y38.995 E0.01676
G1 X164.185 Y30.028 E0.39812
G1 X163.651 Y30.028 E0.01676
G1 X173.152 Y39.529 E0.42182
G1 X173.152 Y40.063 E0.01676
G1 X163.117 Y30.028 E0.44553
G1 X162.583 Y30.028 E0.01676
G1 X173.152 Y40.597 E0.46924
M73 Q2 S97
G1 X173.152 Y41.131 E0.01676
M73 P2 R97
G1 X162.049 Y30.028 E0.49294
G1 X161.515 Y30.028 E0.01676
G1 X173.152 Y41.665 E0.51665
G1 X173.152 Y42.199 E0.01676
G1 X160.982 Y30.028 E0.54035
G1 X160.448 Y30.028 E0.01676
G1 X173.152 Y42.733 E0.56406
G1 X173.152 Y43.267 E0.01676
G1 X159.914 Y30.028 E0.58777
G1 X159.380 Y30.028 E0.01676
G1 X173.152 Y43.801 E0.61147
G1 X173.152 Y44.335 E0.01676
G1 X158.846 Y30.028 E0.63518
G1 X158.312 Y30.028 E0.01676
G1 X173.152 Y44.869 E0.65888
G1 X173.152 Y45.403 E0.01676
G1 X157.778 Y30.028 E0.68259
G1 X157.244 Y30.028 E0.01676
G1 X173.152 Y45.937 E0.70630
G1 X173.152 Y46.471 E0.01676
G1 X156.710 Y30.028 E0.73000
G1 X156.176 Y30.028 E0.01676
G1 X173.152 Y47.005 E0.75371
G1 X173.152 Y47.538 E0.01676
G1 X155.642 Y30.028 E0.77741
G1 X155.108 Y30.028 E0.01676
G1 X173.152 Y48.072 E0.80112
G1 X173.152 Y48.606 E0.01676
G1 X154.574 Y30.028 E0.82483
G1 X154.040 Y30.028 E0.01676
G1 X173.152 Y49.140 E0.84853
G1 X173.152 Y49.674 E0.01676
G1 X153.506 Y30.028 E0.87224
G1 X152.972 Y30.028 E0.01676
G1 X173.152 Y50.208 E0.89594
G1 X173.152 Y50.742 E0.01676
G1 X152.438 Y30.028 E0.91965
G1 X151.904 Y30.028 E0.01676
G1 X173.152 Y51.276 E0.94336
G1 X173.152 Y51.810 E0.01676
G1 X151.371 Y30.028 E0.96706
G1 X150.837 Y30.028 E0.01676
G1 X173.152 Y52.344 E0.99077
G1 X173.152 Y52.878 E0.01676
G1 X150.303 Y30.028 E1.01447
G1 X149.769 Y30.028 E0.01676
G1 X173.152 Y53.412 E1.03818
G1 X173.152 Y53.946 E0.01676
G1 X149.235 Y30.028 E1.06189
G1 X148.701 Y30.028 E0.01676
G1 X173.152 Y54.480 E1.08559
G1 X173.152 Y55.014 E0.01676
G1 X148.167 Y30.028 E1.10930
G1 X147.633 Y30.028 E0.01676
G1 X173.152 Y55.548 E1.13300
G1 X173.152 Y56.082 E0.01676
G1 X147.099 Y30.028 E1.15671
G1 X146.565 Y30.028 E0.01676
G1 X173.152 Y56.616 E1.18042
G1 X173.152 Y57.149 E0.01676
G1 X146.031 Y30.028 E1.20412
G1 X145.497 Y30.028 E0.01676
G1 X173.152 Y57.683 E1.22783
G1 X173.152 Y58.217 E0.01676
G1 X144.963 Y30.028 E1.25154
G1 X144.429 Y30.028 E0.01676
G1 X173.152 Y58.751 E1.27524
G1 X173.152 Y59.285 E0.01676
G1 X143.895 Y30.028 E1.29895
M73 Q3 S96
M73 P3 R96
G1 X143.361 Y30.028 E0.01676
G1 X173.152 Y59.819 E1.32265
G1 X173.152 Y60.353 E0.01676
G1 X142.827 Y30.028 E1.34636
G1 X142.293 Y30.028 E0.01676
G1 X173.152 Y60.887 E1.37007
G1 X173.152 Y61.421 E0.01676
G1 X141.759 Y30.028 E1.39377
G1 X141.226 Y30.028 E0.01676
G1 X173.152 Y61.955 E1.41748
G1 X173.152 Y62.489 E0.01676
G1 X140.692 Y30.028 E1.44118
G1 X140.158 Y30.028 E0.01676
G1 X173.152 Y63.023 E1.46489
G1 X173.152 Y63.557 E0.01676
G1 X139.624 Y30.028 E1.48860
G1 X139.090 Y30.028 E0.01676
G1 X173.152 Y64.091 E1.51230
G1 X173.152 Y64.625 E0.01676
G1 X138.556 Y30.028 E1.53601
G1 X138.022 Y30.028 E0.01676
G1 X173.152 Y65.159 E1.55971
G1 X173.152 Y65.693 E0.01676
G1 X137.488 Y30.028 E1.58342
G1 X136.954 Y30.028 E0.01676
G1 X173.152 Y66.227 E1.60713
G1 X173.152 Y66.761 E0.01676
G1 X136.420 Y30.028 E1.63083
G1 X135.886 Y30.028 E0.01676
G1 X173.152 Y67.294 E1.65454
G1 X173.152 Y67.828 E0.01676
G1 X135.352 Y30.028 E1.67824
G1 X134.818 Y30.028 E0.01676
G1 X173.152 Y68.362 E1.70195
G1 X173.152 Y68.896 E0.01676
G1 X134.284 Y30.028 E1.72566
G1 X133.750 Y30.028 E0.01676
G1 X173.152 Y69.430 E1.74936
G1 X173.152 Y69.964 E0.01676
G1 X133.216 Y30.028 E1.77307
G1 X132.682 Y30.028 E0.01676
G1 X173.152 Y70.498 E1.79677
G1 X173.152 Y71.032 E0.01676
G1 X132.148 Y30.028 E1.82048
G1 X131.614 Y30.028 E0.01676
G1 X173.152 Y71.566 E1.84419
G1 X173.152 Y72.100 E0.01676
G1 X131.081 Y30.028 E1.86789
M73 Q4 S95
M73 P4 R95
G1 X130.547 Y30.028 E0.01676
G1 X173.152 Y72.634 E1.89160
G1 X173.152 Y73.168 E0.01676
G1 X130.013 Y30.028 E1.91530
G1 X129.479 Y30.028 E0.01676
G1 X173.152 Y73.702 E1.93901
G1 X173.152 Y74.236 E0.01676
G1 X128.945 Y30.028 E1.96272
G1 X128.411 Y30.028 E0.01676
G1 X173.152 Y74.770 E1.98642
G1 X173.152 Y75.304 E0.01676
G1 X127.877 Y30.028 E2.01013
G1 X127.343 Y30.028 E0.01676
G1 X173.152 Y75.838 E2.03383
G1 X173.152 Y76.372 E0.01676
G1 X126.809 Y30.028 E2.05754
G1 X126.275 Y30.028 E0.01676
G1 X173.152 Y76.905 E2.08125
G1 X173.152 Y77.439 E0.01676
G1 X125.741 Y30.028 E2.10495
G1 X125.207 Y30.028 E0.01676
G1 X173.152 Y77.973 E2.12866
G1 X173.152 Y78.507 E0.01676
G1 X124.673 Y30.028 E2.15236
G1 X124.139 Y30.028 E0.01676
G1 X173.152 Y79.041 E2.17607
G1 X173.152 Y79.575 E0.01676
G1 X123.605 Y30.028 E2.19978
G1 X123.071 Y30.028 E0.01676
G1 X173.152 Y80.109 E2.22348
G1 X173.152 Y80.643 E0.01676
G1 X122.537 Y30.028 E2.24719
G1 X122.003 Y30.028 E0.01676
G1 X173.152 Y81.177 E2.27090
G1 X173.152 Y81.711 E0.01676
G1 X121.470 Y30.028 E2.29460
G1 X120.936 Y30.028 E0.01676
G1 X173.152 Y82.245 E2.31831
G1 X173.152 Y82.779 E0.01676
G1 X120.402 Y30.028 E2.34201
M73 Q5 S94
M73 P5 R94
G1 X119.868 Y30.028 E0.01676
G1 X173.152 Y83.313 E2.36572
G1 X173.152 Y83.847 E0.01676
G1 X119.334 Y30.028 E2.38943
G1 X118.800 Y30.028 E0.01676
G1 X172.860 Y84.089 E2.40016
G1 X172.326 Y84.089 E0.01676
G1 X118.266 Y30.028 E2.40016
G1 X117.732 Y30.028 E0.01676
G1 X171.792 Y84.089 E2.40016
G1 X171.258 Y84.089 E0.01676
G1 X117.198 Y30.028 E2.40016
G1 X116.664 Y30.028 E0.01676
G1 X170.724 Y84.089 E2.40016
G1 X170.190 Y84.089 E0.01676
G1 X116.130 Y30.028 E2.40016
G1 X115.596 Y30.028 E0.01676
G1 X169.656 Y84.089 E2.40016
G1 X169.122 Y84.089 E0.01676
G1 X115.062 Y30.028 E2.40016
G1 X114.528 Y30.028 E0.01676
G1 X168.588 Y84.089 E2.40016
G1 X168.055 Y84.089 E0.01676
G1 X113.994 Y30.028 E2.40016
G1 X113.460 Y30.028 E0.01676
G1 X167.521 Y84.089 E2.40016
G1 X166.987 Y84.089 E0.01676
G1 X112.926 Y30.028 E2.40016
G1 X112.392 Y30.028 E0.01676
G1 X166.453 Y84.089 E2.40016
G1 X165.919 Y84.089 E0.01676
G1 X111.858 Y30.028 E2.40016
G1 X111.325 Y30.028 E0.01676
G1 X165.385 Y84.089 E2.40016
G1 X164.851 Y84.089 E0.01676
G1 X110.791 Y30.028 E2.40016
M73 Q6 S93
M73 P6 R93
G1 X110.257 Y30.028 E0.01676
G1 X164.317 Y84.089 E2.40016
G1 X163.783 Y84.089 E0.01676
G1 X109.723 Y30.028 E2.40016
G1 X109.189 Y30.028 E0.01676
G1 X163.249 Y84.089 E2.40016
G1 X162.715 Y84.089 E0.01676
G1 X108.655 Y30.028 E2.40016
G1 X108.121 Y30.028 E0.01676
G1 X162.181 Y84.089 E2.40016
G1 X161.647 Y84.089 E0.01676
G1 X107.587 Y30.028 E2.40016
G1 X107.053 Y30.028 E0.01676
G1 X161.113 Y84.089 E2.40016
G1 X160.579 Y84.089 E0.01676
G1 X106.519 Y30.028 E2.40016
G1 X105.985 Y30.028 E0.01676
G1 X160.045 Y84.089 E2.40016
G1 X159.511 Y84.089 E0.01676
G1 X105.451 Y30.028 E2.40016
G1 X104.917 Y30.028 E0.01676
G1 X158.977 Y84.089 E2.40016
G1 X158.444 Y84.089 E0.01676
G1 X104.383 Y30.028 E2.40016
G1 X103.849 Y30.028 E0.01676
G1 X157.910 Y84.089 E2.40016
G1 X157.376 Y84.089 E0.01676
G1 X103.315 Y30.028 E2.40016
G1 X102.781 Y30.028 E0.01676
G1 X156.842 Y84.089 E2.40016
G1 X156.308 Y84.089 E0.01676
G1 X102.247 Y30.028 E2.40016
G1 X101.714 Y30.028 E0.01676
G1 X155.774 Y84.089 E2.40016
G1 X155.240 Y84.089 E0.01676
G1 X101.180 Y30.028 E2.40016
M73 Q7 S92
M73 P7 R92
G1 X100.646 Y30.028 E0.01676
G1 X154.706 Y84.089 E2.40016
G1 X154.172 Y84.089 E0.01676
G1 X100.112 Y30.028 E2.40016
G1 X99.578 Y30.028 E0.01676
G1 X153.638 Y84.089 E2.40016
G1 X153.104 Y84.089 E0.01676
G1 X99.044 Y30.028 E2.40016
G1 X98.510 Y30.028 E0.01676
G1 X152.570 Y84.089 E2.40016
G1 X152.036 Y84.089 E0.01676
G1 X97.976 Y30.028 E2.40016
G1 X97.442 Y30.028 E0.01676
G1 X151.502 Y84.089 E2.40016
G1 X150.968 Y84.089 E0.01676
G1 X96.908 Y30.028 E2.40016
G1 X96.374 Y30.028 E0.01676
G1 X150.434 Y84.089 E2.40016
G1 X149.900 Y84.089 E0.01676
G1 X95.840 Y30.028 E2.40016
G1 X95.306 Y30.028 E0.01676
G1 X149.366 Y84.089 E2.40016
G1 X148.832 Y84.089 E0.01676
G1 X94.772 Y30.028 E2.40016
G1 X94.238 Y30.028 E0.01676
G1 X148.299 Y84.089 E2.40016
G1 X147.765 Y84.089 E0.01676
G1 X93.704 Y30.028 E2.40016
G1 X93.170 Y30.028 E0.01676
G1 X147.231 Y84.089 E2.40016
G1 X146.697 Y84.089 E0.01676
G1 X92.636 Y30.028 E2.40016
G1 X92.102 Y30.028 E0.01676
G1 X146.163 Y84.089 E2.40016
G1 X145.629 Y84.089 E0.01676
G1 X91.569 Y30.028 E2.40016
M73 Q8 S91
M73 P8 R91
G1 X91.035 Y30.028 E0.01676
G1 X145.095 Y84.089 E2.40016
G1 X144.561 Y84.089 E0.01676
G1 X90.501 Y30.028 E2.40016
G1 X89.967 Y30.028 E0.01676
G1 X144.027 Y84.089 E2.40016
G1 X143.493 Y84.089 E0.01676
G1 X89.433 Y30.028 E2.40016
G1 X88.899 Y30.028 E0.01676
G1 X142.959 Y84.089 E2.40016
G1 X142.425 Y84.089 E0.01676
G1 X88.365 Y30.028 E2.40016
G1 X87.831 Y30.028 E0.01676
G1 X141.891 Y84.089 E2.40016
G1 X141.357 Y84.089 E0.01676
G1 X87.297 Y30.028 E2.40016
G1 X86.763 Y30.028 E0.01676
G1 X140.823 Y84.089 E2.40016
G1 X140.289 Y84.089 E0.01676
G1 X86.229 Y30.028 E2.40016
G1 X85.695 Y30.028 E0.01676
G1 X139.755 Y84.089 E2.40016
G1 X139.221 Y84.089 E0.01676
G1 X85.161 Y30.028 E2.40016
G1 X84.627 Y30.028 E0.01676
G1 X138.688 Y84.089 E2.40016
G1 X138.154 Y84.089 E0.01676
G1 X84.093 Y30.028 E2.40016
G1 X83.559 Y30.028 E0.01676
G1 X137.620 Y84.089 E2.40016
G1 X137.086 Y84.089 E0.01676
G1 X83.025 Y30.028 E2.40016
G1 X82.491 Y30.028 E0.01676
G1 X136.552 Y84.089 E2.40016
G1 X136.018 Y84.089 E0.01676
G1 X81.958 Y30.028 E2.40016
M73 Q9 S90
M73 P9 R90
G1 X81.424 Y30.028 E0.01676
G1 X135.484 Y84.089 E2.40016
G1 X134.950 Y84.089 E0.01676
G1 X80.890 Y30.028 E2.40016
G1 X80.356 Y30.028 E0.01676
G1 X134.416 Y84.089 E2.40016
G1 X133.882 Y84.089 E0.01676
G1 X79.822 Y30.028 E2.40016
G1 X79.288 Y30.028 E0.01676
G1 X133.348 Y84.089 E2.40016
G1 X132.814 Y84.089 E0.01676
G1 X78.754 Y30.028 E2.40016
G1 X78.220 Y30.028 E0.01676
G1 X132.280 Y84.089 E2.40016
G1 X131.746 Y84.089 E0.01676
G1 X77.686 Y30.028 E2.40016
G1 X77.152 Y30.028 E0.01676
G1 X131.212 Y84.089 E2.40016
G1 X130.678 Y84.089 E0.01676
G1 X76.618 Y30.028 E2.40016
G1 X76.084 Y30.028 E0.01676
G1 X130.144 Y84.089 E2.40016
G1 X129.610 Y84.089 E0.01676
G1 X75.550 Y30.028 E2.40016
G1 X75.016 Y30.028 E0.01676
G1 X129.076 Y84.089 E2.40016
G1 X128.543 Y84.089 E0.01676
G1 X74.482 Y30.028 E2.40016
G1 X73.948 Y30.028 E0.01676
G1 X128.009 Y84.089 E2.40016
G1 X127.475 Y84.089 E0.01676
G1 X73.414 Y30.028 E2.40016
G1 X72.880 Y30.028 E0.01676
G1 X126.941 Y84.089 E2.40016
G1 X126.407 Y84.089 E0.01676
G1 X72.346 Y30.028 E2.40016
M73 Q10 S89
M73 P10 R89
G1 X71.813 Y30.028 E0.01676
G1 X125.873 Y84.089 E2.40016
G1 X125.339 Y84.089 E0.01676
G1 X71.279 Y30.028 E2.40016
G1 X70.745 Y30.028 E0.01676
