; generated by Slic3r Prusa Edition 1.41.0+linux64 on 2018-10-01 at 19:53:21

; 

; external perimeters extrusion width = 0.61mm
; perimeters extrusion width = 0.65mm
; infill extrusion width = 0.70mm
; solid infill extrusion width = 0.65mm
; top infill extrusion width = 0.60mm
; first layer extrusion width = 0.65mm

M201 X1000 Y1000 Z1000 E5000 ; sets maximum accelerations, mm/sec^2
M203 X200 Y200 Z12 E120 ; sets maximum feedrates, mm/sec
M204 P1250 R1250 T1250 ; sets acceleration (P, T) and retract acceleration (R), mm/sec^2
M205 X8.00 Y8.00 Z0.40 E1.50 ; sets the jerk limits, mm/sec
M205 S0 T0 ; sets the minimum extruding and travel feed rate, mm/sec
M107
M115 U3.4.0 ; tell printer latest fw version
M83  ; extruder relative mode
M104 S250 ; set extruder temp
M140 S85 ; set bed temp
M190 S85 ; wait for bed temp
M109 S250 ; wait for extruder temp
G28 W ; home all without mesh bed level
G80 ; mesh bed leveling
G1 Y-3.0 F1000.0 ; go outside print area
G92 E0.0
G1 X60.0 E9.0  F1000.0 ; intro line
M73 Q0 S539
M73 P0 R536
G1 X100.0 E12.5  F1000.0 ; intro line
G92 E0.0
M221 S95
M900 K45; Filament gcode
G21 ; set units to millimeters
G90 ; use absolute coordinates
M83 ; use relative distances for extrusion
;BEFORE_LAYER_CHANGE
G92 E0.0
;0.3


G1 E-0.80000 F2100.00000
G1 Z0.600 F10800.000
;AFTER_LAYER_CHANGE
;0.3
G1 X25.791 Y40.531
G1 Z0.300
G1 E0.80000 F2100.00000
M204 S20
G1 F1800
G1 X26.983 Y40.357 E0.08794
G1 X223.005 Y40.357 E14.31780
G1 X223.829 Y40.438 E0.06047
G1 X224.627 Y40.677 E0.06085
G1 X225.364 Y41.066 E0.06085
G1 X226.011 Y41.590 E0.06085
G1 X226.545 Y42.230 E0.06085
G1 X226.944 Y42.955 E0.06047
G1 X227.196 Y43.744 E0.06047
G1 X227.292 Y44.571 E0.06085
G1 X227.292 Y165.417 E8.82673
G1 X227.146 Y166.463 E0.07720
G1 X226.748 Y167.442 E0.07720
G1 X226.123 Y168.295 E0.07720
G1 X225.309 Y168.969 E0.07720
G1 X224.209 Y169.469 E0.08831
G1 X223.017 Y169.643 E0.08794
G1 X26.974 Y169.643 E14.31929
G1 X25.916 Y169.504 E0.07794
G1 X24.925 Y169.108 E0.07794
G1 X24.063 Y168.480 E0.07794
G1 X23.381 Y167.659 E0.07794
G1 X22.882 Y166.564 E0.08794
G1 X22.707 Y165.372 E0.08794
G1 X22.707 Y44.604 E8.82112
G1 X22.850 Y43.552 E0.07757
G1 X23.247 Y42.566 E0.07757
G1 X23.873 Y41.709 E0.07757
G1 X24.691 Y41.031 E0.07757
G1 X25.709 Y40.568 E0.08174
M204 S1000
; PURGING FINISHED
G1 F8640
G1 X26.983 Y40.357 E-0.29803
G1 X28.984 Y40.357 E-0.46197
G1 E-0.04000 F2100.00000
G1 Z0.900 F10800.000
G1 X33.575 Y74.400
G1 Z0.300
G1 E0.80000 F2100.00000
M204 S20
G1 F1800
G1 X221.425 Y74.400 E13.72088
G1 X221.425 Y135.600 E4.47015
G1 X33.575 Y135.600 E13.72088
G1 X33.575 Y74.490 E4.46358
M204 S1000
G1 X33.331 Y73.852 F10800.000
G1 X32.989 Y73.814
M204 S20
G1 F1800
G1 X32.989 Y136.186 E4.55570
G1 X221.989 Y136.186 E13.80488
G1 X221.989 Y164.339 E2.05640
G1 X28.011 Y164.339 E14.16854
M73 Q0 S538
M73 P0 R535
G1 X28.011 Y45.661 E8.66850
G1 X221.989 Y45.661 E14.16854
G1 X221.989 Y73.814 E2.05640
G1 X33.079 Y73.814 E13.79830
M204 S1000
G1 F8640
G1 X33.075 Y77.106 E-0.76000
G1 E-0.04000 F2100.00000
G1 Z0.900 F10800.000
G1 X27.425 Y45.075
G1 Z0.300
G1 E0.80000 F2100.00000
M204 S20
G1 F1800
G1 X222.575 Y45.075 E14.25408
G1 X222.575 Y164.925 E8.75405
G1 X27.425 Y164.925 E14.25408
G1 X27.425 Y45.165 E8.74747
M204 S1000
G1 X28.015 Y45.185 F10800.000
G1 F8640
G1 X30.716 Y45.163 E-0.76000
G1 E-0.04000 F2100.00000
G1 Z0.900 F10800.000
G1 X29.373 Y164.164
G1 Z0.300
G1 E0.80000 F2100.00000
M204 S20
G1 F1800
G1 X28.450 Y163.241 E0.09556
G1 X28.450 Y162.411 E0.06075
G1 X29.939 Y163.900 E0.15420
G1 X30.769 Y163.900 E0.06075
G1 X28.450 Y161.581 E0.24012
G1 X28.450 Y160.751 E0.06075
G1 X31.599 Y163.900 E0.32604
G1 X32.429 Y163.900 E0.06075
G1 X28.450 Y159.921 E0.41195
G1 X28.450 Y159.091 E0.06075
G1 X33.259 Y163.900 E0.49787
G1 X34.089 Y163.900 E0.06075
G1 X28.450 Y158.261 E0.58379
G1 X28.450 Y157.431 E0.06075
G1 X34.919 Y163.900 E0.66971
G1 X35.749 Y163.900 E0.06075
G1 X28.450 Y156.601 E0.75563
G1 X28.450 Y155.771 E0.06075
G1 X36.579 Y163.900 E0.84155
G1 X37.409 Y163.900 E0.06075
G1 X28.450 Y154.941 E0.92747
G1 X28.450 Y154.111 E0.06075
G1 X38.239 Y163.900 E1.01339
G1 X39.069 Y163.900 E0.06075
G1 X28.450 Y153.281 E1.09931
G1 X28.450 Y152.451 E0.06075
G1 X39.899 Y163.900 E1.18522
G1 X40.729 Y163.900 E0.06075
G1 X28.450 Y151.621 E1.27114
M73 Q0 S537
G1 X28.450 Y150.791 E0.06075
G1 X41.559 Y163.900 E1.35706
M73 P0 R534
G1 X42.389 Y163.900 E0.06075
G1 X28.450 Y149.961 E1.44298
G1 X28.450 Y149.131 E0.06075
G1 X43.219 Y163.900 E1.52890
G1 X44.049 Y163.900 E0.06075
G1 X28.450 Y148.301 E1.61482
G1 X28.450 Y147.471 E0.06075
G1 X44.879 Y163.900 E1.70074
G1 X45.709 Y163.900 E0.06075
G1 X28.450 Y146.641 E1.78666
G1 X28.450 Y145.811 E0.06075
G1 X46.539 Y163.900 E1.87257
G1 X47.369 Y163.900 E0.06075
G1 X28.450 Y144.981 E1.95849
G1 X28.450 Y144.151 E0.06075
G1 X48.199 Y163.900 E2.04441
G1 X49.029 Y163.900 E0.06075
G1 X28.450 Y143.321 E2.13033
G1 X28.450 Y142.491 E0.06075
G1 X49.859 Y163.900 E2.21625
G1 X50.689 Y163.900 E0.06075
G1 X28.450 Y141.661 E2.30217
G1 X28.450 Y140.831 E0.06075
G1 X51.519 Y163.900 E2.38809
G1 X52.349 Y163.900 E0.06075
G1 X28.450 Y140.001 E2.47401
G1 X28.450 Y139.171 E0.06075
G1 X53.179 Y163.900 E2.55993
G1 X54.009 Y163.900 E0.06075
G1 X28.450 Y138.341 E2.64584
G1 X28.450 Y137.511 E0.06075
G1 X54.839 Y163.900 E2.73176
G1 X55.669 Y163.900 E0.06075
G1 X28.450 Y136.681 E2.81768
G1 X28.450 Y135.851 E0.06075
G1 X56.499 Y163.900 E2.90360
G1 X57.329 Y163.900 E0.06075
G1 X28.450 Y135.021 E2.98952
G1 X28.450 Y134.191 E0.06075
G1 X58.159 Y163.900 E3.07544
G1 X58.989 Y163.900 E0.06075
G1 X28.450 Y133.361 E3.16136
G1 X28.450 Y132.531 E0.06075
G1 X60.082 Y164.164 E3.27456
M204 S1000
G1 F8640
G1 X57.755 Y161.836 E-0.76000
G1 E-0.04000 F2100.00000
G1 Z0.900 F10800.000
G1 X221.814 Y137.490
G1 Z0.300
G1 E0.80000 F2100.00000
M204 S20
G1 F1800
G1 X220.948 Y136.625 E0.08960
G1 X220.118 Y136.625 E0.06075
G1 X221.550 Y138.057 E0.14824
G1 X221.550 Y138.887 E0.06075
G1 X219.288 Y136.625 E0.23416
G1 X218.458 Y136.625 E0.06075
G1 X221.550 Y139.717 E0.32008
G1 X221.550 Y140.547 E0.06075
G1 X217.628 Y136.625 E0.40600
G1 X216.798 Y136.625 E0.06075
G1 X221.550 Y141.377 E0.49191
G1 X221.550 Y142.207 E0.06075
G1 X215.968 Y136.625 E0.57783
G1 X215.138 Y136.625 E0.06075
G1 X221.550 Y143.037 E0.66375
G1 X221.550 Y143.867 E0.06075
G1 X214.308 Y136.625 E0.74967
G1 X213.478 Y136.625 E0.06075
G1 X221.550 Y144.697 E0.83559
G1 X221.550 Y145.527 E0.06075
G1 X212.648 Y136.625 E0.92151
G1 X211.818 Y136.625 E0.06075
G1 X221.550 Y146.357 E1.00743
G1 X221.550 Y147.187 E0.06075
G1 X210.988 Y136.625 E1.09335
G1 X210.158 Y136.625 E0.06075
G1 X221.550 Y148.017 E1.17927
G1 X221.550 Y148.847 E0.06075
G1 X209.328 Y136.625 E1.26518
G1 X208.498 Y136.625 E0.06075
G1 X221.550 Y149.676 E1.35110
G1 X221.550 Y150.506 E0.06075
G1 X207.669 Y136.625 E1.43702
G1 X206.839 Y136.625 E0.06075
G1 X221.550 Y151.336 E1.52294
M73 Q0 S536
G1 X221.550 Y152.166 E0.06075
G1 X206.009 Y136.625 E1.60886
M73 P0 R533
G1 X205.179 Y136.625 E0.06075
G1 X221.550 Y152.996 E1.69478
G1 X221.550 Y153.826 E0.06075
G1 X204.349 Y136.625 E1.78070
G1 X203.519 Y136.625 E0.06075
G1 X221.550 Y154.656 E1.86662
G1 X221.550 Y155.486 E0.06075
G1 X202.689 Y136.625 E1.95254
G1 X201.859 Y136.625 E0.06075
G1 X221.550 Y156.316 E2.03845
G1 X221.550 Y157.146 E0.06075
G1 X201.029 Y136.625 E2.12437
G1 X200.199 Y136.625 E0.06075
G1 X221.550 Y157.976 E2.21029
G1 X221.550 Y158.806 E0.06075
G1 X199.369 Y136.625 E2.29621
G1 X198.539 Y136.625 E0.06075
G1 X221.550 Y159.636 E2.38213
G1 X221.550 Y160.466 E0.06075
G1 X197.709 Y136.625 E2.46805
G1 X196.879 Y136.625 E0.06075
G1 X221.550 Y161.296 E2.55397
G1 X221.550 Y162.126 E0.06075
G1 X196.049 Y136.625 E2.63989
G1 X195.219 Y136.625 E0.06075
G1 X221.550 Y162.956 E2.72580
G1 X221.550 Y163.786 E0.06075
G1 X194.389 Y136.625 E2.81172
G1 X193.559 Y136.625 E0.06075
G1 X220.834 Y163.900 E2.82353
G1 X220.004 Y163.900 E0.06075
G1 X192.729 Y136.625 E2.82353
G1 X191.899 Y136.625 E0.06075
G1 X219.174 Y163.900 E2.82353
G1 X218.344 Y163.900 E0.06075
G1 X191.069 Y136.625 E2.82353
G1 X190.239 Y136.625 E0.06075
G1 X217.514 Y163.900 E2.82353
G1 X216.684 Y163.900 E0.06075
G1 X189.409 Y136.625 E2.82353
G1 X188.579 Y136.625 E0.06075
G1 X215.854 Y163.900 E2.82353
G1 X215.024 Y163.900 E0.06075
G1 X187.749 Y136.625 E2.82353
G1 X186.919 Y136.625 E0.06075
G1 X214.194 Y163.900 E2.82353
G1 X213.364 Y163.900 E0.06075
G1 X186.089 Y136.625 E2.82353
G1 X185.259 Y136.625 E0.06075
G1 X212.535 Y163.900 E2.82353
G1 X211.705 Y163.900 E0.06075
G1 X184.429 Y136.625 E2.82353
G1 X183.599 Y136.625 E0.06075
G1 X210.875 Y163.900 E2.82353
G1 X210.045 Y163.900 E0.06075
G1 X182.769 Y136.625 E2.82353
G1 X181.939 Y136.625 E0.06075
G1 X209.215 Y163.900 E2.82353
G1 X208.385 Y163.900 E0.06075
G1 X181.109 Y136.625 E2.82353
M73 Q0 S535
G1 X180.279 Y136.625 E0.06075
G1 X207.555 Y163.900 E2.82353
M73 P0 R532
G1 X206.725 Y163.900 E0.06075
G1 X179.449 Y136.625 E2.82353
G1 X178.619 Y136.625 E0.06075
G1 X205.895 Y163.900 E2.82353
G1 X205.065 Y163.900 E0.06075
G1 X177.789 Y136.625 E2.82353
G1 X176.959 Y136.625 E0.06075
G1 X204.235 Y163.900 E2.82353
G1 X203.405 Y163.900 E0.06075
G1 X176.129 Y136.625 E2.82353
G1 X175.299 Y136.625 E0.06075
G1 X202.575 Y163.900 E2.82353
G1 X201.745 Y163.900 E0.06075
G1 X174.469 Y136.625 E2.82353
G1 X173.639 Y136.625 E0.06075
G1 X200.915 Y163.900 E2.82353
G1 X200.085 Y163.900 E0.06075
G1 X172.809 Y136.625 E2.82353
G1 X171.979 Y136.625 E0.06075
G1 X199.255 Y163.900 E2.82353
G1 X198.425 Y163.900 E0.06075
G1 X171.149 Y136.625 E2.82353
G1 X170.320 Y136.625 E0.06075
G1 X197.595 Y163.900 E2.82353
G1 X196.765 Y163.900 E0.06075
G1 X169.490 Y136.625 E2.82353
G1 X168.660 Y136.625 E0.06075
G1 X195.935 Y163.900 E2.82353
G1 X195.105 Y163.900 E0.06075
G1 X167.830 Y136.625 E2.82353
G1 X167.000 Y136.625 E0.06075
G1 X194.275 Y163.900 E2.82353
G1 X193.445 Y163.900 E0.06075
G1 X166.170 Y136.625 E2.82353
G1 X165.340 Y136.625 E0.06075
G1 X192.615 Y163.900 E2.82353
G1 X191.785 Y163.900 E0.06075
G1 X164.510 Y136.625 E2.82353
G1 X163.680 Y136.625 E0.06075
G1 X190.955 Y163.900 E2.82353
G1 X190.125 Y163.900 E0.06075
G1 X162.850 Y136.625 E2.82353
G1 X162.020 Y136.625 E0.06075
G1 X189.295 Y163.900 E2.82353
G1 X188.465 Y163.900 E0.06075
G1 X161.190 Y136.625 E2.82353
G1 X160.360 Y136.625 E0.06075
G1 X187.635 Y163.900 E2.82353
G1 X186.805 Y163.900 E0.06075
G1 X159.530 Y136.625 E2.82353
G1 X158.700 Y136.625 E0.06075
G1 X185.975 Y163.900 E2.82353
G1 X185.145 Y163.900 E0.06075
G1 X157.870 Y136.625 E2.82353
G1 X157.040 Y136.625 E0.06075
G1 X184.315 Y163.900 E2.82353
M73 Q0 S534
G1 X183.485 Y163.900 E0.06075
G1 X156.210 Y136.625 E2.82353
M73 P0 R531
G1 X155.380 Y136.625 E0.06075
G1 X182.655 Y163.900 E2.82353
G1 X181.825 Y163.900 E0.06075
G1 X154.550 Y136.625 E2.82353
G1 X153.720 Y136.625 E0.06075
G1 X180.995 Y163.900 E2.82353
G1 X180.165 Y163.900 E0.06075
G1 X152.890 Y136.625 E2.82353
G1 X152.060 Y136.625 E0.06075
G1 X179.335 Y163.900 E2.82353
G1 X178.505 Y163.900 E0.06075
G1 X151.230 Y136.625 E2.82353
G1 X150.400 Y136.625 E0.06075
G1 X177.675 Y163.900 E2.82353
G1 X176.845 Y163.900 E0.06075
G1 X149.570 Y136.625 E2.82353
G1 X148.740 Y136.625 E0.06075
G1 X176.015 Y163.900 E2.82353
G1 X175.185 Y163.900 E0.06075
G1 X147.910 Y136.625 E2.82353
G1 X147.080 Y136.625 E0.06075
G1 X174.356 Y163.900 E2.82353
G1 X173.526 Y163.900 E0.06075
G1 X146.250 Y136.625 E2.82353
G1 X145.420 Y136.625 E0.06075
G1 X172.696 Y163.900 E2.82353
G1 X171.866 Y163.900 E0.06075
G1 X144.590 Y136.625 E2.82353
G1 X143.760 Y136.625 E0.06075
G1 X171.036 Y163.900 E2.82353
G1 X170.206 Y163.900 E0.06075
G1 X142.930 Y136.625 E2.82353
G1 X142.100 Y136.625 E0.06075
G1 X169.376 Y163.900 E2.82353
G1 X168.546 Y163.900 E0.06075
G1 X141.270 Y136.625 E2.82353
G1 X140.440 Y136.625 E0.06075
G1 X167.716 Y163.900 E2.82353
G1 X166.886 Y163.900 E0.06075
G1 X139.610 Y136.625 E2.82353
G1 X138.780 Y136.625 E0.06075
G1 X166.056 Y163.900 E2.82353
G1 X165.226 Y163.900 E0.06075
G1 X137.950 Y136.625 E2.82353
G1 X137.120 Y136.625 E0.06075
G1 X164.396 Y163.900 E2.82353
G1 X163.566 Y163.900 E0.06075
G1 X136.290 Y136.625 E2.82353
G1 X135.460 Y136.625 E0.06075
G1 X162.736 Y163.900 E2.82353
G1 X161.906 Y163.900 E0.06075
G1 X134.630 Y136.625 E2.82353
G1 X133.800 Y136.625 E0.06075
G1 X161.076 Y163.900 E2.82353
G1 X160.246 Y163.900 E0.06075
G1 X132.971 Y136.625 E2.82353
M73 Q1 S533
G1 X132.141 Y136.625 E0.06075
G1 X159.416 Y163.900 E2.82353
M73 P1 R530
G1 X158.586 Y163.900 E0.06075
G1 X131.311 Y136.625 E2.82353
G1 X130.481 Y136.625 E0.06075
G1 X157.756 Y163.900 E2.82353
G1 X156.926 Y163.900 E0.06075
G1 X129.651 Y136.625 E2.82353
G1 X128.821 Y136.625 E0.06075
G1 X156.096 Y163.900 E2.82353
G1 X155.266 Y163.900 E0.06075
G1 X127.991 Y136.625 E2.82353
G1 X127.161 Y136.625 E0.06075
G1 X154.436 Y163.900 E2.82353
G1 X153.606 Y163.900 E0.06075
G1 X126.331 Y136.625 E2.82353
G1 X125.501 Y136.625 E0.06075
G1 X152.776 Y163.900 E2.82353
G1 X151.946 Y163.900 E0.06075
G1 X124.671 Y136.625 E2.82353
G1 X123.841 Y136.625 E0.06075
G1 X151.116 Y163.900 E2.82353
G1 X150.286 Y163.900 E0.06075
G1 X123.011 Y136.625 E2.82353
G1 X122.181 Y136.625 E0.06075
G1 X149.456 Y163.900 E2.82353
G1 X148.626 Y163.900 E0.06075
G1 X121.351 Y136.625 E2.82353
G1 X120.521 Y136.625 E0.06075
G1 X147.796 Y163.900 E2.82353
G1 X146.966 Y163.900 E0.06075
G1 X119.691 Y136.625 E2.82353
G1 X118.861 Y136.625 E0.06075
G1 X146.136 Y163.900 E2.82353
G1 X145.306 Y163.900 E0.06075
G1 X118.031 Y136.625 E2.82353
G1 X117.201 Y136.625 E0.06075
G1 X144.476 Y163.900 E2.82353
G1 X143.646 Y163.900 E0.06075
G1 X116.371 Y136.625 E2.82353
G1 X115.541 Y136.625 E0.06075
G1 X142.816 Y163.900 E2.82353
G1 X141.986 Y163.900 E0.06075
G1 X114.711 Y136.625 E2.82353
G1 X113.881 Y136.625 E0.06075
G1 X141.156 Y163.900 E2.82353
G1 X140.326 Y163.900 E0.06075
G1 X113.051 Y136.625 E2.82353
G1 X112.221 Y136.625 E0.06075
G1 X139.496 Y163.900 E2.82353
G1 X138.666 Y163.900 E0.06075
G1 X111.391 Y136.625 E2.82353
G1 X110.561 Y136.625 E0.06075
G1 X137.836 Y163.900 E2.82353
G1 X137.007 Y163.900 E0.06075
G1 X109.731 Y136.625 E2.82353
G1 X108.901 Y136.625 E0.06075
G1 X136.177 Y163.900 E2.82353
M73 Q1 S532
G1 X135.347 Y163.900 E0.06075
G1 X108.071 Y136.625 E2.82353
M73 P1 R529
G1 X107.241 Y136.625 E0.06075
G1 X134.517 Y163.900 E2.82353
G1 X133.687 Y163.900 E0.06075
G1 X106.411 Y136.625 E2.82353
G1 X105.581 Y136.625 E0.06075
G1 X132.857 Y163.900 E2.82353
G1 X132.027 Y163.900 E0.06075
G1 X104.751 Y136.625 E2.82353
G1 X103.921 Y136.625 E0.06075
G1 X131.197 Y163.900 E2.82353
G1 X130.367 Y163.900 E0.06075
G1 X103.091 Y136.625 E2.82353
G1 X102.261 Y136.625 E0.06075
G1 X129.537 Y163.900 E2.82353
G1 X128.707 Y163.900 E0.06075
G1 X101.431 Y136.625 E2.82353
G1 X100.601 Y136.625 E0.06075
G1 X127.877 Y163.900 E2.82353
G1 X127.047 Y163.900 E0.06075
G1 X99.771 Y136.625 E2.82353
G1 X98.941 Y136.625 E0.06075
G1 X126.217 Y163.900 E2.82353
G1 X125.387 Y163.900 E0.06075
G1 X98.111 Y136.625 E2.82353
G1 X97.281 Y136.625 E0.06075
G1 X124.557 Y163.900 E2.82353
G1 X123.727 Y163.900 E0.06075
G1 X96.451 Y136.625 E2.82353
G1 X95.622 Y136.625 E0.06075
G1 X122.897 Y163.900 E2.82353
G1 X122.067 Y163.900 E0.06075
G1 X94.792 Y136.625 E2.82353
G1 X93.962 Y136.625 E0.06075
G1 X121.237 Y163.900 E2.82353
G1 X120.407 Y163.900 E0.06075
G1 X93.132 Y136.625 E2.82353
G1 X92.302 Y136.625 E0.06075
G1 X119.577 Y163.900 E2.82353
G1 X118.747 Y163.900 E0.06075
G1 X91.472 Y136.625 E2.82353
G1 X90.642 Y136.625 E0.06075
G1 X117.917 Y163.900 E2.82353
G1 X117.087 Y163.900 E0.06075
G1 X89.812 Y136.625 E2.82353
G1 X88.982 Y136.625 E0.06075
G1 X116.257 Y163.900 E2.82353
G1 X115.427 Y163.900 E0.06075
G1 X88.152 Y136.625 E2.82353
G1 X87.322 Y136.625 E0.06075
G1 X114.597 Y163.900 E2.82353
G1 X113.767 Y163.900 E0.06075
G1 X86.492 Y136.625 E2.82353
G1 X85.662 Y136.625 E0.06075
G1 X112.937 Y163.900 E2.82353
G1 X112.107 Y163.900 E0.06075
G1 X84.832 Y136.625 E2.82353
M73 Q1 S531
G1 X84.002 Y136.625 E0.06075
G1 X111.277 Y163.900 E2.82353
M73 P1 R528
G1 X110.447 Y163.900 E0.06075
G1 X83.172 Y136.625 E2.82353
G1 X82.342 Y136.625 E0.06075
G1 X109.617 Y163.900 E2.82353
G1 X108.787 Y163.900 E0.06075
