; generated by Slic3r Prusa Edition 1.41.2 on 2019-04-02 at 08:59:59

; 

; external perimeters extrusion width = 0.45mm
; perimeters extrusion width = 0.45mm
; infill extrusion width = 0.45mm
; solid infill extrusion width = 0.45mm
; top infill extrusion width = 0.40mm
; first layer extrusion width = 0.42mm

M73 P0 R35
M73 Q0 S35
M201 X1000 Y1000 Z1000 E5000 ; sets maximum accelerations, mm/sec^2
M203 X200 Y200 Z12 E120 ; sets maximum feedrates, mm/sec
M204 P1250 R1250 T1250 ; sets acceleration (P, T) and retract acceleration (R), mm/sec^2
M205 X8.00 Y8.00 Z0.40 E1.50 ; sets the jerk limits, mm/sec
M205 S0 T0 ; sets the minimum extruding and travel feed rate, mm/sec
M107
M115 U3.4.0 ; tell printer latest fw version
M83  ; extruder relative mode
M104 S140 ; set extruder to warm-up temp
M140 S80 ; set bed temp
M190 S80 ; wait for bed temp
G28 W ; home all without mesh bed level
G80 ; mesh bed leveling
M104 S250 ; set extruder temp
M109 S250 ; wait for extruder temp
G1 Y-3.0 F1000.0 ; go outside print area
G92 E0.0
G1 X60.0 E9.0  F1000.0 ; intro line
M73 Q0 S35
M73 P0 R35
G1 X100.0 E12.5  F1000.0 ; intro line
G92 E0.0
M221 S95
M900 K45; Filament gcode
G21 ; set units to millimeters
G90 ; use absolute coordinates
M83 ; use relative distances for extrusion
;BEFORE_LAYER_CHANGE
G92 E0.0
;0.2


G1 E-0.80000 F2100.00000
G1 Z0.600 F10800.000
;AFTER_LAYER_CHANGE
;0.2
G1 X147.735 Y72.956
G1 Z0.200
G1 E0.80000 F2100.00000
M204 S20
G1 F1800
G1 X148.366 Y71.681 E0.04462
G1 X149.700 Y69.859 E0.07080
G1 X150.698 Y68.889 E0.04363
G1 X152.016 Y67.942 E0.05090
G1 X153.440 Y67.218 E0.05008
G1 X154.885 Y66.736 E0.04777
G1 X156.405 Y66.468 E0.04840
G1 X157.422 Y66.389 E0.03197
G1 X176.500 Y66.388 E0.59819
G1 X177.501 Y66.457 E0.03144
G1 X178.778 Y66.659 E0.04053
G1 X180.404 Y67.159 E0.05335
G1 X182.006 Y67.961 E0.05618
G1 X183.444 Y69.021 E0.05601
G1 X184.586 Y70.190 E0.05123
G1 X185.654 Y71.738 E0.05897
G1 X186.240 Y72.918 E0.04131
G1 X186.658 Y74.162 E0.04115
G1 X186.986 Y75.896 E0.05532
G1 X187.061 Y76.939 E0.03280
G1 X187.061 Y95.954 E0.59621
G1 X186.981 Y142.372 E1.45541
G1 X186.907 Y143.401 E0.03236
G1 X186.661 Y144.852 E0.04614
G1 X186.162 Y146.380 E0.05039
G1 X185.441 Y147.805 E0.05008
G1 X184.486 Y149.138 E0.05140
G1 X183.525 Y150.129 E0.04329
G1 X183.004 Y150.575 E0.02150
G1 X181.692 Y151.475 E0.04989
G1 X180.407 Y152.111 E0.04494
G1 X178.893 Y152.600 E0.04991
G1 X177.474 Y152.839 E0.04512
G1 X176.484 Y152.914 E0.03113
G1 X157.415 Y152.914 E0.59787
G1 X156.367 Y152.840 E0.03294
G1 X154.912 Y152.594 E0.04628
G1 X153.369 Y152.088 E0.05090
G1 X151.900 Y151.338 E0.05173
G1 X150.565 Y150.368 E0.05173
G1 X149.402 Y149.206 E0.05157
G1 X148.428 Y147.868 E0.05189
G1 X147.679 Y146.404 E0.05156
G1 X147.166 Y144.836 E0.05173
G1 X146.909 Y143.265 E0.04991
G1 X146.850 Y142.364 E0.02831
G1 X146.850 Y123.348 E0.59622
G1 X146.930 Y76.930 E1.45541
G1 X147.004 Y75.901 E0.03237
G1 X147.250 Y74.450 E0.04612
G1 X147.716 Y73.014 E0.04737
M204 S1000
G1 F8640
G1 X148.366 Y71.681 E-0.34233
G1 X149.435 Y70.222 E-0.41767
G1 E-0.04000 F2100.00000
G1 Z0.800 F10800.000
G1 X148.698 Y71.860
G1 Z0.200
G1 E0.80000 F2100.00000
M204 S20
G1 F1800
G1 X149.974 Y70.119 E0.06767
G1 X150.936 Y69.182 E0.04212
G1 X152.211 Y68.264 E0.04925
G1 X153.589 Y67.564 E0.04846
G1 X155.008 Y67.094 E0.04688
G1 X156.465 Y66.840 E0.04638
G1 X157.429 Y66.766 E0.03032
G1 X176.500 Y66.765 E0.59795
G1 X178.706 Y67.029 E0.06966
G1 X180.269 Y67.511 E0.05128
G1 X181.809 Y68.282 E0.05398
G1 X183.198 Y69.307 E0.05414
G1 X184.293 Y70.426 E0.04909
G1 X185.322 Y71.918 E0.05681
G1 X185.891 Y73.062 E0.04006
G1 X186.301 Y74.283 E0.04038
G1 X186.614 Y75.964 E0.05364
G1 X186.684 Y76.939 E0.03063
G1 X186.684 Y95.954 E0.59621
G1 X186.604 Y142.366 E1.45521
G1 X186.533 Y143.352 E0.03101
G1 X186.294 Y144.767 E0.04498
G1 X185.811 Y146.240 E0.04860
G1 X185.113 Y147.619 E0.04846
G1 X184.191 Y148.903 E0.04956
G1 X183.255 Y149.866 E0.04212
G1 X181.505 Y151.148 E0.06800
G1 X180.265 Y151.761 E0.04338
G1 X178.785 Y152.239 E0.04878
G1 X177.420 Y152.466 E0.04339
G1 X176.476 Y152.536 E0.02966
G1 X157.415 Y152.537 E0.59764
G1 X156.411 Y152.466 E0.03156
G1 X154.997 Y152.227 E0.04496
G1 X153.514 Y151.741 E0.04893
G1 X152.093 Y151.015 E0.05004
G1 X150.811 Y150.082 E0.04972
G1 X149.685 Y148.957 E0.04988
G1 X148.747 Y147.667 E0.05004
G1 X148.025 Y146.255 E0.04972
G1 X147.530 Y144.738 E0.05004
G1 X147.283 Y143.217 E0.04830
G1 X147.227 Y142.359 E0.02697
G1 X147.227 Y123.348 E0.59606
G1 X147.307 Y76.932 E1.45537
G1 X147.378 Y75.950 E0.03086
G1 X147.617 Y74.536 E0.04496
G1 X148.086 Y73.095 E0.04751
G1 X148.671 Y71.913 E0.04135
M204 S1000
; PURGING FINISHED
G1 F8640
G1 X149.974 Y70.119 E-0.51201
G1 X150.743 Y69.370 E-0.24799
G1 E-0.04000 F2100.00000
G1 Z0.800 F10800.000
G1 X154.505 Y74.782
G1 Z0.200
G1 E0.80000 F2100.00000
M204 S20
G1 F1800
G1 X155.323 Y73.964 E0.03625
G1 X156.353 Y73.439 E0.03625
G1 X157.441 Y73.267 E0.03454
G1 X176.549 Y73.267 E0.59912
G1 X177.637 Y73.439 E0.03454
G1 X178.667 Y73.964 E0.03626
G1 X179.485 Y74.782 E0.03625
G1 X180.010 Y75.812 E0.03626
G1 X180.182 Y76.900 E0.03454
G1 X180.182 Y96.008 E0.59912
G1 X180.010 Y97.096 E0.03454
G1 X179.485 Y98.126 E0.03625
G1 X178.667 Y98.944 E0.03625
G1 X177.637 Y99.469 E0.03626
G1 X176.549 Y99.641 E0.03453
G1 X157.441 Y99.641 E0.59912
G1 X156.353 Y99.469 E0.03454
G1 X155.323 Y98.944 E0.03625
G1 X154.505 Y98.126 E0.03625
G1 X153.980 Y97.096 E0.03625
G1 X153.808 Y96.008 E0.03454
G1 X153.808 Y76.900 E0.59912
G1 X153.980 Y75.812 E0.03453
G1 X154.478 Y74.835 E0.03438
M204 S1000
G1 X154.814 Y75.006 F10800.000
M204 S20
G1 F1800
G1 X155.547 Y74.273 E0.03251
G1 X156.471 Y73.802 E0.03251
G1 X157.471 Y73.644 E0.03173
G1 X176.519 Y73.644 E0.59726
G1 X177.519 Y73.802 E0.03173
G1 X178.443 Y74.273 E0.03251
G1 X179.176 Y75.006 E0.03250
G1 X179.647 Y75.930 E0.03251
G1 X179.805 Y76.930 E0.03173
G1 X179.805 Y95.978 E0.59726
G1 X179.647 Y96.978 E0.03173
G1 X179.176 Y97.902 E0.03251
G1 X178.443 Y98.635 E0.03251
G1 X177.519 Y99.106 E0.03251
G1 X176.520 Y99.264 E0.03173
G1 X157.471 Y99.264 E0.59726
G1 X156.471 Y99.106 E0.03173
G1 X155.547 Y98.635 E0.03251
G1 X154.814 Y97.902 E0.03251
G1 X154.343 Y96.978 E0.03251
G1 X154.185 Y95.978 E0.03173
G1 X154.185 Y76.930 E0.59726
G1 X154.343 Y75.930 E0.03173
G1 X154.787 Y75.060 E0.03062
M204 S1000
G1 X154.652 Y74.641 F10800.000
G1 F8640
G1 X155.547 Y74.273 E-0.25265
G1 X156.471 Y73.802 E-0.23941
G1 X157.471 Y73.644 E-0.23370
G1 X157.619 Y73.644 E-0.03424
G1 E-0.04000 F2100.00000
G1 Z0.800 F10800.000
G1 X152.983 Y74.189
G1 Z0.200
G1 E0.80000 F2100.00000
M204 S20
G1 F1800
G1 X153.471 Y73.517 E0.02604
G1 X154.058 Y72.930 E0.02604
G1 X154.730 Y72.441 E0.02604
G1 X155.470 Y72.064 E0.02604
G1 X156.260 Y71.808 E0.02604
G1 X157.107 Y71.674 E0.02689
G1 X157.522 Y71.641 E0.01307
G1 X176.468 Y71.641 E0.59404
G1 X176.884 Y71.674 E0.01307
G1 X177.731 Y71.808 E0.02689
G1 X178.520 Y72.064 E0.02604
G1 X179.260 Y72.441 E0.02604
G1 X179.932 Y72.930 E0.02604
G1 X180.519 Y73.517 E0.02604
G1 X181.008 Y74.189 E0.02604
G1 X181.385 Y74.929 E0.02604
G1 X181.641 Y75.718 E0.02604
G1 X181.775 Y76.565 E0.02689
G1 X181.808 Y76.981 E0.01307
G1 X181.808 Y95.927 E0.59404
G1 X181.775 Y96.342 E0.01307
G1 X181.641 Y97.189 E0.02689
G1 X181.385 Y97.979 E0.02604
G1 X181.008 Y98.719 E0.02604
G1 X180.519 Y99.391 E0.02604
G1 X179.932 Y99.978 E0.02604
G1 X179.260 Y100.466 E0.02604
G1 X178.520 Y100.843 E0.02604
G1 X177.731 Y101.100 E0.02604
G1 X176.884 Y101.234 E0.02689
G1 X176.468 Y101.267 E0.01307
G1 X157.522 Y101.267 E0.59404
G1 X157.107 Y101.234 E0.01307
G1 X156.260 Y101.100 E0.02689
G1 X155.470 Y100.843 E0.02604
G1 X154.730 Y100.466 E0.02604
G1 X154.058 Y99.978 E0.02604
G1 X153.471 Y99.391 E0.02604
G1 X152.983 Y98.719 E0.02604
G1 X152.606 Y97.979 E0.02604
G1 X152.349 Y97.189 E0.02604
G1 X152.215 Y96.342 E0.02689
G1 X152.182 Y95.927 E0.01307
G1 X152.182 Y76.981 E0.59404
G1 X152.215 Y76.565 E0.01307
G1 X152.349 Y75.719 E0.02689
G1 X152.606 Y74.929 E0.02604
G1 X152.955 Y74.242 E0.02416
M204 S1000
G1 X152.619 Y74.071 F10800.000
M204 S20
G1 F1800
G1 X152.660 Y73.991 E0.00281
G1 X153.183 Y73.271 E0.02790
G1 X153.812 Y72.642 E0.02790
G1 X154.532 Y72.119 E0.02790
G1 X155.325 Y71.715 E0.02790
G1 X156.171 Y71.440 E0.02790
G1 X157.062 Y71.299 E0.02828
G1 X157.507 Y71.264 E0.01400
G1 X176.483 Y71.264 E0.59497
G1 X176.928 Y71.299 E0.01400
G1 X177.819 Y71.440 E0.02828
G1 X178.665 Y71.715 E0.02790
G1 X179.458 Y72.119 E0.02790
G1 X180.178 Y72.642 E0.02790
G1 X180.807 Y73.271 E0.02790
G1 X181.330 Y73.991 E0.02790
G1 X181.734 Y74.784 E0.02790
G1 X182.009 Y75.630 E0.02790
G1 X182.150 Y76.521 E0.02828
G1 X182.185 Y76.966 E0.01400
G1 X182.185 Y95.942 E0.59497
G1 X182.150 Y96.387 E0.01400
G1 X182.009 Y97.278 E0.02828
G1 X181.734 Y98.124 E0.02790
G1 X181.330 Y98.917 E0.02790
G1 X180.807 Y99.637 E0.02790
G1 X180.178 Y100.266 E0.02790
G1 X179.458 Y100.789 E0.02790
G1 X178.665 Y101.193 E0.02790
G1 X177.819 Y101.468 E0.02790
G1 X176.928 Y101.609 E0.02828
G1 X176.483 Y101.644 E0.01400
G1 X157.507 Y101.644 E0.59497
G1 X157.062 Y101.609 E0.01400
G1 X156.171 Y101.468 E0.02828
G1 X155.325 Y101.193 E0.02790
G1 X154.532 Y100.789 E0.02790
G1 X153.812 Y100.266 E0.02790
G1 X153.183 Y99.637 E0.02790
G1 X152.660 Y98.917 E0.02790
G1 X152.256 Y98.124 E0.02790
G1 X151.981 Y97.278 E0.02790
G1 X151.840 Y96.387 E0.02828
G1 X151.805 Y95.942 E0.01400
G1 X151.805 Y76.966 E0.59497
G1 X151.840 Y76.521 E0.01400
G1 X151.981 Y75.630 E0.02828
G1 X152.256 Y74.784 E0.02790
G1 X152.592 Y74.124 E0.02321
M204 S1000
G1 X152.709 Y74.064 F10800.000
G1 F8640
G1 X152.660 Y73.991 E-0.03456
G1 X153.183 Y73.271 E-0.20547
G1 X153.812 Y72.642 E-0.20546
G1 X154.532 Y72.119 E-0.20546
G1 X154.953 Y71.905 E-0.10905
G1 E-0.04000 F2100.00000
G1 Z0.800 F10800.000
G1 X153.015 Y98.533
G1 Z0.200
G1 E0.80000 F2100.00000
M204 S20
G1 F1800
G1 X154.916 Y100.434 E0.08494
M204 S1000
G1 F8640
G1 X153.015 Y98.533 E-0.62084
G1 E-0.17916 F2100.00000
G1 Z0.800 F10800.000
G1 X155.875 Y100.856
G1 Z0.200
G1 E0.80000 F2100.00000
M204 S20
G1 F1800
G1 X152.857 Y97.838 E0.13484
G1 X152.615 Y97.058 E0.02580
G1 X156.595 Y101.039 E0.17783
M204 S1000
G1 F8640
G1 X154.268 Y98.711 E-0.76000
G1 E-0.04000 F2100.00000
G1 Z0.800 F10800.000
G1 X181.695 Y77.244
G1 Z0.200
G1 E0.80000 F2100.00000
M204 S20
G1 F1800
G1 X180.302 Y75.851 E0.06221
G1 X180.404 Y76.489 E0.02042
G1 X181.525 Y77.611 E0.05012
G1 X181.525 Y78.149 E0.01697
G1 X180.465 Y77.088 E0.04737
G1 X180.465 Y77.626 E0.01697
G1 X181.525 Y78.686 E0.04737
G1 X181.525 Y79.223 E0.01697
G1 X180.465 Y78.163 E0.04737
G1 X180.465 Y78.700 E0.01697
G1 X181.525 Y79.760 E0.04737
G1 X181.525 Y80.298 E0.01697
G1 X180.465 Y79.237 E0.04737
G1 X180.465 Y79.775 E0.01697
G1 X181.525 Y80.835 E0.04737
G1 X181.525 Y81.372 E0.01697
G1 X180.465 Y80.312 E0.04737
G1 X180.465 Y80.849 E0.01697
G1 X181.525 Y81.910 E0.04737
G1 X181.525 Y82.447 E0.01697
G1 X180.465 Y81.387 E0.04737
G1 X180.465 Y81.924 E0.01697
G1 X181.525 Y82.984 E0.04737
G1 X181.525 Y83.522 E0.01697
G1 X180.465 Y82.461 E0.04737
G1 X180.465 Y82.999 E0.01697
G1 X181.525 Y84.059 E0.04737
G1 X181.525 Y84.596 E0.01697
G1 X180.465 Y83.536 E0.04737
G1 X180.465 Y84.073 E0.01697
G1 X181.525 Y85.134 E0.04737
G1 X181.525 Y85.671 E0.01697
G1 X180.465 Y84.611 E0.04737
G1 X180.465 Y85.148 E0.01697
G1 X181.525 Y86.208 E0.04737
G1 X181.525 Y86.745 E0.01697
G1 X180.465 Y85.685 E0.04737
G1 X180.465 Y86.222 E0.01697
G1 X181.525 Y87.283 E0.04737
G1 X181.525 Y87.820 E0.01697
G1 X180.465 Y86.760 E0.04737
G1 X180.465 Y87.297 E0.01697
G1 X181.525 Y88.357 E0.04737
G1 X181.525 Y88.895 E0.01697
G1 X180.465 Y87.834 E0.04737
G1 X180.465 Y88.372 E0.01697
G1 X181.525 Y89.432 E0.04737
G1 X181.525 Y89.969 E0.01697
G1 X180.465 Y88.909 E0.04737
G1 X180.465 Y89.446 E0.01697
G1 X181.525 Y90.507 E0.04737
G1 X181.525 Y91.044 E0.01697
G1 X180.465 Y89.984 E0.04737
G1 X180.465 Y90.521 E0.01697
G1 X181.525 Y91.581 E0.04737
G1 X181.525 Y92.119 E0.01697
G1 X180.465 Y91.058 E0.04737
G1 X180.465 Y91.596 E0.01697
G1 X181.525 Y92.656 E0.04737
G1 X181.525 Y93.193 E0.01697
G1 X180.465 Y92.133 E0.04737
G1 X180.465 Y92.670 E0.01697
G1 X181.525 Y93.730 E0.04737
G1 X181.525 Y94.268 E0.01697
G1 X180.465 Y93.207 E0.04737
G1 X180.465 Y93.745 E0.01697
G1 X181.525 Y94.805 E0.04737
G1 X181.525 Y95.342 E0.01697
G1 X180.465 Y94.282 E0.04737
G1 X180.465 Y94.819 E0.01697
G1 X181.525 Y95.880 E0.04737
G1 X181.525 Y95.916 E0.00114
G1 X181.484 Y96.376 E0.01458
G1 X180.465 Y95.357 E0.04552
G1 X180.465 Y95.894 E0.01697
G1 X181.410 Y96.839 E0.04224
G1 X181.365 Y97.123 E0.00908
G1 X181.314 Y97.281 E0.00523
G1 X180.410 Y96.376 E0.04039
G1 X180.337 Y96.840 E0.01484
G1 X181.182 Y97.686 E0.03779
G1 X181.122 Y97.871 E0.00613
G1 X181.024 Y98.065 E0.00688
G1 X180.235 Y97.276 E0.03522
G1 X180.054 Y97.632 E0.01262
G1 X180.842 Y98.421 E0.03522
G1 X180.766 Y98.571 E0.00533
G1 X180.635 Y98.751 E0.00702
G1 X179.873 Y97.988 E0.03407
G1 X179.717 Y98.294 E0.01086
G1 X179.679 Y98.332 E0.00167
G1 X180.409 Y99.062 E0.03261
G1 X180.304 Y99.207 E0.00566
G1 X180.160 Y99.350 E0.00641
G1 X179.410 Y98.601 E0.03350
G1 X179.142 Y98.869 E0.01200
G1 X179.892 Y99.619 E0.03350
G1 X179.748 Y99.763 E0.00641
G1 X179.603 Y99.868 E0.00566
G1 X178.873 Y99.138 E0.03261
G1 X178.836 Y99.175 E0.00167
G1 X178.529 Y99.331 E0.01086
G1 X179.292 Y100.094 E0.03406
G1 X179.112 Y100.225 E0.00702
G1 X178.962 Y100.301 E0.00533
G1 X178.173 Y99.513 E0.03522
G1 X177.817 Y99.694 E0.01262
G1 X178.606 Y100.483 E0.03522
G1 X178.412 Y100.581 E0.00688
G1 X178.227 Y100.641 E0.00613
G1 X177.381 Y99.796 E0.03779
G1 X176.918 Y99.869 E0.01484
G1 X177.822 Y100.773 E0.04039
G1 X177.664 Y100.824 E0.00523
G1 X177.380 Y100.869 E0.00908
G1 X176.435 Y99.924 E0.04224
G1 X175.898 Y99.924 E0.01697
G1 X176.917 Y100.943 E0.04552
G1 X176.421 Y100.984 E0.01572
G1 X175.361 Y99.924 E0.04737
G1 X174.823 Y99.924 E0.01697
G1 X175.883 Y100.984 E0.04737
G1 X175.346 Y100.984 E0.01697
G1 X174.286 Y99.924 E0.04737
G1 X173.749 Y99.924 E0.01697
G1 X174.809 Y100.984 E0.04737
G1 X174.272 Y100.984 E0.01697
G1 X173.211 Y99.924 E0.04737
G1 X172.674 Y99.924 E0.01697
G1 X173.734 Y100.984 E0.04737
G1 X173.197 Y100.984 E0.01697
G1 X172.137 Y99.924 E0.04737
G1 X171.599 Y99.924 E0.01697
G1 X172.660 Y100.984 E0.04737
G1 X172.122 Y100.984 E0.01697
G1 X171.062 Y99.924 E0.04737
G1 X170.525 Y99.924 E0.01697
G1 X171.585 Y100.984 E0.04737
G1 X171.048 Y100.984 E0.01697
G1 X169.987 Y99.924 E0.04737
G1 X169.450 Y99.924 E0.01697
G1 X170.510 Y100.984 E0.04737
G1 X169.973 Y100.984 E0.01697
G1 X168.913 Y99.924 E0.04737
G1 X168.376 Y99.924 E0.01697
G1 X169.436 Y100.984 E0.04737
G1 X168.898 Y100.984 E0.01697
G1 X167.838 Y99.924 E0.04737
G1 X167.301 Y99.924 E0.01697
G1 X168.361 Y100.984 E0.04737
G1 X167.824 Y100.984 E0.01697
G1 X166.764 Y99.924 E0.04737
G1 X166.226 Y99.924 E0.01697
G1 X167.287 Y100.984 E0.04737
G1 X166.749 Y100.984 E0.01697
G1 X165.689 Y99.924 E0.04737
G1 X165.152 Y99.924 E0.01697
G1 X166.212 Y100.984 E0.04737
G1 X165.675 Y100.984 E0.01697
G1 X164.614 Y99.924 E0.04737
G1 X164.077 Y99.924 E0.01697
G1 X165.137 Y100.984 E0.04737
G1 X164.600 Y100.984 E0.01697
G1 X163.540 Y99.924 E0.04737
G1 X163.002 Y99.924 E0.01697
G1 X164.063 Y100.984 E0.04737
G1 X163.525 Y100.984 E0.01697
G1 X162.465 Y99.924 E0.04737
G1 X161.928 Y99.924 E0.01697
G1 X162.988 Y100.984 E0.04737
G1 X162.451 Y100.984 E0.01697
G1 X161.391 Y99.924 E0.04737
G1 X160.853 Y99.924 E0.01697
G1 X161.913 Y100.984 E0.04737
G1 X161.376 Y100.984 E0.01697
G1 X160.316 Y99.924 E0.04737
G1 X159.779 Y99.924 E0.01697
G1 X160.839 Y100.984 E0.04737
G1 X160.302 Y100.984 E0.01697
G1 X159.241 Y99.924 E0.04737
G1 X158.704 Y99.924 E0.01697
G1 X159.764 Y100.984 E0.04737
M73 Q3 S34
G1 X159.227 Y100.984 E0.01697
G1 X158.167 Y99.924 E0.04737
G1 X157.629 Y99.924 E0.01697
M73 P3 R34
G1 X158.690 Y100.984 E0.04737
G1 X158.152 Y100.984 E0.01697
G1 X157.031 Y99.862 E0.05012
G1 X156.392 Y99.761 E0.02042
G1 X157.615 Y100.984 E0.05463
G1 X157.140 Y100.953 E0.01504
G1 X157.029 Y100.936 E0.00354
G1 X152.513 Y96.420 E0.20175
G1 X152.465 Y95.834 E0.01857
G1 X153.688 Y97.057 E0.05463
G1 X153.587 Y96.418 E0.02042
