; generated by PrusaSlicer 2.0.0 on 2019-08-31 at 19:13:46

; 

; external perimeters extrusion width = 0.45mm
; perimeters extrusion width = 0.45mm
; infill extrusion width = 0.45mm
; solid infill extrusion width = 0.45mm
; top infill extrusion width = 0.40mm
; first layer extrusion width = 0.42mm

M73 P0 R39
M73 Q0 S39
M201 X1000 Y1000 Z1000 E5000 ; sets maximum accelerations, mm/sec^2
M203 X200 Y200 Z12 E120 ; sets maximum feedrates, mm/sec
M204 P1250 R1250 T1250 ; sets acceleration (P, T) and retract acceleration (R), mm/sec^2
M205 X8.00 Y8.00 Z0.40 E1.50 ; sets the jerk limits, mm/sec
M205 S0 T0 ; sets the minimum extruding and travel feed rate, mm/sec
M107
M115 U3.4.0 ; tell printer latest fw version
M83  ; extruder relative mode
M104 S140 ; set extruder to warm-up temp
M140 S0 ; set bed temp
M190 S0 ; wait for bed temp
G28 W ; home all without mesh bed level
G80 ; mesh bed leveling
M104 S230 ; set extruder temp
M109 S230 ; wait for extruder temp
G1 Y-3.0 F1000.0 ; go outside print area
G92 E0.0
G1 X60.0 E9.0  F1000.0 ; intro line
M73 Q0 S39
M73 P0 R39
G1 X100.0 E12.5  F1000.0 ; intro line
G92 E0.0
M221 S95
M900 K10; Filament gcode
G21 ; set units to millimeters
G90 ; use absolute coordinates
M83 ; use relative distances for extrusion
;BEFORE_LAYER_CHANGE
G92 E0.0
;0.2


G1 E-0.80000 F2100.00000
G1 Z0.600 F10800.000
;AFTER_LAYER_CHANGE
;0.2
G1 X99.837 Y81.326
G1 Z0.200
G1 E0.80000 F2100.00000
M204 S20
G1 F1800
G1 X101.159 Y79.973 E0.05931
G1 X102.728 Y78.871 E0.06013
G1 X103.954 Y78.260 E0.04297
G1 X105.203 Y77.838 E0.04131
G1 X107.114 Y77.455 E0.06113
G1 X142.000 Y77.434 E1.09382
G1 X144.272 Y77.703 E0.07172
G1 X145.859 Y78.187 E0.05205
G1 X147.457 Y78.975 E0.05585
G1 X148.777 Y79.919 E0.05090
G1 X150.014 Y81.142 E0.05454
G1 X151.023 Y82.539 E0.05404
G1 X151.782 Y84.057 E0.05321
G1 X152.325 Y85.885 E0.05979
G1 X152.566 Y87.969 E0.06577
G1 X152.560 Y122.232 E1.07430
G1 X152.288 Y124.319 E0.06597
G1 X151.806 Y125.879 E0.05121
G1 X151.043 Y127.425 E0.05404
G1 X150.163 Y128.674 E0.04791
G1 X148.652 Y130.179 E0.06687
G1 X147.515 Y130.990 E0.04380
G1 X146.281 Y131.634 E0.04363
G1 X144.395 Y132.271 E0.06243
G1 X142.137 Y132.564 E0.07140
G1 X107.731 Y132.558 E1.07876
G1 X105.671 Y132.286 E0.06515
G1 X104.111 Y131.802 E0.05121
G1 X102.561 Y131.036 E0.05420
G1 X101.326 Y130.163 E0.04743
G1 X99.821 Y128.652 E0.06687
G1 X99.010 Y127.515 E0.04380
G1 X98.366 Y126.281 E0.04362
G1 X97.729 Y124.395 E0.06243
G1 X97.436 Y122.137 E0.07139
G1 X97.442 Y87.731 E1.07877
G1 X97.714 Y85.671 E0.06513
G1 X98.198 Y84.111 E0.05123
G1 X98.967 Y82.557 E0.05436
G1 X99.802 Y81.375 E0.04538
M204 S1000
G1 F8640
G1 X101.159 Y79.973 E-0.45043
G1 X102.256 Y79.202 E-0.30957
G1 E-0.04000 F2100.00000
G1 Z0.800 F10800.000
G1 X100.170 Y81.537
G1 X100.559 Y80.559
G1 X101.537 Y80.170
G1 X101.406 Y80.257
G1 Z0.200
G1 E0.80000 F2100.00000
M204 S20
G1 F1800
G1 X102.914 Y79.198 E0.05776
G1 X104.098 Y78.608 E0.04149
G1 X105.319 Y78.197 E0.04038
G1 X107.163 Y77.829 E0.05896
G1 X142.000 Y77.811 E1.09230
G1 X144.206 Y78.074 E0.06965
G1 X145.769 Y78.556 E0.05129
G1 X147.309 Y79.326 E0.05398
G1 X148.681 Y80.333 E0.05335
G1 X149.788 Y81.461 E0.04957
G1 X150.811 Y82.932 E0.05618
G1 X151.508 Y84.411 E0.05127
G1 X151.889 Y85.626 E0.03991
G1 X152.100 Y86.875 E0.03972
G1 X152.189 Y87.990 E0.03508
G1 X152.182 Y122.227 E1.07349
G1 X151.917 Y124.251 E0.06399
G1 X151.450 Y125.755 E0.04938
G1 X150.713 Y127.243 E0.05207
G1 X149.855 Y128.456 E0.04656
G1 X148.416 Y129.885 E0.06360
G1 X147.314 Y130.671 E0.04245
G1 X146.109 Y131.299 E0.04260
G1 X144.305 Y131.905 E0.05966
G1 X142.121 Y132.187 E0.06905
G1 X107.757 Y132.182 E1.07746
G1 X105.749 Y131.917 E0.06351
G1 X104.240 Y131.448 E0.04954
G1 X102.743 Y130.706 E0.05241
G1 X101.544 Y129.855 E0.04608
G1 X100.115 Y128.416 E0.06360
G1 X99.329 Y127.314 E0.04245
G1 X98.701 Y126.109 E0.04259
G1 X98.095 Y124.305 E0.05966
G1 X97.813 Y122.122 E0.06904
G1 X97.818 Y87.757 E1.07746
G1 X98.083 Y85.750 E0.06350
G1 X98.552 Y84.240 E0.04956
G1 X99.295 Y82.743 E0.05240
G1 X100.145 Y81.544 E0.04608
G1 X101.364 Y80.300 E0.05463
M204 S1000
G1 F8640
G1 X102.914 Y79.198 E-0.43902
G1 X104.098 Y78.608 E-0.30553
G1 X104.162 Y78.587 E-0.01545
G1 E-0.04000 F2100.00000
G1 Z0.800 F10800.000
G1 X104.661 Y84.090
G1 Z0.200
G1 E0.80000 F2100.00000
M204 S20
G1 F1800
G1 X105.313 Y83.616 E0.02530
G1 X106.032 Y83.250 E0.02530
G1 X106.800 Y83.000 E0.02530
G1 X107.629 Y82.869 E0.02633
G1 X108.033 Y82.837 E0.01270
G1 X141.967 Y82.837 E1.06398
G1 X142.371 Y82.869 E0.01270
G1 X143.200 Y83.000 E0.02633
G1 X143.968 Y83.250 E0.02530
G1 X144.687 Y83.616 E0.02530
G1 X145.339 Y84.090 E0.02530
G1 X145.910 Y84.661 E0.02530
G1 X146.384 Y85.313 E0.02530
G1 X146.750 Y86.032 E0.02530
G1 X147.000 Y86.800 E0.02530
G1 X147.131 Y87.629 E0.02633
G1 X147.163 Y88.033 E0.01270
G1 X147.163 Y121.967 E1.06399
G1 X147.131 Y122.371 E0.01270
G1 X147.000 Y123.200 E0.02633
G1 X146.750 Y123.968 E0.02530
G1 X146.384 Y124.687 E0.02530
G1 X145.910 Y125.339 E0.02530
G1 X145.339 Y125.910 E0.02530
G1 X144.687 Y126.384 E0.02530
G1 X143.968 Y126.750 E0.02530
G1 X143.200 Y127.000 E0.02530
G1 X142.371 Y127.131 E0.02633
G1 X141.967 Y127.163 E0.01270
G1 X108.033 Y127.163 E1.06399
G1 X107.629 Y127.131 E0.01270
G1 X106.800 Y127.000 E0.02633
G1 X106.032 Y126.750 E0.02530
G1 X105.313 Y126.384 E0.02530
G1 X104.661 Y125.910 E0.02530
G1 X104.090 Y125.339 E0.02530
G1 X103.616 Y124.687 E0.02530
G1 X103.250 Y123.968 E0.02530
G1 X103.000 Y123.200 E0.02530
G1 X102.869 Y122.371 E0.02633
G1 X102.837 Y121.967 E0.01270
G1 X102.837 Y88.033 E1.06398
G1 X102.869 Y87.629 E0.01270
G1 X103.000 Y86.800 E0.02633
G1 X103.250 Y86.032 E0.02530
G1 X103.616 Y85.313 E0.02530
G1 X104.090 Y84.661 E0.02530
G1 X104.618 Y84.133 E0.02342
M204 S1000
G1 X104.352 Y83.866 F10800.000
M204 S20
G1 F1800
G1 X104.415 Y83.802 E0.00281
G1 X105.116 Y83.293 E0.02716
G1 X105.888 Y82.900 E0.02716
G1 X106.711 Y82.632 E0.02716
G1 X107.585 Y82.494 E0.02773
G1 X108.018 Y82.460 E0.01363
G1 X141.982 Y82.460 E1.06491
G1 X142.415 Y82.494 E0.01363
G1 X143.289 Y82.632 E0.02773
G1 X144.112 Y82.900 E0.02716
G1 X144.884 Y83.293 E0.02716
G1 X145.585 Y83.802 E0.02716
G1 X146.198 Y84.415 E0.02716
G1 X146.707 Y85.116 E0.02716
G1 X147.100 Y85.888 E0.02716
G1 X147.368 Y86.711 E0.02716
G1 X147.506 Y87.585 E0.02773
G1 X147.540 Y88.018 E0.01363
G1 X147.540 Y121.982 E1.06491
G1 X147.506 Y122.415 E0.01363
G1 X147.368 Y123.289 E0.02773
G1 X147.100 Y124.112 E0.02716
G1 X146.707 Y124.884 E0.02716
G1 X146.198 Y125.585 E0.02716
G1 X145.585 Y126.198 E0.02716
G1 X144.884 Y126.707 E0.02716
G1 X144.112 Y127.100 E0.02716
G1 X143.289 Y127.368 E0.02716
G1 X142.415 Y127.506 E0.02773
G1 X141.982 Y127.540 E0.01363
G1 X108.018 Y127.540 E1.06491
G1 X107.585 Y127.506 E0.01363
G1 X106.711 Y127.368 E0.02773
G1 X105.888 Y127.100 E0.02716
G1 X105.116 Y126.707 E0.02716
G1 X104.415 Y126.198 E0.02716
G1 X103.802 Y125.585 E0.02716
G1 X103.293 Y124.884 E0.02716
G1 X102.900 Y124.112 E0.02716
G1 X102.632 Y123.289 E0.02716
G1 X102.494 Y122.415 E0.02773
G1 X102.460 Y121.982 E0.01363
G1 X102.460 Y88.018 E1.06491
G1 X102.494 Y87.585 E0.01363
G1 X102.632 Y86.711 E0.02773
G1 X102.900 Y85.888 E0.02716
G1 X103.293 Y85.116 E0.02716
G1 X103.802 Y84.415 E0.02716
G1 X104.309 Y83.908 E0.02247
M204 S1000
G1 X104.439 Y83.887 F10800.000
G1 F8640
G1 X104.415 Y83.802 E-0.03456
G1 X105.116 Y83.293 E-0.20001
G1 X105.888 Y82.900 E-0.20001
G1 X106.711 Y82.632 E-0.20001
G1 X107.248 Y82.547 E-0.12540
G1 E-0.04000 F2100.00000
G1 Z0.800 F10800.000
G1 X144.493 Y83.644
G1 Z0.200
G1 E0.80000 F2100.00000
M204 S20
G1 F1800
G1 X146.356 Y85.507 E0.08270
M204 S1000
G1 F8640
G1 X144.493 Y83.644 E-0.60822
G1 E-0.19178 F2100.00000
G1 Z0.800 F10800.000
G1 X146.768 Y86.453
G1 Z0.200
G1 E0.80000 F2100.00000
M204 S20
G1 F1800
G1 X143.811 Y83.496 E0.13131
G1 X143.134 Y83.276 E0.02234
G1 X143.043 Y83.262 E0.00291
G1 X146.738 Y86.957 E0.16410
G1 X146.839 Y87.592 E0.02017
G1 X142.408 Y83.161 E0.19673
G1 X141.833 Y83.120 E0.01810
G1 X146.880 Y88.167 E0.22410
G1 X146.880 Y88.701 E0.01676
G1 X141.299 Y83.120 E0.24781
G1 X140.765 Y83.120 E0.01676
G1 X146.880 Y89.235 E0.27151
G1 X146.880 Y89.769 E0.01676
G1 X140.231 Y83.120 E0.29522
G1 X139.697 Y83.120 E0.01676
G1 X146.880 Y90.303 E0.31893
G1 X146.880 Y90.837 E0.01676
G1 X139.163 Y83.120 E0.34264
G1 X138.629 Y83.120 E0.01676
G1 X146.880 Y91.371 E0.36635
G1 X146.880 Y91.905 E0.01676
G1 X138.095 Y83.120 E0.39006
G1 X137.561 Y83.120 E0.01676
G1 X146.880 Y92.439 E0.41376
G1 X146.880 Y92.973 E0.01676
G1 X137.027 Y83.120 E0.43747
G1 X136.493 Y83.120 E0.01676
G1 X146.880 Y93.507 E0.46118
G1 X146.880 Y94.041 E0.01676
G1 X135.959 Y83.120 E0.48489
G1 X135.425 Y83.120 E0.01676
G1 X146.880 Y94.575 E0.50860
G1 X146.880 Y95.109 E0.01676
G1 X134.891 Y83.120 E0.53231
G1 X134.357 Y83.120 E0.01676
G1 X146.880 Y95.643 E0.55601
G1 X146.880 Y96.177 E0.01676
G1 X133.823 Y83.120 E0.57972
G1 X133.289 Y83.120 E0.01676
G1 X146.880 Y96.711 E0.60343
G1 X146.880 Y97.245 E0.01676
G1 X132.755 Y83.120 E0.62714
G1 X132.221 Y83.120 E0.01676
G1 X146.880 Y97.779 E0.65085
G1 X146.880 Y98.313 E0.01676
G1 X131.687 Y83.120 E0.67456
G1 X131.153 Y83.120 E0.01676
G1 X146.880 Y98.847 E0.69827
G1 X146.880 Y99.381 E0.01676
G1 X130.619 Y83.120 E0.72197
M73 Q2 S38
G1 X130.086 Y83.120 E0.01676
M73 P2 R38
G1 X146.880 Y99.914 E0.74568
G1 X146.880 Y100.448 E0.01676
G1 X129.552 Y83.120 E0.76939
G1 X129.018 Y83.120 E0.01676
G1 X146.880 Y100.982 E0.79310
G1 X146.880 Y101.516 E0.01676
G1 X128.484 Y83.120 E0.81681
G1 X127.950 Y83.120 E0.01676
G1 X146.880 Y102.050 E0.84052
G1 X146.880 Y102.584 E0.01676
G1 X127.416 Y83.120 E0.86422
G1 X126.882 Y83.120 E0.01676
G1 X146.880 Y103.118 E0.88793
G1 X146.880 Y103.652 E0.01676
G1 X126.348 Y83.120 E0.91164
G1 X125.814 Y83.120 E0.01676
G1 X146.880 Y104.186 E0.93535
G1 X146.880 Y104.720 E0.01676
G1 X125.280 Y83.120 E0.95906
G1 X124.746 Y83.120 E0.01676
G1 X146.880 Y105.254 E0.98277
G1 X146.880 Y105.788 E0.01676
G1 X124.212 Y83.120 E1.00648
G1 X123.678 Y83.120 E0.01676
G1 X146.880 Y106.322 E1.03018
G1 X146.880 Y106.856 E0.01676
G1 X123.144 Y83.120 E1.05389
G1 X122.610 Y83.120 E0.01676
G1 X146.880 Y107.390 E1.07760
G1 X146.880 Y107.924 E0.01676
G1 X122.076 Y83.120 E1.10131
G1 X121.542 Y83.120 E0.01676
G1 X146.880 Y108.458 E1.12502
G1 X146.880 Y108.992 E0.01676
G1 X121.008 Y83.120 E1.14873
G1 X120.474 Y83.120 E0.01676
G1 X146.880 Y109.526 E1.17243
G1 X146.880 Y110.060 E0.01676
G1 X119.940 Y83.120 E1.19614
G1 X119.406 Y83.120 E0.01676
G1 X146.880 Y110.594 E1.21985
G1 X146.880 Y111.128 E0.01676
G1 X118.872 Y83.120 E1.24356
G1 X118.338 Y83.120 E0.01676
G1 X146.880 Y111.662 E1.26727
G1 X146.880 Y112.196 E0.01676
G1 X117.804 Y83.120 E1.29098
G1 X117.270 Y83.120 E0.01676
G1 X146.880 Y112.730 E1.31468
G1 X146.880 Y113.264 E0.01676
G1 X116.736 Y83.120 E1.33839
G1 X116.202 Y83.120 E0.01676
G1 X146.880 Y113.798 E1.36210
G1 X146.880 Y114.332 E0.01676
G1 X115.668 Y83.120 E1.38581
G1 X115.134 Y83.120 E0.01676
G1 X146.880 Y114.866 E1.40952
G1 X146.880 Y115.400 E0.01676
G1 X114.600 Y83.120 E1.43323
G1 X114.066 Y83.120 E0.01676
G1 X146.880 Y115.934 E1.45694
M73 Q5 S37
M73 P5 R37
G1 X146.880 Y116.468 E0.01676
G1 X113.532 Y83.120 E1.48064
G1 X112.998 Y83.120 E0.01676
G1 X146.880 Y117.002 E1.50435
G1 X146.880 Y117.536 E0.01676
G1 X112.464 Y83.120 E1.52806
G1 X111.930 Y83.120 E0.01676
G1 X146.880 Y118.070 E1.55177
G1 X146.880 Y118.604 E0.01676
G1 X111.396 Y83.120 E1.57548
G1 X110.862 Y83.120 E0.01676
G1 X146.880 Y119.138 E1.59919
G1 X146.880 Y119.671 E0.01676
G1 X110.329 Y83.120 E1.62289
G1 X109.795 Y83.120 E0.01676
G1 X146.880 Y120.205 E1.64660
G1 X146.880 Y120.739 E0.01676
G1 X109.261 Y83.120 E1.67031
G1 X108.727 Y83.120 E0.01676
G1 X146.880 Y121.273 E1.69402
G1 X146.880 Y121.807 E0.01676
G1 X108.193 Y83.120 E1.71773
G1 X107.687 Y83.148 E0.01591
G1 X146.852 Y122.313 E1.73894
G1 X146.781 Y122.776 E0.01470
G1 X107.224 Y83.219 E1.75631
G1 X106.776 Y83.305 E0.01432
G1 X146.695 Y123.224 E1.77239
G1 X146.564 Y123.627 E0.01330
G1 X106.373 Y83.436 E1.78447
G1 X106.141 Y83.512 E0.00766
G1 X105.991 Y83.588 E0.00528
G1 X146.412 Y124.009 E1.79470
G1 X146.232 Y124.363 E0.01246
G1 X105.637 Y83.768 E1.80240
G1 X105.462 Y83.858 E0.00619
G1 X105.306 Y83.971 E0.00605
G1 X146.029 Y124.694 E1.80812
G1 X145.804 Y125.003 E0.01200
G1 X104.997 Y84.196 E1.81187
G1 X104.845 Y84.306 E0.00589
G1 X104.709 Y84.442 E0.00604
G1 X145.558 Y125.291 E1.81371
G1 X145.291 Y125.558 E0.01185
G1 X104.442 Y84.709 E1.81371
G1 X104.306 Y84.845 E0.00604
G1 X104.196 Y84.997 E0.00589
G1 X145.003 Y125.804 E1.81187
G1 X144.694 Y126.029 E0.01200
G1 X103.971 Y85.306 E1.80812
G1 X103.858 Y85.462 E0.00605
G1 X103.768 Y85.637 E0.00619
G1 X144.363 Y126.232 E1.80240
M73 Q7 S36
M73 P7 R36
G1 X144.009 Y126.412 E0.01246
G1 X103.588 Y85.991 E1.79470
G1 X103.512 Y86.141 E0.00528
G1 X103.436 Y86.373 E0.00766
G1 X143.627 Y126.564 E1.78447
G1 X143.224 Y126.695 E0.01330
G1 X103.305 Y86.776 E1.77239
G1 X103.219 Y87.224 E0.01432
G1 X142.776 Y126.781 E1.75631
G1 X142.313 Y126.852 E0.01470
G1 X103.148 Y87.687 E1.73894
G1 X103.120 Y88.193 E0.01591
G1 X141.807 Y126.880 E1.71773
G1 X141.273 Y126.880 E0.01676
G1 X103.120 Y88.727 E1.69402
G1 X103.120 Y89.261 E0.01676
G1 X140.739 Y126.880 E1.67031
G1 X140.205 Y126.880 E0.01676
G1 X103.120 Y89.795 E1.64660
G1 X103.120 Y90.329 E0.01676
G1 X139.672 Y126.880 E1.62289
G1 X139.138 Y126.880 E0.01676
G1 X103.120 Y90.862 E1.59919
G1 X103.120 Y91.396 E0.01676
G1 X138.604 Y126.880 E1.57548
G1 X138.070 Y126.880 E0.01676
G1 X103.120 Y91.930 E1.55177
G1 X103.120 Y92.464 E0.01676
G1 X137.536 Y126.880 E1.52806
G1 X137.002 Y126.880 E0.01676
G1 X103.120 Y92.998 E1.50435
G1 X103.120 Y93.532 E0.01676
G1 X136.468 Y126.880 E1.48064
G1 X135.934 Y126.880 E0.01676
G1 X103.120 Y94.066 E1.45694
G1 X103.120 Y94.600 E0.01676
G1 X135.400 Y126.880 E1.43323
G1 X134.866 Y126.880 E0.01676
G1 X103.120 Y95.134 E1.40952
G1 X103.120 Y95.668 E0.01676
G1 X134.332 Y126.880 E1.38581
G1 X133.798 Y126.880 E0.01676
G1 X103.120 Y96.202 E1.36210
G1 X103.120 Y96.736 E0.01676
G1 X133.264 Y126.880 E1.33839
G1 X132.730 Y126.880 E0.01676
G1 X103.120 Y97.270 E1.31468
G1 X103.120 Y97.804 E0.01676
G1 X132.196 Y126.880 E1.29098
G1 X131.662 Y126.880 E0.01676
G1 X103.120 Y98.338 E1.26727
G1 X103.120 Y98.872 E0.01676
G1 X131.128 Y126.880 E1.24356
M73 Q10 S35
M73 P10 R35
G1 X130.594 Y126.880 E0.01676
G1 X103.120 Y99.406 E1.21985
G1 X103.120 Y99.940 E0.01676
G1 X130.060 Y126.880 E1.19614
G1 X129.526 Y126.880 E0.01676
G1 X103.120 Y100.474 E1.17243
G1 X103.120 Y101.008 E0.01676
G1 X128.992 Y126.880 E1.14873
G1 X128.458 Y126.880 E0.01676
G1 X103.120 Y101.542 E1.12502
G1 X103.120 Y102.076 E0.01676
G1 X127.924 Y126.880 E1.10131
G1 X127.390 Y126.880 E0.01676
G1 X103.120 Y102.610 E1.07760
G1 X103.120 Y103.144 E0.01676
G1 X126.856 Y126.880 E1.05389
G1 X126.322 Y126.880 E0.01676
G1 X103.120 Y103.678 E1.03018
G1 X103.120 Y104.212 E0.01676
G1 X125.788 Y126.880 E1.00648
G1 X125.254 Y126.880 E0.01676
G1 X103.120 Y104.746 E0.98277
G1 X103.120 Y105.280 E0.01676
G1 X124.720 Y126.880 E0.95906
G1 X124.186 Y126.880 E0.01676
G1 X103.120 Y105.814 E0.93535
G1 X103.120 Y106.348 E0.01676
G1 X123.652 Y126.880 E0.91164
G1 X123.118 Y126.880 E0.01676
G1 X103.120 Y106.882 E0.88793
G1 X103.120 Y107.416 E0.01676
G1 X122.584 Y126.880 E0.86422
G1 X122.050 Y126.880 E0.01676
G1 X103.120 Y107.950 E0.84052
G1 X103.120 Y108.484 E0.01676
G1 X121.516 Y126.880 E0.81681
G1 X120.982 Y126.880 E0.01676
G1 X103.120 Y109.018 E0.79310
G1 X103.120 Y109.552 E0.01676
G1 X120.448 Y126.880 E0.76939
G1 X119.914 Y126.880 E0.01676
G1 X103.120 Y110.086 E0.74568
G1 X103.120 Y110.619 E0.01676
G1 X119.381 Y126.880 E0.72197
G1 X118.847 Y126.880 E0.01676
G1 X103.120 Y111.153 E0.69827
G1 X103.120 Y111.687 E0.01676
G1 X118.313 Y126.880 E0.67456
G1 X117.779 Y126.880 E0.01676
G1 X103.120 Y112.221 E0.65085
G1 X103.120 Y112.755 E0.01676
G1 X117.245 Y126.880 E0.62714
G1 X116.711 Y126.880 E0.01676
G1 X103.120 Y113.289 E0.60343
G1 X103.120 Y113.823 E0.01676
G1 X116.177 Y126.880 E0.57972
G1 X115.643 Y126.880 E0.01676
G1 X103.120 Y114.357 E0.55601
G1 X103.120 Y114.891 E0.01676
