; generated by PrusaSlicer 2.0.0 on 2019-08-27 at 18:12:45

; 

; external perimeters extrusion width = 0.45mm
; perimeters extrusion width = 0.45mm
; infill extrusion width = 0.45mm
; solid infill extrusion width = 0.45mm
; top infill extrusion width = 0.40mm
; first layer extrusion width = 0.42mm

M73 P0 R121
M73 Q0 S121
M201 X1000 Y1000 Z1000 E5000 ; sets maximum accelerations, mm/sec^2
M203 X200 Y200 Z12 E120 ; sets maximum feedrates, mm/sec
M204 P1250 R1250 T1250 ; sets acceleration (P, T) and retract acceleration (R), mm/sec^2
M205 X8.00 Y8.00 Z0.40 E1.50 ; sets the jerk limits, mm/sec
M205 S0 T0 ; sets the minimum extruding and travel feed rate, mm/sec
M107
M115 U3.4.0 ; tell printer latest fw version
M83  ; extruder relative mode
M104 S140 ; set extruder to warm-up temp
M140 S80 ; set bed temp
M190 S80 ; wait for bed temp
G28 W ; home all without mesh bed level
G80 ; mesh bed leveling
M104 S250 ; set extruder temp
M109 S250 ; wait for extruder temp
G1 Y-3.0 F1000.0 ; go outside print area
G92 E0.0
G1 X60.0 E9.0  F1000.0 ; intro line
M73 Q0 S121
M73 P0 R120
G1 X100.0 E12.5  F1000.0 ; intro line
G92 E0.0
M221 S95
M900 K45; Filament gcode
G21 ; set units to millimeters
G90 ; use absolute coordinates
M83 ; use relative distances for extrusion
;BEFORE_LAYER_CHANGE
G92 E0.0
;0.2


G1 E-0.80000 F2100.00000
G1 Z0.600 F10800.000
;AFTER_LAYER_CHANGE
;0.2
G1 X74.039 Y55.082
G1 Z0.200
G1 E0.80000 F2100.00000
M204 S20
G1 F1800
G1 X75.398 Y53.782 E0.05897
G1 X76.489 Y53.007 E0.04198
G1 X77.681 Y52.384 E0.04214
G1 X79.472 Y51.761 E0.05946
G1 X81.382 Y51.439 E0.06074
G1 X168.005 Y51.434 E2.71601
G1 X169.011 Y51.504 E0.03162
G1 X170.287 Y51.706 E0.04050
G1 X171.939 Y52.217 E0.05420
G1 X173.547 Y53.030 E0.05651
G1 X175.061 Y54.172 E0.05946
G1 X176.014 Y55.142 E0.04264
G1 X176.794 Y56.191 E0.04099
G1 X177.664 Y57.781 E0.05681
G1 X178.262 Y59.570 E0.05915
G1 X178.552 Y61.653 E0.06594
G1 X178.564 Y148.127 E2.71133
G1 X178.290 Y150.308 E0.06894
G1 X177.789 Y151.924 E0.05303
G1 X176.998 Y153.502 E0.05535
G1 X175.961 Y154.918 E0.05502
G1 X174.585 Y156.230 E0.05963
G1 X173.488 Y157.007 E0.04214
G1 X172.200 Y157.673 E0.04545
G1 X170.354 Y158.280 E0.06095
G1 X168.047 Y158.565 E0.07288
G1 X81.873 Y158.564 E2.70191
G1 X79.692 Y158.290 E0.06894
G1 X78.076 Y157.789 E0.05302
G1 X76.498 Y156.998 E0.05536
G1 X75.082 Y155.961 E0.05503
G1 X73.781 Y154.596 E0.05913
G1 X72.996 Y153.492 E0.04247
G1 X72.327 Y152.200 E0.04561
G1 X71.726 Y150.374 E0.06030
G1 X71.507 Y149.038 E0.04243
G1 X71.435 Y148.047 E0.03116
G1 X71.436 Y61.873 E2.70192
G1 X71.710 Y59.692 E0.06893
G1 X72.211 Y58.076 E0.05304
G1 X73.002 Y56.498 E0.05535
G1 X74.004 Y55.131 E0.05314
M204 S1000
G1 X74.307 Y55.353 F10800.000
M204 S20
G1 F1800
G1 X75.624 Y54.084 E0.05735
G1 X76.686 Y53.329 E0.04086
G1 X77.850 Y52.721 E0.04117
G1 X79.572 Y52.124 E0.05713
G1 X81.404 Y51.815 E0.05827
G1 X168.005 Y51.811 E2.71531
G1 X170.216 Y52.076 E0.06981
G1 X171.802 Y52.568 E0.05209
G1 X173.348 Y53.350 E0.05430
G1 X174.803 Y54.447 E0.05713
G1 X175.727 Y55.387 E0.04134
G1 X176.488 Y56.412 E0.04005
G1 X177.323 Y57.941 E0.05461
G1 X177.895 Y59.655 E0.05665
G1 X178.177 Y61.687 E0.06431
G1 X178.187 Y148.111 E2.70978
G1 X177.920 Y150.236 E0.06715
G1 X177.437 Y151.788 E0.05097
G1 X176.674 Y153.309 E0.05335
G1 X175.674 Y154.673 E0.05304
G1 X174.359 Y155.928 E0.05697
G1 X173.292 Y156.684 E0.04102
G1 X172.040 Y157.331 E0.04418
G1 X170.276 Y157.911 E0.05824
G1 X168.040 Y158.188 E0.07062
G1 X81.884 Y158.187 E2.70138
G1 X79.764 Y157.920 E0.06699
G1 X78.212 Y157.437 E0.05096
G1 X76.691 Y156.674 E0.05336
G1 X75.327 Y155.674 E0.05304
G1 X74.083 Y154.370 E0.05648
G1 X73.318 Y153.297 E0.04134
G1 X72.669 Y152.040 E0.04434
G1 X72.093 Y150.291 E0.05775
G1 X71.812 Y148.041 E0.07110
G1 X71.813 Y61.884 E2.70139
G1 X72.080 Y59.764 E0.06697
G1 X72.563 Y58.212 E0.05098
G1 X73.326 Y56.691 E0.05335
G1 X74.271 Y55.401 E0.05013
M204 S1000
G1 F8640
G1 X75.624 Y54.084 E-0.43598
G1 X76.686 Y53.329 E-0.30087
G1 X76.775 Y53.282 E-0.02315
G1 E-0.04000 F2100.00000
G1 Z0.800 F10800.000
G1 X77.975 Y58.563
G1 Z0.200
G1 E0.80000 F2100.00000
M204 S20
G1 F1800
G1 X78.569 Y57.971 E0.02628
G1 X79.235 Y57.488 E0.02581
G1 X79.975 Y57.111 E0.02604
G1 X80.765 Y56.854 E0.02604
G1 X81.612 Y56.720 E0.02689
G1 X82.027 Y56.687 E0.01307
G1 X115.977 Y56.687 E1.06448
G1 X116.388 Y56.720 E0.01294
G1 X117.235 Y56.854 E0.02689
G1 X118.025 Y57.111 E0.02604
G1 X118.765 Y57.488 E0.02604
G1 X119.437 Y57.976 E0.02604
G1 X120.024 Y58.563 E0.02604
G1 X120.512 Y59.235 E0.02604
G1 X120.889 Y59.975 E0.02604
G1 X121.146 Y60.765 E0.02604
G1 X121.280 Y61.612 E0.02689
G1 X121.313 Y62.027 E0.01307
G1 X121.313 Y95.973 E1.06435
G1 X121.280 Y96.388 E0.01307
G1 X121.146 Y97.235 E0.02689
G1 X120.889 Y98.025 E0.02604
G1 X120.512 Y98.765 E0.02604
G1 X120.024 Y99.437 E0.02604
G1 X119.437 Y100.024 E0.02604
G1 X118.765 Y100.512 E0.02604
G1 X118.025 Y100.889 E0.02604
G1 X117.235 Y101.146 E0.02604
G1 X116.388 Y101.280 E0.02689
G1 X115.973 Y101.313 E0.01307
G1 X82.027 Y101.313 E1.06435
G1 X81.612 Y101.280 E0.01307
G1 X80.765 Y101.146 E0.02689
G1 X79.975 Y100.889 E0.02604
G1 X79.235 Y100.512 E0.02604
G1 X78.563 Y100.024 E0.02604
G1 X77.976 Y99.437 E0.02604
G1 X77.488 Y98.765 E0.02604
G1 X77.111 Y98.025 E0.02604
G1 X76.854 Y97.235 E0.02604
G1 X76.720 Y96.388 E0.02689
G1 X76.687 Y95.973 E0.01307
G1 X76.687 Y62.027 E1.06435
G1 X76.720 Y61.612 E0.01307
G1 X76.854 Y60.765 E0.02689
G1 X77.111 Y59.975 E0.02604
G1 X77.488 Y59.235 E0.02604
G1 X77.940 Y58.612 E0.02415
M204 S1000
G1 X77.635 Y58.390 F10800.000
M204 S20
G1 F1800
G1 X77.688 Y58.317 E0.00282
G1 X78.323 Y57.684 E0.02814
G1 X79.037 Y57.165 E0.02766
G1 X79.830 Y56.761 E0.02790
G1 X80.676 Y56.486 E0.02790
G1 X81.567 Y56.345 E0.02828
G1 X82.012 Y56.310 E0.01400
G1 X115.992 Y56.310 E1.06540
G1 X116.433 Y56.345 E0.01387
G1 X117.324 Y56.486 E0.02828
G1 X118.170 Y56.761 E0.02790
G1 X118.963 Y57.165 E0.02790
G1 X119.683 Y57.688 E0.02790
G1 X120.312 Y58.317 E0.02790
G1 X120.835 Y59.037 E0.02790
G1 X121.239 Y59.830 E0.02790
G1 X121.514 Y60.676 E0.02790
G1 X121.655 Y61.567 E0.02828
G1 X121.690 Y62.012 E0.01400
G1 X121.690 Y95.988 E1.06528
G1 X121.655 Y96.433 E0.01400
G1 X121.514 Y97.324 E0.02828
G1 X121.239 Y98.170 E0.02790
G1 X120.835 Y98.963 E0.02790
G1 X120.312 Y99.683 E0.02790
G1 X119.683 Y100.312 E0.02790
G1 X118.963 Y100.835 E0.02790
G1 X118.170 Y101.239 E0.02790
G1 X117.324 Y101.514 E0.02790
G1 X116.433 Y101.655 E0.02828
G1 X115.988 Y101.690 E0.01400
G1 X82.012 Y101.690 E1.06528
G1 X81.567 Y101.655 E0.01400
G1 X80.676 Y101.514 E0.02828
G1 X79.830 Y101.239 E0.02790
G1 X79.037 Y100.835 E0.02790
G1 X78.317 Y100.312 E0.02790
G1 X77.688 Y99.683 E0.02790
G1 X77.165 Y98.963 E0.02790
G1 X76.761 Y98.170 E0.02790
G1 X76.486 Y97.324 E0.02790
G1 X76.345 Y96.433 E0.02828
G1 X76.310 Y95.988 E0.01400
G1 X76.310 Y62.012 E1.06528
G1 X76.345 Y61.567 E0.01400
G1 X76.486 Y60.676 E0.02828
G1 X76.761 Y59.830 E0.02790
G1 X77.165 Y59.037 E0.02790
G1 X77.600 Y58.439 E0.02319
M204 S1000
G1 X77.725 Y58.397 F10800.000
G1 F8640
G1 X77.688 Y58.317 E-0.03462
G1 X78.323 Y57.684 E-0.20723
G1 X79.037 Y57.165 E-0.20370
G1 X79.830 Y56.761 E-0.20546
G1 X80.279 Y56.615 E-0.10899
G1 E-0.04000 F2100.00000
G1 Z0.800 F10800.000
G1 X77.520 Y98.580
G1 Z0.200
G1 E0.80000 F2100.00000
M204 S20
G1 F1800
G1 X79.420 Y100.480 E0.08482
M204 S1000
G1 F8640
G1 X77.520 Y98.580 E-0.62059
G1 E-0.17941 F2100.00000
G1 Z0.800 F10800.000
G1 X80.379 Y100.902
G1 Z0.200
G1 E0.80000 F2100.00000
M204 S20
G1 F1800
G1 X77.362 Y97.885 E0.13462
G1 X77.120 Y97.106 E0.02576
G1 X80.894 Y100.880 E0.16844
G1 X81.532 Y100.981 E0.02038
G1 X77.019 Y96.468 E0.20142
G1 X76.970 Y95.883 E0.01854
G1 X82.117 Y101.030 E0.22973
G1 X82.654 Y101.030 E0.01694
G1 X76.970 Y95.346 E0.25368
G1 X76.970 Y94.809 E0.01694
G1 X83.191 Y101.030 E0.27764
G1 X83.728 Y101.030 E0.01694
G1 X76.970 Y94.272 E0.30159
G1 X76.970 Y93.736 E0.01694
G1 X84.264 Y101.030 E0.32554
G1 X84.801 Y101.030 E0.01694
G1 X76.970 Y93.199 E0.34950
G1 X76.970 Y92.662 E0.01694
G1 X85.338 Y101.030 E0.37345
G1 X85.874 Y101.030 E0.01694
G1 X76.970 Y92.126 E0.39740
G1 X76.970 Y91.589 E0.01694
G1 X86.411 Y101.030 E0.42136
G1 X86.948 Y101.030 E0.01694
G1 X76.970 Y91.052 E0.44531
G1 X76.970 Y90.515 E0.01694
G1 X87.485 Y101.030 E0.46927
G1 X88.021 Y101.030 E0.01694
G1 X76.970 Y89.979 E0.49322
G1 X76.970 Y89.442 E0.01694
G1 X88.558 Y101.030 E0.51717
M73 Q0 S120
M73 P0 R119
G1 X89.095 Y101.030 E0.01694
G1 X76.970 Y88.905 E0.54113
G1 X76.970 Y88.368 E0.01694
G1 X89.632 Y101.030 E0.56508
G1 X90.168 Y101.030 E0.01694
G1 X76.970 Y87.832 E0.58903
G1 X76.970 Y87.295 E0.01694
G1 X90.705 Y101.030 E0.61299
G1 X91.242 Y101.030 E0.01694
G1 X76.970 Y86.758 E0.63694
G1 X76.970 Y86.222 E0.01694
G1 X91.778 Y101.030 E0.66089
G1 X92.315 Y101.030 E0.01694
G1 X76.970 Y85.685 E0.68485
G1 X76.970 Y85.148 E0.01694
G1 X92.852 Y101.030 E0.70880
G1 X93.389 Y101.030 E0.01694
G1 X76.970 Y84.611 E0.73276
G1 X76.970 Y84.075 E0.01694
G1 X93.925 Y101.030 E0.75671
G1 X94.462 Y101.030 E0.01694
G1 X76.970 Y83.538 E0.78066
G1 X76.970 Y83.001 E0.01694
G1 X94.999 Y101.030 E0.80462
G1 X95.536 Y101.030 E0.01694
G1 X76.970 Y82.464 E0.82857
G1 X76.970 Y81.928 E0.01694
G1 X96.072 Y101.030 E0.85252
G1 X96.609 Y101.030 E0.01694
G1 X76.970 Y81.391 E0.87648
G1 X76.970 Y80.854 E0.01694
G1 X97.146 Y101.030 E0.90043
G1 X97.682 Y101.030 E0.01694
G1 X76.970 Y80.318 E0.92439
G1 X76.970 Y79.781 E0.01694
G1 X98.219 Y101.030 E0.94834
G1 X98.756 Y101.030 E0.01694
G1 X76.970 Y79.244 E0.97229
G1 X76.970 Y78.707 E0.01694
G1 X99.293 Y101.030 E0.99625
G1 X99.829 Y101.030 E0.01694
G1 X76.970 Y78.171 E1.02020
G1 X76.970 Y77.634 E0.01694
G1 X100.366 Y101.030 E1.04415
G1 X100.903 Y101.030 E0.01694
G1 X76.970 Y77.097 E1.06811
G1 X76.970 Y76.560 E0.01694
G1 X101.440 Y101.030 E1.09206
G1 X101.976 Y101.030 E0.01694
G1 X76.970 Y76.024 E1.11601
G1 X76.970 Y75.487 E0.01694
G1 X102.513 Y101.030 E1.13997
G1 X103.050 Y101.030 E0.01694
G1 X76.970 Y74.950 E1.16392
G1 X76.970 Y74.414 E0.01694
G1 X103.586 Y101.030 E1.18788
G1 X104.123 Y101.030 E0.01694
G1 X76.970 Y73.877 E1.21183
G1 X76.970 Y73.340 E0.01694
G1 X104.660 Y101.030 E1.23578
G1 X105.197 Y101.030 E0.01694
G1 X76.970 Y72.803 E1.25974
G1 X76.970 Y72.267 E0.01694
G1 X105.733 Y101.030 E1.28369
G1 X106.270 Y101.030 E0.01694
G1 X76.970 Y71.730 E1.30764
G1 X76.970 Y71.193 E0.01694
G1 X106.807 Y101.030 E1.33160
M73 Q1 S119
M73 P1 R118
G1 X107.344 Y101.030 E0.01694
G1 X76.970 Y70.656 E1.35555
G1 X76.970 Y70.120 E0.01694
G1 X107.880 Y101.030 E1.37951
G1 X108.417 Y101.030 E0.01694
G1 X76.970 Y69.583 E1.40346
G1 X76.970 Y69.046 E0.01694
G1 X108.954 Y101.030 E1.42741
G1 X109.490 Y101.030 E0.01694
G1 X76.970 Y68.510 E1.45137
G1 X76.970 Y67.973 E0.01694
G1 X110.027 Y101.030 E1.47532
G1 X110.564 Y101.030 E0.01694
G1 X76.970 Y67.436 E1.49927
G1 X76.970 Y66.899 E0.01694
G1 X111.101 Y101.030 E1.52323
G1 X111.637 Y101.030 E0.01694
G1 X76.970 Y66.363 E1.54718
G1 X76.970 Y65.826 E0.01694
G1 X112.174 Y101.030 E1.57114
G1 X112.711 Y101.030 E0.01694
G1 X76.970 Y65.289 E1.59509
G1 X76.970 Y64.752 E0.01694
G1 X113.248 Y101.030 E1.61904
G1 X113.784 Y101.030 E0.01694
G1 X76.970 Y64.216 E1.64300
G1 X76.970 Y63.679 E0.01694
G1 X114.321 Y101.030 E1.66695
G1 X114.858 Y101.030 E0.01694
G1 X76.970 Y63.142 E1.69090
G1 X76.970 Y62.606 E0.01694
G1 X115.394 Y101.030 E1.71486
G1 X115.931 Y101.030 E0.01694
G1 X76.970 Y62.069 E1.73881
G1 X77.012 Y61.574 E0.01566
G1 X116.426 Y100.988 E1.75900
G1 X116.889 Y100.915 E0.01480
G1 X77.085 Y61.111 E1.77641
G1 X77.130 Y60.831 E0.00895
G1 X77.182 Y60.671 E0.00532
G1 X117.329 Y100.818 E1.79175
G1 X117.735 Y100.687 E0.01344
G1 X77.313 Y60.265 E1.80396
G1 X77.373 Y60.083 E0.00604
G1 X77.472 Y59.888 E0.00693
G1 X118.112 Y100.528 E1.81373
G1 X118.468 Y100.347 E0.01259
G1 X77.653 Y59.532 E1.82151
G1 X77.729 Y59.383 E0.00528
G1 X77.861 Y59.202 E0.00704
G1 X118.798 Y100.139 E1.82698
M73 Q2 S118
M73 P2 R117
G1 X119.108 Y99.914 E0.01213
G1 X78.086 Y58.892 E1.83078
G1 X78.191 Y58.748 E0.00562
G1 X78.335 Y58.604 E0.00643
G1 X119.397 Y99.665 E1.83253
G1 X119.665 Y99.397 E0.01198
G1 X78.604 Y58.336 E1.83251
G1 X78.753 Y58.187 E0.00664
G1 X78.892 Y58.086 E0.00541
G1 X119.914 Y99.108 E1.83078
G1 X120.139 Y98.798 E0.01213
G1 X79.202 Y57.861 E1.82698
G1 X79.383 Y57.729 E0.00704
G1 X79.532 Y57.653 E0.00528
G1 X120.347 Y98.468 E1.82151
G1 X120.528 Y98.112 E0.01259
G1 X79.888 Y57.472 E1.81373
G1 X80.083 Y57.373 E0.00693
G1 X80.265 Y57.313 E0.00604
G1 X120.687 Y97.735 E1.80396
G1 X120.818 Y97.329 E0.01344
G1 X80.671 Y57.182 E1.79175
G1 X80.831 Y57.130 E0.00532
G1 X81.111 Y57.085 E0.00895
G1 X120.915 Y96.889 E1.77641
G1 X120.988 Y96.426 E0.01480
G1 X81.574 Y57.012 E1.75900
G1 X82.069 Y56.970 E0.01566
G1 X121.030 Y95.931 E1.73881
G1 X121.030 Y95.394 E0.01694
G1 X82.606 Y56.970 E1.71486
G1 X83.142 Y56.970 E0.01694
G1 X121.030 Y94.858 E1.69090
G1 X121.030 Y94.321 E0.01694
G1 X83.679 Y56.970 E1.66695
G1 X84.216 Y56.970 E0.01694
G1 X121.030 Y93.784 E1.64299
G1 X121.030 Y93.248 E0.01694
G1 X84.752 Y56.970 E1.61904
G1 X85.289 Y56.970 E0.01694
G1 X121.030 Y92.711 E1.59509
G1 X121.030 Y92.174 E0.01694
G1 X85.826 Y56.970 E1.57113
G1 X86.363 Y56.970 E0.01694
G1 X121.030 Y91.637 E1.54718
G1 X121.030 Y91.101 E0.01694
G1 X86.899 Y56.970 E1.52323
G1 X87.436 Y56.970 E0.01694
G1 X121.030 Y90.564 E1.49927
G1 X121.030 Y90.027 E0.01694
G1 X87.973 Y56.970 E1.47532
G1 X88.510 Y56.970 E0.01694
G1 X121.030 Y89.490 E1.45136
M73 Q3 S117
M73 P3 R116
G1 X121.030 Y88.954 E0.01694
G1 X89.046 Y56.970 E1.42741
G1 X89.583 Y56.970 E0.01694
G1 X121.030 Y88.417 E1.40346
G1 X121.030 Y87.880 E0.01694
G1 X90.120 Y56.970 E1.37950
G1 X90.657 Y56.970 E0.01694
G1 X121.030 Y87.344 E1.35555
G1 X121.030 Y86.807 E0.01694
G1 X91.193 Y56.970 E1.33159
G1 X91.730 Y56.970 E0.01694
G1 X121.030 Y86.270 E1.30764
G1 X121.030 Y85.733 E0.01694
G1 X92.267 Y56.970 E1.28369
G1 X92.803 Y56.970 E0.01694
G1 X121.030 Y85.197 E1.25973
G1 X121.030 Y84.660 E0.01694
G1 X93.340 Y56.970 E1.23578
G1 X93.877 Y56.970 E0.01694
G1 X121.030 Y84.123 E1.21182
G1 X121.030 Y83.586 E0.01694
G1 X94.414 Y56.970 E1.18787
G1 X94.950 Y56.970 E0.01694
G1 X121.030 Y83.050 E1.16392
G1 X121.030 Y82.513 E0.01694
G1 X95.487 Y56.970 E1.13996
G1 X96.024 Y56.970 E0.01694
G1 X121.030 Y81.976 E1.11601
G1 X121.030 Y81.440 E0.01694
G1 X96.561 Y56.970 E1.09205
G1 X97.097 Y56.970 E0.01694
G1 X121.030 Y80.903 E1.06810
G1 X121.030 Y80.366 E0.01694
G1 X97.634 Y56.970 E1.04415
G1 X98.171 Y56.970 E0.01694
G1 X121.030 Y79.829 E1.02019
G1 X121.030 Y79.293 E0.01694
G1 X98.708 Y56.970 E0.99624
G1 X99.244 Y56.970 E0.01694
G1 X121.030 Y78.756 E0.97229
G1 X121.030 Y78.219 E0.01694
G1 X99.781 Y56.970 E0.94833
G1 X100.318 Y56.970 E0.01694
G1 X121.030 Y77.682 E0.92438
G1 X121.030 Y77.146 E0.01694
G1 X100.854 Y56.970 E0.90042
G1 X101.391 Y56.970 E0.01694
G1 X121.030 Y76.609 E0.87647
G1 X121.030 Y76.072 E0.01694
G1 X101.928 Y56.970 E0.85252
G1 X102.465 Y56.970 E0.01694
G1 X121.030 Y75.536 E0.82856
G1 X121.030 Y74.999 E0.01694
G1 X103.001 Y56.970 E0.80461
G1 X103.538 Y56.970 E0.01694
G1 X121.030 Y74.462 E0.78065
G1 X121.030 Y73.925 E0.01694
G1 X104.075 Y56.970 E0.75670
G1 X104.612 Y56.970 E0.01694
G1 X121.030 Y73.389 E0.73275
G1 X121.030 Y72.852 E0.01694
G1 X105.148 Y56.970 E0.70879
G1 X105.685 Y56.970 E0.01694
G1 X121.030 Y72.315 E0.68484
G1 X121.030 Y71.778 E0.01694
G1 X106.222 Y56.970 E0.66088
M73 Q4 S116
M73 P4 R115
G1 X106.758 Y56.970 E0.01694
G1 X121.030 Y71.242 E0.63693
G1 X121.030 Y70.705 E0.01694
G1 X107.295 Y56.970 E0.61298
G1 X107.832 Y56.970 E0.01694
G1 X121.030 Y70.168 E0.58902
G1 X121.030 Y69.632 E0.01694
G1 X108.369 Y56.970 E0.56507
G1 X108.905 Y56.970 E0.01694
G1 X121.030 Y69.095 E0.54111
G1 X121.030 Y68.558 E0.01694
G1 X109.442 Y56.970 E0.51716
G1 X109.979 Y56.970 E0.01694
G1 X121.030 Y68.021 E0.49321
G1 X121.030 Y67.485 E0.01694
G1 X110.516 Y56.970 E0.46925
G1 X111.052 Y56.970 E0.01694
G1 X121.030 Y66.948 E0.44530
G1 X121.030 Y66.411 E0.01694
G1 X111.589 Y56.970 E0.42135
G1 X112.126 Y56.970 E0.01694
G1 X121.030 Y65.874 E0.39739
G1 X121.030 Y65.338 E0.01694
G1 X112.663 Y56.970 E0.37344
