; generated by Slic3r Prusa Edition 1.41.2 on 2019-03-20 at 09:34:03

; 

; external perimeters extrusion width = 0.45mm
; perimeters extrusion width = 0.45mm
; infill extrusion width = 0.45mm
; solid infill extrusion width = 0.45mm
; top infill extrusion width = 0.40mm
; first layer extrusion width = 0.42mm

M73 P0 R229
M73 Q0 S230
M201 X1000 Y1000 Z1000 E5000 ; sets maximum accelerations, mm/sec^2
M203 X200 Y200 Z12 E120 ; sets maximum feedrates, mm/sec
M204 P1250 R1250 T1250 ; sets acceleration (P, T) and retract acceleration (R), mm/sec^2
M205 X8.00 Y8.00 Z0.40 E1.50 ; sets the jerk limits, mm/sec
M205 S0 T0 ; sets the minimum extruding and travel feed rate, mm/sec
M107
M115 U3.4.0 ; tell printer latest fw version
M83  ; extruder relative mode
M104 S140 ; set extruder to warm-up temp
M140 S80 ; set bed temp
M190 S80 ; wait for bed temp
G28 W ; home all without mesh bed level
G80 ; mesh bed leveling
M104 S250 ; set extruder temp
M109 S250 ; wait for extruder temp
G1 Y-3.0 F1000.0 ; go outside print area
G92 E0.0
G1 X60.0 E9.0  F1000.0 ; intro line
M73 Q0 S230
M73 P0 R229
G1 X100.0 E12.5  F1000.0 ; intro line
G92 E0.0
M221 S95
M900 K45; Filament gcode
G21 ; set units to millimeters
G90 ; use absolute coordinates
M83 ; use relative distances for extrusion
;BEFORE_LAYER_CHANGE
G92 E0.0
;0.2


G1 E-0.80000 F2100.00000
G1 Z0.600 F10800.000
;AFTER_LAYER_CHANGE
;0.2
G1 X83.488 Y41.396
G1 Z0.200
G1 E0.80000 F2100.00000
M204 S20
G1 F1800
G1 X83.890 Y40.631 E0.02710
G1 X84.430 Y39.956 E0.02710
G1 X85.118 Y39.373 E0.02826
G1 X85.911 Y38.935 E0.02842
G1 X86.770 Y38.663 E0.02826
G1 X87.666 Y38.565 E0.02826
G1 X224.717 Y38.565 E4.29712
G1 X225.593 Y38.651 E0.02760
G1 X226.436 Y38.903 E0.02760
G1 X227.219 Y39.315 E0.02776
G1 X227.905 Y39.868 E0.02760
G1 X228.472 Y40.541 E0.02760
G1 X228.899 Y41.311 E0.02760
G1 X229.170 Y42.148 E0.02760
G1 X229.276 Y43.027 E0.02776
G1 X229.277 Y180.173 E4.30010
G1 X229.187 Y181.032 E0.02710
G1 X228.935 Y181.865 E0.02727
G1 X228.532 Y182.630 E0.02710
G1 X227.993 Y183.305 E0.02710
G1 X227.296 Y183.894 E0.02859
G1 X226.497 Y184.332 E0.02859
G1 X225.627 Y184.603 E0.02859
G1 X224.714 Y184.696 E0.02875
G1 X87.669 Y184.696 E4.29696
G1 X86.809 Y184.606 E0.02710
G1 X85.977 Y184.354 E0.02727
G1 X85.212 Y183.951 E0.02710
G1 X84.537 Y183.412 E0.02710
G1 X83.948 Y182.716 E0.02859
G1 X83.509 Y181.916 E0.02859
G1 X83.238 Y181.046 E0.02859
G1 X83.146 Y180.133 E0.02875
G1 X83.146 Y43.088 E4.29696
G1 X83.236 Y42.229 E0.02710
G1 X83.470 Y41.454 E0.02539
M204 S1000
G1 X83.829 Y41.562 F10800.000
M204 S20
G1 F1800
G1 X84.206 Y40.837 E0.02562
G1 X84.705 Y40.214 E0.02501
G1 X85.337 Y39.680 E0.02596
G1 X86.062 Y39.280 E0.02596
G1 X86.852 Y39.031 E0.02596
G1 X87.675 Y38.942 E0.02596
G1 X224.716 Y38.942 E4.29685
G1 X225.520 Y39.021 E0.02533
G1 X226.294 Y39.252 E0.02533
G1 X227.009 Y39.628 E0.02533
G1 X227.642 Y40.138 E0.02548
G1 X228.162 Y40.756 E0.02533
G1 X228.555 Y41.467 E0.02548
G1 X228.803 Y42.236 E0.02533
G1 X228.899 Y43.043 E0.02548
G1 X228.900 Y180.166 E4.29938
G1 X228.818 Y180.954 E0.02485
G1 X228.587 Y181.718 E0.02501
G1 X228.216 Y182.424 E0.02501
G1 X227.718 Y183.047 E0.02501
G1 X227.081 Y183.584 E0.02611
G1 X226.347 Y183.987 E0.02627
G1 X225.546 Y184.235 E0.02627
G1 X224.711 Y184.319 E0.02631
G1 X87.676 Y184.319 E4.29665
G1 X86.887 Y184.237 E0.02485
G1 X86.124 Y184.007 E0.02501
G1 X85.418 Y183.635 E0.02501
G1 X84.795 Y183.137 E0.02501
G1 X84.258 Y182.501 E0.02611
G1 X83.855 Y181.766 E0.02627
G1 X83.607 Y180.965 E0.02627
G1 X83.523 Y180.130 E0.02631
G1 X83.523 Y43.095 E4.29665
G1 X83.605 Y42.307 E0.02485
G1 X83.812 Y41.619 E0.02251
M204 S1000
; PURGING FINISHED
G1 F8640
G1 X84.206 Y40.837 E-0.20230
G1 X84.705 Y40.214 E-0.18418
G1 X85.337 Y39.680 E-0.19115
G1 X86.029 Y39.299 E-0.18236
G1 E-0.04000 F2100.00000
G1 Z0.800 F10800.000
G1 X187.418 Y142.837
G1 Z0.200
G1 E0.80000 F2100.00000
M204 S20
G1 F1800
G1 X189.115 Y141.535 E0.06706
G1 X191.091 Y140.717 E0.06706
G1 X193.211 Y140.437 E0.06706
G1 X195.332 Y140.717 E0.06706
G1 X197.308 Y141.535 E0.06706
G1 X199.005 Y142.837 E0.06706
G1 X200.307 Y144.534 E0.06706
G1 X201.125 Y146.510 E0.06706
G1 X201.404 Y148.630 E0.06706
G1 X201.125 Y150.751 E0.06706
G1 X200.307 Y152.727 E0.06706
G1 X199.005 Y154.424 E0.06706
G1 X197.308 Y155.726 E0.06706
G1 X195.332 Y156.544 E0.06706
G1 X193.211 Y156.824 E0.06706
G1 X191.091 Y156.544 E0.06706
G1 X189.115 Y155.726 E0.06706
G1 X187.418 Y154.424 E0.06706
G1 X186.116 Y152.727 E0.06706
G1 X185.297 Y150.751 E0.06706
G1 X185.018 Y148.630 E0.06706
G1 X185.297 Y146.510 E0.06706
G1 X186.116 Y144.534 E0.06706
G1 X187.381 Y142.885 E0.06518
M204 S1000
G1 X187.681 Y143.114 F10800.000
M204 S20
G1 F1800
G1 X189.305 Y141.865 E0.06426
G1 X191.189 Y141.084 E0.06395
G1 X193.211 Y140.818 E0.06395
G1 X195.233 Y141.084 E0.06395
G1 X197.118 Y141.865 E0.06395
G1 X198.736 Y143.106 E0.06395
G1 X199.977 Y144.724 E0.06395
G1 X200.758 Y146.608 E0.06395
G1 X201.024 Y148.630 E0.06395
G1 X200.758 Y150.653 E0.06395
G1 X199.977 Y152.537 E0.06395
G1 X198.736 Y154.155 E0.06395
G1 X197.118 Y155.396 E0.06395
G1 X195.233 Y156.177 E0.06395
G1 X193.211 Y156.443 E0.06395
G1 X191.189 Y156.177 E0.06395
G1 X189.305 Y155.396 E0.06395
G1 X187.687 Y154.155 E0.06395
G1 X186.445 Y152.537 E0.06395
G1 X185.665 Y150.653 E0.06395
G1 X185.399 Y148.630 E0.06395
G1 X185.665 Y146.608 E0.06395
G1 X186.445 Y144.724 E0.06395
G1 X187.644 Y143.162 E0.06174
M204 S1000
G1 X187.577 Y142.728 F10800.000
G1 F8640
G1 X189.305 Y141.865 E-0.48664
G1 X190.399 Y141.412 E-0.27336
G1 E-0.04000 F2100.00000
G1 Z0.800 F10800.000
G1 X193.211 Y82.824
G1 Z0.200
G1 E0.80000 F2100.00000
M204 S20
G1 F1800
G1 X191.091 Y82.544 E0.06706
G1 X189.115 Y81.726 E0.06706
G1 X187.418 Y80.424 E0.06706
G1 X186.116 Y78.727 E0.06706
G1 X185.297 Y76.751 E0.06706
G1 X185.018 Y74.630 E0.06706
G1 X185.297 Y72.510 E0.06706
G1 X186.116 Y70.534 E0.06706
G1 X187.418 Y68.837 E0.06706
G1 X189.115 Y67.535 E0.06706
G1 X191.091 Y66.717 E0.06706
G1 X193.211 Y66.437 E0.06706
G1 X195.332 Y66.717 E0.06706
G1 X197.308 Y67.535 E0.06706
G1 X199.005 Y68.837 E0.06706
G1 X200.307 Y70.534 E0.06706
G1 X201.125 Y72.510 E0.06706
G1 X201.404 Y74.630 E0.06706
G1 X201.125 Y76.751 E0.06706
G1 X200.307 Y78.727 E0.06706
G1 X199.005 Y80.424 E0.06706
G1 X197.308 Y81.726 E0.06706
G1 X195.332 Y82.544 E0.06706
G1 X193.271 Y82.816 E0.06518
M204 S1000
G1 X193.222 Y82.442 F10800.000
M204 S20
G1 F1800
G1 X191.189 Y82.177 E0.06426
G1 X189.305 Y81.396 E0.06395
G1 X187.687 Y80.155 E0.06395
G1 X186.445 Y78.537 E0.06395
G1 X185.665 Y76.653 E0.06395
G1 X185.399 Y74.630 E0.06395
G1 X185.665 Y72.608 E0.06395
G1 X186.445 Y70.724 E0.06395
G1 X187.687 Y69.106 E0.06395
G1 X189.305 Y67.865 E0.06395
G1 X191.189 Y67.084 E0.06395
G1 X193.211 Y66.818 E0.06395
G1 X195.233 Y67.084 E0.06395
G1 X197.118 Y67.865 E0.06395
G1 X198.736 Y69.106 E0.06395
G1 X199.977 Y70.724 E0.06395
G1 X200.758 Y72.608 E0.06395
G1 X201.024 Y74.630 E0.06395
G1 X200.758 Y76.653 E0.06395
G1 X199.977 Y78.537 E0.06395
G1 X198.736 Y80.155 E0.06395
G1 X197.118 Y81.396 E0.06395
G1 X195.233 Y82.177 E0.06395
G1 X193.281 Y82.434 E0.06174
M204 S1000
G1 X193.022 Y82.788 F10800.000
G1 F8640
G1 X191.189 Y82.177 E-0.48663
G1 X190.095 Y81.724 E-0.27337
G1 E-0.04000 F2100.00000
G1 Z0.800 F10800.000
G1 X127.404 Y74.630
G1 Z0.200
G1 E0.80000 F2100.00000
M204 S20
G1 F1800
G1 X127.125 Y76.751 E0.06706
G1 X126.307 Y78.727 E0.06706
G1 X125.005 Y80.424 E0.06706
G1 X123.308 Y81.726 E0.06706
G1 X121.332 Y82.544 E0.06706
G1 X119.211 Y82.824 E0.06706
G1 X117.091 Y82.544 E0.06706
G1 X115.115 Y81.726 E0.06706
G1 X113.418 Y80.424 E0.06706
G1 X112.116 Y78.727 E0.06706
G1 X111.297 Y76.751 E0.06706
G1 X111.018 Y74.630 E0.06706
G1 X111.297 Y72.510 E0.06706
G1 X112.116 Y70.534 E0.06706
G1 X113.418 Y68.837 E0.06706
G1 X115.115 Y67.535 E0.06706
G1 X117.091 Y66.717 E0.06706
G1 X119.211 Y66.437 E0.06706
G1 X121.332 Y66.717 E0.06706
G1 X123.308 Y67.535 E0.06706
G1 X125.005 Y68.837 E0.06706
G1 X126.307 Y70.534 E0.06706
G1 X127.125 Y72.510 E0.06706
G1 X127.396 Y74.571 E0.06518
M204 S1000
G1 X127.023 Y74.620 F10800.000
M204 S20
G1 F1800
G1 X126.758 Y76.653 E0.06426
G1 X125.977 Y78.537 E0.06395
G1 X124.736 Y80.155 E0.06395
G1 X123.118 Y81.396 E0.06395
G1 X121.233 Y82.177 E0.06395
G1 X119.211 Y82.443 E0.06395
G1 X117.189 Y82.177 E0.06395
G1 X115.305 Y81.396 E0.06395
G1 X113.687 Y80.155 E0.06395
G1 X112.445 Y78.537 E0.06395
G1 X111.665 Y76.653 E0.06395
G1 X111.399 Y74.630 E0.06395
G1 X111.665 Y72.608 E0.06395
G1 X112.445 Y70.724 E0.06395
G1 X113.687 Y69.106 E0.06395
G1 X115.305 Y67.865 E0.06395
G1 X117.189 Y67.084 E0.06395
G1 X119.211 Y66.818 E0.06395
G1 X121.233 Y67.084 E0.06395
G1 X123.118 Y67.865 E0.06395
G1 X124.736 Y69.106 E0.06395
G1 X125.977 Y70.724 E0.06395
G1 X126.758 Y72.608 E0.06395
G1 X127.015 Y74.561 E0.06174
M73 Q0 S229
M204 S1000
G1 X127.369 Y74.820 F10800.000
G1 F8640
G1 X126.758 Y76.653 E-0.48663
G1 X126.305 Y77.746 E-0.27337
G1 E-0.04000 F2100.00000
G1 Z0.800 F10800.000
G1 X119.211 Y140.437
G1 Z0.200
G1 E0.80000 F2100.00000
M73 P0 R228
M204 S20
G1 F1800
G1 X121.332 Y140.717 E0.06706
G1 X123.308 Y141.535 E0.06706
G1 X125.005 Y142.837 E0.06706
G1 X126.307 Y144.534 E0.06706
G1 X127.125 Y146.510 E0.06706
G1 X127.404 Y148.630 E0.06706
G1 X127.125 Y150.751 E0.06706
G1 X126.307 Y152.727 E0.06706
G1 X125.005 Y154.424 E0.06706
G1 X123.308 Y155.726 E0.06706
G1 X121.332 Y156.544 E0.06706
G1 X119.211 Y156.824 E0.06706
G1 X117.091 Y156.544 E0.06706
G1 X115.115 Y155.726 E0.06706
G1 X113.418 Y154.424 E0.06706
G1 X112.116 Y152.727 E0.06706
G1 X111.297 Y150.751 E0.06706
G1 X111.018 Y148.630 E0.06706
G1 X111.297 Y146.510 E0.06706
G1 X112.116 Y144.534 E0.06706
G1 X113.418 Y142.837 E0.06706
G1 X115.115 Y141.535 E0.06706
G1 X117.091 Y140.717 E0.06706
G1 X119.152 Y140.445 E0.06518
M204 S1000
G1 X119.201 Y140.819 F10800.000
M204 S20
G1 F1800
G1 X121.233 Y141.084 E0.06426
G1 X123.118 Y141.865 E0.06395
G1 X124.736 Y143.106 E0.06395
G1 X125.977 Y144.724 E0.06395
G1 X126.758 Y146.608 E0.06395
G1 X127.024 Y148.630 E0.06395
G1 X126.758 Y150.653 E0.06395
G1 X125.977 Y152.537 E0.06395
G1 X124.736 Y154.155 E0.06395
G1 X123.118 Y155.396 E0.06395
G1 X121.233 Y156.177 E0.06395
G1 X119.211 Y156.443 E0.06395
G1 X117.189 Y156.177 E0.06395
G1 X115.305 Y155.396 E0.06395
G1 X113.687 Y154.155 E0.06395
G1 X112.445 Y152.537 E0.06395
G1 X111.665 Y150.653 E0.06395
G1 X111.399 Y148.630 E0.06395
G1 X111.665 Y146.608 E0.06395
G1 X112.445 Y144.724 E0.06395
G1 X113.687 Y143.106 E0.06395
G1 X115.305 Y141.865 E0.06395
G1 X117.189 Y141.084 E0.06395
G1 X119.142 Y140.827 E0.06174
M204 S1000
G1 X119.401 Y140.473 F10800.000
G1 F8640
G1 X121.233 Y141.084 E-0.48663
G1 X122.327 Y141.537 E-0.27337
G1 E-0.04000 F2100.00000
G1 Z0.800 F10800.000
G1 X88.398 Y179.443
G1 Z0.200
G1 E0.80000 F2100.00000
M204 S20
G1 F1800
G1 X88.398 Y43.818 E4.25245
G1 X224.024 Y43.818 E4.25245
G1 X224.024 Y179.443 E4.25245
G1 X88.458 Y179.443 E4.25057
M204 S1000
G1 X88.021 Y179.820 F10800.000
M204 S20
G1 F1800
G1 X88.021 Y43.440 E4.27610
G1 X224.401 Y43.440 E4.27610
G1 X224.401 Y179.820 E4.27610
G1 X88.081 Y179.820 E4.27422
M204 S1000
G1 X88.125 Y179.434 F10800.000
G1 F8640
G1 X88.080 Y176.529 E-0.76000
G1 E-0.04000 F2100.00000
G1 Z0.800 F10800.000
G1 X88.511 Y178.566
G1 Z0.200
G1 E0.80000 F2100.00000
M204 S20
G1 F1800
G1 X89.106 Y179.161 E0.02641
G1 X89.640 Y179.161 E0.01678
G1 X88.681 Y178.202 E0.04260
G1 X88.681 Y177.667 E0.01678
G1 X90.174 Y179.161 E0.06634
G1 X90.709 Y179.161 E0.01678
G1 X88.681 Y177.133 E0.09007
G1 X88.681 Y176.599 E0.01678
G1 X91.243 Y179.161 E0.11381
G1 X91.777 Y179.161 E0.01678
G1 X88.681 Y176.065 E0.13754
G1 X88.681 Y175.530 E0.01678
G1 X92.311 Y179.161 E0.16128
G1 X92.846 Y179.161 E0.01678
G1 X88.681 Y174.996 E0.18501
G1 X88.681 Y174.462 E0.01678
G1 X93.380 Y179.161 E0.20875
G1 X93.914 Y179.161 E0.01678
G1 X88.681 Y173.927 E0.23248
G1 X88.681 Y173.393 E0.01678
G1 X94.449 Y179.161 E0.25622
G1 X94.983 Y179.161 E0.01678
G1 X88.681 Y172.859 E0.27995
G1 X88.681 Y172.325 E0.01678
G1 X95.517 Y179.161 E0.30368
G1 X96.051 Y179.161 E0.01678
G1 X88.681 Y171.790 E0.32742
G1 X88.681 Y171.256 E0.01678
G1 X96.586 Y179.161 E0.35115
G1 X97.120 Y179.161 E0.01678
G1 X88.681 Y170.722 E0.37489
G1 X88.681 Y170.188 E0.01678
G1 X97.654 Y179.161 E0.39862
M73 Q0 S228
G1 X98.188 Y179.161 E0.01678
G1 X88.681 Y169.653 E0.42236
M73 P0 R227
G1 X88.681 Y169.119 E0.01678
G1 X98.723 Y179.161 E0.44609
G1 X99.257 Y179.161 E0.01678
G1 X88.681 Y168.585 E0.46983
G1 X88.681 Y168.051 E0.01678
G1 X99.791 Y179.161 E0.49356
G1 X100.326 Y179.161 E0.01678
G1 X88.681 Y167.516 E0.51730
G1 X88.681 Y166.982 E0.01678
G1 X100.860 Y179.161 E0.54103
G1 X101.394 Y179.161 E0.01678
G1 X88.681 Y166.448 E0.56477
G1 X88.681 Y165.913 E0.01678
G1 X101.928 Y179.161 E0.58850
G1 X102.463 Y179.161 E0.01678
G1 X88.681 Y165.379 E0.61224
G1 X88.681 Y164.845 E0.01678
G1 X102.997 Y179.161 E0.63597
G1 X103.531 Y179.161 E0.01678
G1 X88.681 Y164.311 E0.65970
G1 X88.681 Y163.776 E0.01678
G1 X104.065 Y179.161 E0.68344
G1 X104.600 Y179.161 E0.01678
G1 X88.681 Y163.242 E0.70717
G1 X88.681 Y162.708 E0.01678
G1 X105.134 Y179.161 E0.73091
G1 X105.668 Y179.161 E0.01678
G1 X88.681 Y162.174 E0.75464
G1 X88.681 Y161.639 E0.01678
G1 X106.202 Y179.161 E0.77838
G1 X106.737 Y179.161 E0.01678
G1 X88.681 Y161.105 E0.80211
G1 X88.681 Y160.571 E0.01678
G1 X107.271 Y179.161 E0.82585
G1 X107.805 Y179.161 E0.01678
G1 X88.681 Y160.036 E0.84958
G1 X88.681 Y159.502 E0.01678
G1 X108.340 Y179.161 E0.87332
G1 X108.874 Y179.161 E0.01678
G1 X88.681 Y158.968 E0.89705
G1 X88.681 Y158.434 E0.01678
G1 X109.408 Y179.161 E0.92079
G1 X109.942 Y179.161 E0.01678
G1 X88.681 Y157.899 E0.94452
G1 X88.681 Y157.365 E0.01678
G1 X110.477 Y179.161 E0.96826
G1 X111.011 Y179.161 E0.01678
G1 X88.681 Y156.831 E0.99199
G1 X88.681 Y156.297 E0.01678
G1 X111.545 Y179.161 E1.01573
G1 X112.079 Y179.161 E0.01678
G1 X88.681 Y155.762 E1.03946
G1 X88.681 Y155.228 E0.01678
G1 X112.614 Y179.161 E1.06319
G1 X113.148 Y179.161 E0.01678
G1 X88.681 Y154.694 E1.08693
G1 X88.681 Y154.160 E0.01678
G1 X113.682 Y179.161 E1.11066
G1 X114.216 Y179.161 E0.01678
G1 X88.681 Y153.625 E1.13440
G1 X88.681 Y153.091 E0.01678
G1 X114.751 Y179.161 E1.15813
G1 X115.285 Y179.161 E0.01678
G1 X88.681 Y152.557 E1.18187
G1 X88.681 Y152.022 E0.01678
G1 X115.819 Y179.161 E1.20560
G1 X116.354 Y179.161 E0.01678
G1 X88.681 Y151.488 E1.22934
G1 X88.681 Y150.954 E0.01678
G1 X116.888 Y179.161 E1.25307
G1 X117.422 Y179.161 E0.01678
G1 X88.681 Y150.420 E1.27681
M73 Q1 S227
M73 P1 R226
G1 X88.681 Y149.885 E0.01678
G1 X117.956 Y179.161 E1.30054
G1 X118.491 Y179.161 E0.01678
G1 X88.681 Y149.351 E1.32428
G1 X88.681 Y148.817 E0.01678
G1 X119.025 Y179.161 E1.34801
G1 X119.559 Y179.161 E0.01678
G1 X88.681 Y148.283 E1.37175
G1 X88.681 Y147.748 E0.01678
G1 X120.093 Y179.161 E1.39548
G1 X120.628 Y179.161 E0.01678
G1 X88.681 Y147.214 E1.41921
G1 X88.681 Y146.680 E0.01678
G1 X121.162 Y179.161 E1.44295
G1 X121.696 Y179.161 E0.01678
G1 X88.681 Y146.146 E1.46668
G1 X88.681 Y145.611 E0.01678
G1 X122.231 Y179.161 E1.49042
G1 X122.765 Y179.161 E0.01678
G1 X88.681 Y145.077 E1.51415
G1 X88.681 Y144.543 E0.01678
G1 X123.299 Y179.161 E1.53789
G1 X123.833 Y179.161 E0.01678
G1 X88.681 Y144.008 E1.56162
G1 X88.681 Y143.474 E0.01678
G1 X124.368 Y179.161 E1.58536
G1 X124.902 Y179.161 E0.01678
G1 X88.681 Y142.940 E1.60909
G1 X88.681 Y142.406 E0.01678
G1 X125.436 Y179.161 E1.63283
G1 X125.970 Y179.161 E0.01678
G1 X88.681 Y141.871 E1.65656
G1 X88.681 Y141.337 E0.01678
G1 X126.505 Y179.161 E1.68030
G1 X127.039 Y179.161 E0.01678
G1 X88.681 Y140.803 E1.70403
G1 X88.681 Y140.269 E0.01678
G1 X127.573 Y179.161 E1.72777
G1 X128.107 Y179.161 E0.01678
G1 X88.681 Y139.734 E1.75150
G1 X88.681 Y139.200 E0.01678
G1 X128.642 Y179.161 E1.77524
G1 X129.176 Y179.161 E0.01678
G1 X88.681 Y138.666 E1.79897
G1 X88.681 Y138.131 E0.01678
G1 X129.710 Y179.161 E1.82270
G1 X130.245 Y179.161 E0.01678
G1 X88.681 Y137.597 E1.84644
G1 X88.681 Y137.063 E0.01678
G1 X130.779 Y179.161 E1.87017
M73 Q1 S225
M73 P1 R224
G1 X131.313 Y179.161 E0.01678
G1 X88.681 Y136.529 E1.89391
G1 X88.681 Y135.994 E0.01678
