; generated by PrusaSlicer 2.0.0 on 2019-08-05 at 22:09:25

; 

; external perimeters extrusion width = 0.45mm
; perimeters extrusion width = 0.45mm
; infill extrusion width = 0.45mm
; solid infill extrusion width = 0.45mm
; top infill extrusion width = 0.40mm
; support material extrusion width = 0.35mm
; first layer extrusion width = 0.42mm

M73 P0 R16
M73 Q0 S16
M201 X1000 Y1000 Z1000 E5000 ; sets maximum accelerations, mm/sec^2
M203 X200 Y200 Z12 E120 ; sets maximum feedrates, mm/sec
M204 P1250 R1250 T1250 ; sets acceleration (P, T) and retract acceleration (R), mm/sec^2
M205 X8.00 Y8.00 Z0.40 E1.50 ; sets the jerk limits, mm/sec
M205 S0 T0 ; sets the minimum extruding and travel feed rate, mm/sec
M107
M115 U3.4.0 ; tell printer latest fw version
M83  ; extruder relative mode
M104 S140 ; set extruder to warm-up temp
M140 S80 ; set bed temp
M190 S80 ; wait for bed temp
G28 W ; home all without mesh bed level
G80 ; mesh bed leveling
M104 S250 ; set extruder temp
M109 S250 ; wait for extruder temp
G1 Y-3.0 F1000.0 ; go outside print area
G92 E0.0
G1 X60.0 E9.0  F1000.0 ; intro line
M73 Q0 S16
M73 P0 R16
G1 X100.0 E12.5  F1000.0 ; intro line
G92 E0.0
M221 S95
M900 K45; Filament gcode
G21 ; set units to millimeters
G90 ; use absolute coordinates
M83 ; use relative distances for extrusion
;BEFORE_LAYER_CHANGE
G92 E0.0
;0.2


G1 E-0.80000 F2100.00000
G1 Z0.600 F10800.000
;AFTER_LAYER_CHANGE
;0.2
G1 X147.261 Y83.588
G1 Z0.200
G1 E0.80000 F2100.00000
M204 S20
G1 F1800
G1 X147.936 Y82.452 E0.04144
G1 X149.116 Y80.839 E0.06267
G1 X150.481 Y79.375 E0.06274
G1 X151.482 Y78.491 E0.04188
G1 X153.104 Y77.319 E0.06273
G1 X154.166 Y76.697 E0.03858
G1 X155.968 Y75.855 E0.06239
G1 X157.130 Y75.443 E0.03863
G1 X159.068 Y74.953 E0.06268
G1 X161.052 Y74.695 E0.06273
G1 X162.271 Y74.650 E0.03824
G1 X163.464 Y74.694 E0.03743
G1 X165.323 Y74.928 E0.05875
G1 X167.539 Y75.485 E0.07166
G1 X169.661 Y76.338 E0.07170
G1 X171.302 Y77.240 E0.05870
G1 X172.284 Y77.900 E0.03709
G1 X174.047 Y79.370 E0.07198
G1 X175.324 Y80.731 E0.05851
G1 X176.063 Y81.671 E0.03751
G1 X177.280 Y83.606 E0.07166
G1 X178.079 Y85.301 E0.05875
G1 X178.457 Y86.327 E0.03428
G1 X179.049 Y88.626 E0.07446
G1 X179.287 Y90.501 E0.05926
G1 X179.331 Y91.609 E0.03476
G1 X179.332 Y122.719 E0.97542
G1 X179.287 Y123.933 E0.03811
G1 X179.030 Y125.915 E0.06267
G1 X178.539 Y127.855 E0.06274
G1 X178.132 Y129.005 E0.03824
G1 X177.288 Y130.813 E0.06257
G1 X176.676 Y131.862 E0.03807
G1 X176.001 Y132.846 E0.03742
G1 X174.639 Y134.518 E0.06759
G1 X173.112 Y135.894 E0.06445
G1 X171.513 Y137.061 E0.06207
G1 X170.391 Y137.725 E0.04090
G1 X168.657 Y138.541 E0.06008
G1 X167.420 Y138.986 E0.04123
G1 X165.481 Y139.479 E0.06273
G1 X164.263 Y139.666 E0.03863
G1 X162.267 Y139.784 E0.06267
G1 X159.792 Y139.599 E0.07784
G1 X158.126 Y139.274 E0.05323
G1 X156.994 Y138.949 E0.03693
G1 X154.871 Y138.097 E0.07170
G1 X153.231 Y137.195 E0.05870
G1 X152.249 Y136.535 E0.03709
G1 X150.486 Y135.064 E0.07198
G1 X149.200 Y133.694 E0.05893
G1 X148.470 Y132.763 E0.03709
G1 X147.252 Y130.829 E0.07165
G1 X146.454 Y129.134 E0.05875
G1 X146.075 Y128.108 E0.03428
G1 X145.484 Y125.808 E0.07446
G1 X145.246 Y123.933 E0.05926
G1 X145.202 Y122.825 E0.03476
G1 X145.201 Y91.716 E0.97542
G1 X145.320 Y89.720 E0.06270
G1 X145.507 Y88.498 E0.03873
G1 X146.000 Y86.559 E0.06274
G1 X146.447 Y85.317 E0.04138
G1 X147.236 Y83.643 E0.05804
M204 S1000
G1 X147.577 Y83.803 F10800.000
M204 S20
G1 F1800
G1 X148.248 Y82.664 E0.04147
G1 X149.407 Y81.078 E0.06158
G1 X150.748 Y79.642 E0.06160
G1 X151.715 Y78.787 E0.04047
G1 X153.307 Y77.636 E0.06159
G1 X154.338 Y77.032 E0.03747
G1 X156.109 Y76.205 E0.06127
G1 X157.235 Y75.805 E0.03747
G1 X159.139 Y75.323 E0.06159
G1 X161.087 Y75.071 E0.06159
G1 X162.271 Y75.027 E0.03714
G1 X163.430 Y75.069 E0.03637
G1 X165.264 Y75.300 E0.05794
G1 X167.423 Y75.844 E0.06983
G1 X169.490 Y76.674 E0.06983
G1 X171.109 Y77.564 E0.05794
G1 X172.067 Y78.209 E0.03620
G1 X173.781 Y79.638 E0.06998
G1 X175.037 Y80.976 E0.05753
G1 X175.759 Y81.894 E0.03662
G1 X176.945 Y83.779 E0.06984
G1 X177.735 Y85.455 E0.05809
G1 X178.109 Y86.472 E0.03398
G1 X178.678 Y88.693 E0.07188
G1 X178.912 Y90.537 E0.05827
G1 X178.954 Y91.619 E0.03397
G1 X178.955 Y122.719 E0.97510
G1 X178.912 Y123.898 E0.03699
G1 X178.659 Y125.846 E0.06158
G1 X178.177 Y127.750 E0.06160
G1 X177.781 Y128.867 E0.03714
G1 X177.309 Y129.943 E0.03684
G1 X176.360 Y131.656 E0.06143
G1 X175.704 Y132.613 E0.03636
G1 X174.371 Y134.252 E0.06624
G1 X172.877 Y135.600 E0.06310
G1 X171.302 Y136.748 E0.06112
G1 X170.212 Y137.393 E0.03969
G1 X168.508 Y138.195 E0.05905
G1 X167.312 Y138.625 E0.03985
G1 X165.408 Y139.109 E0.06159
G1 X164.227 Y139.290 E0.03747
G1 X162.267 Y139.407 E0.06158
G1 X161.102 Y139.365 E0.03653
G1 X159.269 Y139.134 E0.05794
G1 X157.109 Y138.591 E0.06983
G1 X155.043 Y137.761 E0.06982
G1 X153.423 Y136.871 E0.05794
G1 X152.465 Y136.226 E0.03620
G1 X150.752 Y134.796 E0.06998
G1 X149.486 Y133.449 E0.05795
G1 X148.774 Y132.540 E0.03620
G1 X147.587 Y130.656 E0.06982
G1 X146.800 Y128.984 E0.05794
G1 X146.425 Y127.967 E0.03398
G1 X145.855 Y125.742 E0.07203
G1 X145.621 Y123.898 E0.05827
G1 X145.579 Y122.815 E0.03397
G1 X145.578 Y91.716 E0.97510
G1 X145.695 Y89.755 E0.06159
G1 X145.876 Y88.574 E0.03746
G1 X146.360 Y86.670 E0.06160
G1 X146.794 Y85.465 E0.04015
G1 X147.551 Y83.857 E0.05571
M204 S1000
G1 F8640
G1 X148.248 Y82.664 E-0.31917
G1 X149.375 Y81.123 E-0.44083
G1 E-0.04000 F2100.00000
G1 Z0.800 F10800.000
G1 X159.570 Y114.861
G1 Z0.200
G1 E0.80000 F2100.00000
M204 S20
G1 F1800
G1 X159.570 Y122.412 E0.23677
G1 X158.816 Y122.412 E0.02365
G1 X158.816 Y115.345 E0.22157
G1 X158.344 Y115.585 E0.01659
G1 X158.062 Y115.751 E0.01028
G1 X158.062 Y122.412 E0.20884
G1 X157.345 Y122.412 E0.02247
G1 X157.345 Y123.403 E0.03108
G1 X158.062 Y123.403 E0.02247
G1 X158.062 Y129.686 E0.19699
G1 X158.344 Y129.853 E0.01028
G1 X158.816 Y130.092 E0.01659
G1 X158.816 Y123.403 E0.20972
G1 X159.570 Y123.403 E0.02365
G1 X159.570 Y130.577 E0.22492
M204 S1000
G1 X157.308 Y129.428 F10800.000
M204 S20
G1 F1800
G1 X157.308 Y116.225 E0.41398
G1 X157.056 Y116.420 E0.01001
G1 X156.554 Y116.863 E0.02098
G1 X156.554 Y128.575 E0.36723
G1 X155.800 Y127.739 E0.03531
G1 X155.800 Y117.725 E0.31398
G1 X155.384 Y118.261 E0.02129
G1 X155.172 Y118.097 E0.00838
G1 X155.156 Y118.120 E0.00086
G1 X155.045 Y118.039 E0.00429
G1 X155.045 Y127.440 E0.29474
G1 X154.551 Y127.799 E0.01917
G1 X154.291 Y127.379 E0.01548
G1 X154.291 Y117.993 E0.29429
G1 X154.242 Y118.077 E0.00304
G1 X154.260 Y118.086 E0.00065
G1 X153.905 Y118.784 E0.02457
G1 X153.625 Y119.429 E0.02204
G1 X153.537 Y119.697 E0.00885
G1 X153.537 Y126.232 E0.20488
M204 S1000
G1 F8640
G1 X153.537 Y122.940 E-0.76000
G1 E-0.04000 F2100.00000
G1 Z0.800 F10800.000
G1 X165.604 Y123.234
G1 Z0.200
G1 E0.80000 F2100.00000
M204 S20
G1 F1800
G1 X165.604 Y130.141 E0.21657
G1 X166.358 Y129.753 E0.02660
G1 X166.358 Y123.403 E0.19908
G1 X167.112 Y123.403 E0.02365
G1 X167.112 Y129.469 E0.19019
M204 S1000
G1 F8640
G1 X167.112 Y126.178 E-0.76000
G1 E-0.04000 F2100.00000
G1 Z0.800 F10800.000
G1 X170.883 Y126.492
G1 Z0.200
G1 E0.80000 F2100.00000
M204 S20
G1 F1800
G1 X170.883 Y119.384 E0.22287
G1 X170.837 Y119.256 E0.00426
G1 X170.868 Y119.245 E0.00105
G1 X170.853 Y119.204 E0.00136
G1 X170.817 Y119.220 E0.00126
G1 X170.628 Y118.784 E0.01489
G1 X170.364 Y118.267 E0.01820
G1 X170.129 Y117.868 E0.01453
G1 X170.129 Y127.635 E0.30624
G1 X170.034 Y127.795 E0.00584
G1 X169.374 Y127.316 E0.02555
G1 X169.374 Y118.080 E0.28960
G1 X169.287 Y118.144 E0.00341
G1 X169.166 Y117.978 E0.00642
G1 X168.995 Y117.954 E0.00542
G1 X168.620 Y117.471 E0.01917
G1 X168.620 Y127.858 E0.32569
G1 X168.055 Y128.508 E0.02699
G1 X167.866 Y128.674 E0.00790
G1 X167.866 Y116.808 E0.37207
G1 X167.112 Y116.143 E0.03152
G1 X167.112 Y122.412 E0.19657
G1 X166.358 Y122.412 E0.02365
G1 X166.358 Y115.646 E0.21214
G1 X166.301 Y115.613 E0.00206
G1 X166.289 Y115.636 E0.00082
G1 X165.604 Y115.297 E0.02399
G1 X165.604 Y122.582 E0.22842
M204 S1000
G1 F8640
G1 X165.604 Y119.290 E-0.76000
G1 E-0.04000 F2100.00000
G1 Z0.800 F10800.000
G1 X169.353 Y116.721
G1 Z0.200
G1 E0.80000 F2100.00000
M204 S20
G1 F1800
G1 X170.284 Y116.045 E0.03605
G1 X171.037 Y117.153 E0.04200
G1 X171.369 Y117.715 E0.02046
G1 X171.665 Y118.296 E0.02046
G1 X171.924 Y118.895 E0.02046
G1 X172.145 Y119.509 E0.02046
G1 X172.327 Y120.136 E0.02046
G1 X172.470 Y120.772 E0.02046
G1 X172.572 Y121.417 E0.02046
G1 X172.633 Y122.067 E0.02046
G1 X172.654 Y122.719 E0.02046
G1 X172.633 Y123.371 E0.02046
G1 X172.572 Y124.021 E0.02046
G1 X172.470 Y124.665 E0.02046
G1 X172.327 Y125.302 E0.02046
G1 X172.145 Y125.929 E0.02046
G1 X171.924 Y126.543 E0.02046
G1 X171.665 Y127.142 E0.02046
G1 X171.369 Y127.723 E0.02046
G1 X171.037 Y128.285 E0.02046
G1 X170.284 Y129.393 E0.04201
G1 X169.353 Y128.717 E0.03605
G1 X169.037 Y129.076 E0.01502
G1 X168.624 Y129.489 E0.01829
G1 X168.186 Y129.875 E0.01829
G1 X167.725 Y130.233 E0.01829
G1 X167.243 Y130.560 E0.01829
G1 X166.741 Y130.857 E0.01829
G1 X166.221 Y131.122 E0.01829
G1 X165.685 Y131.354 E0.01829
G1 X165.136 Y131.552 E0.01829
G1 X164.576 Y131.714 E0.01829
G1 X164.007 Y131.842 E0.01829
G1 X163.430 Y131.933 E0.01829
G1 X162.850 Y131.988 E0.01829
G1 X162.266 Y132.006 E0.01829
G1 X161.683 Y131.988 E0.01829
G1 X161.102 Y131.933 E0.01829
G1 X160.526 Y131.842 E0.01829
G1 X159.957 Y131.714 E0.01829
G1 X159.396 Y131.552 E0.01829
G1 X158.847 Y131.354 E0.01829
G1 X158.312 Y131.122 E0.01829
G1 X157.792 Y130.857 E0.01829
G1 X157.290 Y130.560 E0.01829
G1 X156.807 Y130.233 E0.01829
G1 X156.346 Y129.875 E0.01829
G1 X155.909 Y129.489 E0.01829
G1 X155.496 Y129.076 E0.01829
G1 X155.179 Y128.717 E0.01503
G1 X154.249 Y129.393 E0.03605
G1 X153.496 Y128.285 E0.04200
G1 X153.164 Y127.723 E0.02046
G1 X152.868 Y127.142 E0.02046
G1 X152.608 Y126.543 E0.02046
G1 X152.387 Y125.929 E0.02046
G1 X152.205 Y125.302 E0.02046
G1 X152.063 Y124.665 E0.02046
G1 X151.961 Y124.021 E0.02046
G1 X151.899 Y123.371 E0.02046
G1 X151.879 Y122.719 E0.02046
G1 X151.899 Y122.067 E0.02046
G1 X151.961 Y121.417 E0.02046
G1 X152.063 Y120.772 E0.02046
G1 X152.205 Y120.136 E0.02046
G1 X152.387 Y119.509 E0.02046
G1 X152.608 Y118.895 E0.02046
G1 X152.868 Y118.296 E0.02046
G1 X153.164 Y117.715 E0.02046
G1 X153.496 Y117.153 E0.02046
G1 X154.249 Y116.045 E0.04201
G1 X155.179 Y116.721 E0.03605
G1 X155.496 Y116.361 E0.01502
G1 X155.909 Y115.949 E0.01829
G1 X156.346 Y115.563 E0.01829
G1 X156.807 Y115.205 E0.01829
G1 X157.290 Y114.877 E0.01829
G1 X157.792 Y114.580 E0.01829
G1 X158.312 Y114.315 E0.01829
G1 X158.847 Y114.084 E0.01829
G1 X159.376 Y113.893 E0.01761
G1 X159.956 Y113.723 E0.01896
G1 X160.526 Y113.596 E0.01831
G1 X161.102 Y113.505 E0.01829
G1 X161.683 Y113.450 E0.01829
G1 X162.245 Y113.432 E0.01761
G1 X162.849 Y113.450 E0.01896
G1 X163.430 Y113.505 E0.01832
G1 X164.007 Y113.596 E0.01829
G1 X164.576 Y113.723 E0.01829
G1 X165.136 Y113.886 E0.01829
G1 X165.685 Y114.084 E0.01829
G1 X166.221 Y114.315 E0.01829
G1 X166.741 Y114.580 E0.01829
G1 X167.243 Y114.877 E0.01829
G1 X167.725 Y115.205 E0.01829
G1 X168.186 Y115.563 E0.01829
G1 X168.624 Y115.949 E0.01829
G1 X169.037 Y116.361 E0.01829
G1 X169.314 Y116.676 E0.01314
M204 S1000
G1 X170.191 Y116.579 F10800.000
M204 S20
G1 F1800
G1 X170.718 Y117.355 E0.02943
G1 X171.038 Y117.896 E0.01972
G1 X171.324 Y118.457 E0.01972
G1 X171.574 Y119.034 E0.01972
G1 X171.787 Y119.626 E0.01972
G1 X171.962 Y120.229 E0.01972
G1 X172.099 Y120.843 E0.01972
G1 X172.198 Y121.464 E0.01972
G1 X172.257 Y122.090 E0.01972
G1 X172.276 Y122.719 E0.01972
G1 X172.257 Y123.347 E0.01972
G1 X172.198 Y123.973 E0.01972
G1 X172.099 Y124.595 E0.01972
G1 X171.962 Y125.208 E0.01972
G1 X171.787 Y125.812 E0.01972
G1 X171.574 Y126.404 E0.01972
G1 X171.324 Y126.981 E0.01972
G1 X171.038 Y127.541 E0.01972
G1 X170.718 Y128.083 E0.01972
G1 X170.190 Y128.859 E0.02944
G1 X169.285 Y128.201 E0.03510
G1 X168.762 Y128.818 E0.02537
G1 X168.366 Y129.214 E0.01755
G1 X167.946 Y129.584 E0.01755
G1 X167.504 Y129.927 E0.01755
G1 X167.041 Y130.242 E0.01755
G1 X166.559 Y130.527 E0.01755
G1 X166.060 Y130.781 E0.01755
G1 X165.546 Y131.003 E0.01755
G1 X165.020 Y131.193 E0.01755
G1 X164.482 Y131.349 E0.01755
G1 X163.936 Y131.471 E0.01755
G1 X163.383 Y131.559 E0.01755
G1 X162.826 Y131.611 E0.01755
G1 X162.266 Y131.629 E0.01755
G1 X161.707 Y131.611 E0.01755
G1 X161.150 Y131.559 E0.01755
G1 X160.597 Y131.471 E0.01755
G1 X160.050 Y131.349 E0.01755
G1 X159.513 Y131.193 E0.01755
G1 X158.986 Y131.003 E0.01755
G1 X158.473 Y130.781 E0.01755
G1 X157.974 Y130.527 E0.01755
G1 X157.492 Y130.242 E0.01755
G1 X157.029 Y129.927 E0.01755
G1 X156.587 Y129.584 E0.01755
G1 X156.167 Y129.214 E0.01755
G1 X155.771 Y128.818 E0.01755
G1 X155.248 Y128.201 E0.02537
G1 X154.342 Y128.859 E0.03510
G1 X153.814 Y128.083 E0.02943
G1 X153.494 Y127.541 E0.01972
G1 X153.209 Y126.981 E0.01972
G1 X152.959 Y126.404 E0.01972
G1 X152.746 Y125.812 E0.01972
G1 X152.571 Y125.208 E0.01972
G1 X152.433 Y124.595 E0.01972
G1 X152.335 Y123.973 E0.01972
G1 X152.276 Y123.347 E0.01972
G1 X152.256 Y122.719 E0.01972
G1 X152.276 Y122.090 E0.01972
G1 X152.335 Y121.464 E0.01972
G1 X152.433 Y120.843 E0.01972
G1 X152.571 Y120.229 E0.01972
G1 X152.746 Y119.626 E0.01972
G1 X152.959 Y119.034 E0.01972
G1 X153.209 Y118.457 E0.01972
G1 X153.494 Y117.896 E0.01972
G1 X153.814 Y117.355 E0.01972
G1 X154.342 Y116.578 E0.02944
G1 X155.248 Y117.236 E0.03510
G1 X155.771 Y116.619 E0.02537
G1 X156.167 Y116.224 E0.01755
G1 X156.587 Y115.853 E0.01755
G1 X157.029 Y115.510 E0.01755
G1 X157.492 Y115.196 E0.01755
G1 X157.974 Y114.911 E0.01755
G1 X158.473 Y114.657 E0.01755
G1 X158.986 Y114.434 E0.01755
G1 X159.493 Y114.252 E0.01688
G1 X160.050 Y114.089 E0.01821
G1 X160.597 Y113.966 E0.01756
G1 X161.150 Y113.879 E0.01755
G1 X161.707 Y113.826 E0.01755
G1 X162.245 Y113.809 E0.01688
G1 X162.826 Y113.826 E0.01821
G1 X163.383 Y113.879 E0.01756
G1 X163.936 Y113.966 E0.01755
G1 X164.482 Y114.089 E0.01755
G1 X165.020 Y114.245 E0.01755
G1 X165.546 Y114.434 E0.01755
G1 X166.060 Y114.657 E0.01755
G1 X166.559 Y114.911 E0.01755
G1 X167.041 Y115.196 E0.01755
G1 X167.504 Y115.510 E0.01755
G1 X167.946 Y115.853 E0.01755
G1 X168.366 Y116.224 E0.01755
G1 X168.762 Y116.619 E0.01755
G1 X169.285 Y117.237 E0.02537
G1 X170.142 Y116.614 E0.03322
M204 S1000
G1 X170.558 Y116.420 F10800.000
G1 F8640
G1 X170.718 Y117.355 E-0.21675
G1 X171.038 Y117.896 E-0.14520
G1 X171.324 Y118.457 E-0.14520
G1 X171.574 Y119.034 E-0.14520
G1 X171.731 Y119.472 E-0.10763
G1 E-0.04000 F2100.00000
G1 Z0.800 F10800.000
G1 X171.598 Y115.485
G1 Z0.200
G1 E0.80000 F2100.00000
M204 S20
G1 F1800
G1 X171.823 Y115.776 E0.01153
G1 X172.240 Y116.389 E0.02327
G1 X172.618 Y117.028 E0.02327
G1 X172.955 Y117.689 E0.02327
G1 X173.249 Y118.370 E0.02327
G1 X173.501 Y119.069 E0.02327
G1 X173.708 Y119.781 E0.02327
G1 X173.870 Y120.505 E0.02327
G1 X173.986 Y121.238 E0.02327
G1 X174.052 Y121.942 E0.02216
G1 X174.079 Y122.720 E0.02440
G1 X174.056 Y123.461 E0.02324
G1 X173.986 Y124.199 E0.02327
G1 X173.870 Y124.932 E0.02327
G1 X173.708 Y125.656 E0.02327
G1 X173.501 Y126.369 E0.02327
G1 X173.249 Y127.067 E0.02327
G1 X172.955 Y127.748 E0.02327
G1 X172.634 Y128.378 E0.02216
G1 X172.240 Y129.049 E0.02440
G1 X171.823 Y129.662 E0.02324
G1 X171.368 Y130.248 E0.02327
G1 X170.877 Y130.805 E0.02327
G1 X170.353 Y131.330 E0.02327
G1 X169.796 Y131.821 E0.02327
G1 X169.210 Y132.275 E0.02327
G1 X168.597 Y132.692 E0.02324
G1 X167.926 Y133.086 E0.02440
G1 X167.296 Y133.407 E0.02216
G1 X166.615 Y133.702 E0.02327
G1 X165.917 Y133.953 E0.02327
G1 X165.204 Y134.160 E0.02327
G1 X164.480 Y134.322 E0.02327
G1 X163.747 Y134.438 E0.02327
G1 X163.008 Y134.508 E0.02327
G1 X162.267 Y134.531 E0.02324
G1 X161.489 Y134.505 E0.02440
G1 X160.786 Y134.438 E0.02216
G1 X160.053 Y134.322 E0.02327
G1 X159.329 Y134.160 E0.02327
G1 X158.616 Y133.953 E0.02327
G1 X157.918 Y133.702 E0.02327
G1 X157.237 Y133.407 E0.02327
G1 X156.576 Y133.070 E0.02327
G1 X155.937 Y132.693 E0.02327
G1 X155.323 Y132.275 E0.02327
G1 X154.737 Y131.821 E0.02327
G1 X154.180 Y131.330 E0.02327
G1 X153.680 Y130.830 E0.02216
