; generated by PrusaSlicer 2.0.0 on 2019-08-05 at 22:55:58

; 

; external perimeters extrusion width = 0.45mm
; perimeters extrusion width = 0.45mm
; infill extrusion width = 0.45mm
; solid infill extrusion width = 0.45mm
; top infill extrusion width = 0.40mm
; support material extrusion width = 0.35mm
; first layer extrusion width = 0.42mm

M73 P0 R19
M73 Q0 S19
M201 X1000 Y1000 Z1000 E5000 ; sets maximum accelerations, mm/sec^2
M203 X200 Y200 Z12 E120 ; sets maximum feedrates, mm/sec
M204 P1250 R1250 T1250 ; sets acceleration (P, T) and retract acceleration (R), mm/sec^2
M205 X8.00 Y8.00 Z0.40 E1.50 ; sets the jerk limits, mm/sec
M205 S0 T0 ; sets the minimum extruding and travel feed rate, mm/sec
M107
M115 U3.4.0 ; tell printer latest fw version
M83  ; extruder relative mode
M104 S140 ; set extruder to warm-up temp
M140 S80 ; set bed temp
M190 S80 ; wait for bed temp
G28 W ; home all without mesh bed level
G80 ; mesh bed leveling
M104 S250 ; set extruder temp
M109 S250 ; wait for extruder temp
G1 Y-3.0 F1000.0 ; go outside print area
G92 E0.0
G1 X60.0 E9.0  F1000.0 ; intro line
M73 Q0 S19
M73 P0 R19
G1 X100.0 E12.5  F1000.0 ; intro line
G92 E0.0
M221 S95
M900 K45; Filament gcode
G21 ; set units to millimeters
G90 ; use absolute coordinates
M83 ; use relative distances for extrusion
;BEFORE_LAYER_CHANGE
G92 E0.0
;0.2


G1 E-0.80000 F2100.00000
G1 Z0.600 F10800.000
;AFTER_LAYER_CHANGE
;0.2
G1 X148.470 Y83.660
G1 Z0.200
G1 E0.80000 F2100.00000
M204 S20
G1 F1800
G1 X149.144 Y82.523 E0.04144
G1 X150.325 Y80.910 E0.06267
G1 X151.689 Y79.447 E0.06273
G1 X152.691 Y78.563 E0.04188
G1 X154.312 Y77.390 E0.06273
G1 X155.374 Y76.769 E0.03858
G1 X157.177 Y75.927 E0.06239
G1 X158.338 Y75.515 E0.03863
G1 X160.276 Y75.024 E0.06268
G1 X162.260 Y74.767 E0.06273
G1 X163.479 Y74.722 E0.03824
G1 X165.754 Y74.843 E0.07145
G1 X167.641 Y75.239 E0.06044
G1 X168.747 Y75.557 E0.03610
G1 X170.870 Y76.409 E0.07170
G1 X172.510 Y77.312 E0.05870
G1 X173.492 Y77.971 E0.03709
G1 X175.255 Y79.442 E0.07198
G1 X176.541 Y80.812 E0.05893
G1 X177.271 Y81.743 E0.03709
G1 X178.489 Y83.677 E0.07166
G1 X179.287 Y85.373 E0.05875
G1 X179.666 Y86.398 E0.03428
G1 X180.257 Y88.698 E0.07445
G1 X180.495 Y90.573 E0.05927
G1 X180.539 Y91.681 E0.03476
G1 X180.540 Y122.791 E0.97542
G1 X180.495 Y124.005 E0.03811
G1 X180.238 Y125.987 E0.06267
G1 X179.747 Y127.927 E0.06274
G1 X179.340 Y129.075 E0.03818
G1 X178.496 Y130.885 E0.06263
G1 X177.873 Y131.952 E0.03874
G1 X176.697 Y133.577 E0.06290
G1 X175.815 Y134.576 E0.04177
G1 X174.353 Y135.939 E0.06268
G1 X172.739 Y137.121 E0.06273
G1 X171.604 Y137.795 E0.04139
G1 X169.870 Y138.611 E0.06008
G1 X168.633 Y139.057 E0.04123
G1 X166.689 Y139.551 E0.06290
G1 X165.471 Y139.737 E0.03863
G1 X163.476 Y139.856 E0.06267
G1 X161.116 Y139.689 E0.07416
G1 X159.344 Y139.348 E0.05659
G1 X158.202 Y139.021 E0.03726
G1 X156.080 Y138.169 E0.07170
G1 X154.439 Y137.266 E0.05870
G1 X153.457 Y136.607 E0.03709
G1 X151.694 Y135.136 E0.07198
G1 X150.408 Y133.766 E0.05893
G1 X149.678 Y132.835 E0.03709
G1 X148.468 Y130.913 E0.07120
G1 X147.974 Y129.926 E0.03460
G1 X147.284 Y128.180 E0.05888
G1 X146.692 Y125.880 E0.07446
G1 X146.528 Y124.787 E0.03466
G1 X146.410 Y122.902 E0.05920
G1 X146.409 Y91.788 E0.97558
G1 X146.528 Y89.791 E0.06270
G1 X146.715 Y88.570 E0.03873
G1 X147.208 Y86.631 E0.06274
G1 X147.655 Y85.389 E0.04139
G1 X148.444 Y83.714 E0.05804
M204 S1000
G1 X148.785 Y83.875 F10800.000
M204 S20
G1 F1800
G1 X149.456 Y82.735 E0.04147
G1 X150.616 Y81.150 E0.06158
G1 X151.956 Y79.714 E0.06159
G1 X152.924 Y78.859 E0.04047
G1 X154.515 Y77.708 E0.06159
G1 X155.547 Y77.104 E0.03747
G1 X157.317 Y76.277 E0.06127
G1 X158.443 Y75.877 E0.03748
G1 X160.347 Y75.395 E0.06159
G1 X162.296 Y75.142 E0.06159
G1 X163.479 Y75.099 E0.03714
G1 X165.695 Y75.215 E0.06956
G1 X167.556 Y75.606 E0.05964
G1 X168.632 Y75.916 E0.03509
G1 X170.698 Y76.745 E0.06983
G1 X172.318 Y77.636 E0.05794
G1 X173.276 Y78.280 E0.03620
G1 X174.993 Y79.714 E0.07014
G1 X176.258 Y81.061 E0.05794
G1 X176.970 Y81.970 E0.03620
G1 X178.156 Y83.855 E0.06983
G1 X178.943 Y85.527 E0.05794
G1 X179.317 Y86.544 E0.03398
G1 X179.886 Y88.765 E0.07188
G1 X180.120 Y90.609 E0.05827
G1 X180.162 Y91.691 E0.03397
G1 X180.163 Y122.791 E0.97510
G1 X180.120 Y123.970 E0.03699
G1 X179.868 Y125.917 E0.06158
G1 X179.385 Y127.822 E0.06160
G1 X178.992 Y128.931 E0.03690
G1 X178.161 Y130.714 E0.06168
G1 X177.557 Y131.745 E0.03746
G1 X176.403 Y133.341 E0.06176
G1 X175.549 Y134.309 E0.04048
G1 X174.112 Y135.649 E0.06159
G1 X172.527 Y136.809 E0.06159
G1 X171.425 Y137.462 E0.04016
G1 X169.726 Y138.263 E0.05889
G1 X168.521 Y138.697 E0.04016
G1 X166.617 Y139.181 E0.06159
G1 X165.436 Y139.362 E0.03747
G1 X163.475 Y139.479 E0.06158
G1 X162.311 Y139.437 E0.03653
G1 X160.477 Y139.206 E0.05794
G1 X158.318 Y138.662 E0.06983
G1 X156.251 Y137.833 E0.06983
G1 X154.632 Y136.942 E0.05794
G1 X153.674 Y136.298 E0.03620
G1 X151.956 Y134.864 E0.07014
G1 X150.691 Y133.517 E0.05794
G1 X149.979 Y132.608 E0.03620
G1 X148.803 Y130.740 E0.06921
G1 X148.320 Y129.776 E0.03379
G1 X147.634 Y128.039 E0.05858
G1 X147.063 Y125.813 E0.07203
G1 X146.829 Y123.970 E0.05827
G1 X146.787 Y122.887 E0.03397
G1 X146.786 Y91.788 E0.97510
G1 X146.903 Y89.827 E0.06159
G1 X147.085 Y88.646 E0.03746
G1 X147.570 Y86.737 E0.06176
G1 X148.002 Y85.537 E0.04000
G1 X148.759 Y83.929 E0.05571
M204 S1000
G1 F8640
G1 X149.456 Y82.735 E-0.31917
G1 X150.583 Y81.194 E-0.44083
G1 E-0.04000 F2100.00000
G1 Z0.800 F10800.000
G1 X154.745 Y120.845
G1 Z0.200
G1 E0.80000 F2100.00000
M204 S20
G1 F1800
G1 X154.745 Y123.173 E0.07301
G1 X154.842 Y124.347 E0.03694
G1 X154.877 Y124.531 E0.00586
G1 X154.910 Y124.524 E0.00104
G1 X155.008 Y124.964 E0.01416
G1 X155.161 Y125.492 E0.01722
G1 X155.347 Y126.008 E0.01722
G1 X155.500 Y126.360 E0.01203
G1 X155.500 Y119.221 E0.22386
G1 X156.029 Y118.158 E0.03723
G1 X155.996 Y118.141 E0.00116
G1 X156.110 Y117.965 E0.00656
G1 X156.254 Y118.070 E0.00558
G1 X156.254 Y127.511 E0.29603
G1 X156.786 Y127.125 E0.02061
G1 X156.766 Y127.098 E0.00105
G1 X157.008 Y126.922 E0.00937
G1 X157.008 Y118.659 E0.25908
G1 X157.611 Y119.097 E0.02339
G1 X157.762 Y119.076 E0.00477
G1 X157.762 Y126.415 E0.23012
G1 X157.826 Y126.369 E0.00246
G1 X157.943 Y126.531 E0.00626
G1 X157.979 Y126.536 E0.00115
G1 X158.516 Y127.228 E0.02748
G1 X158.516 Y118.353 E0.27830
G1 X158.647 Y118.184 E0.00671
G1 X158.594 Y118.142 E0.00211
G1 X159.159 Y117.613 E0.02427
G1 X159.180 Y117.643 E0.00116
G1 X159.270 Y117.582 E0.00344
G1 X159.270 Y127.930 E0.32447
G1 X159.571 Y128.163 E0.01193
G1 X159.950 Y128.421 E0.01436
G1 X159.938 Y128.438 E0.00067
G1 X160.025 Y128.483 E0.00305
G1 X160.025 Y117.119 E0.35630
G1 X160.275 Y116.971 E0.00913
G1 X160.779 Y116.724 E0.01758
G1 X160.779 Y129.057 E0.38669
M204 S1000
G1 F8640
G1 X160.779 Y125.766 E-0.76000
G1 E-0.04000 F2100.00000
G1 Z0.800 F10800.000
G1 X166.812 Y128.566
G1 Z0.200
G1 E0.80000 F2100.00000
M204 S20
G1 F1800
G1 X166.812 Y117.201 E0.35636
G1 X166.943 Y117.108 E0.00503
G1 X167.095 Y117.185 E0.00535
G1 X167.566 Y117.521 E0.01814
G1 X167.566 Y128.060 E0.33043
G1 X167.750 Y127.917 E0.00731
G1 X167.770 Y127.942 E0.00099
G1 X168.162 Y127.596 E0.01640
G1 X168.145 Y127.581 E0.00072
G1 X168.320 Y127.382 E0.00832
G1 X168.320 Y118.169 E0.28888
G1 X168.387 Y118.228 E0.00280
G1 X168.405 Y118.208 E0.00084
G1 X168.983 Y118.953 E0.02958
G1 X169.075 Y118.966 E0.00289
G1 X169.075 Y126.382 E0.23252
G1 X169.117 Y126.323 E0.00228
G1 X169.829 Y126.840 E0.02757
G1 X169.829 Y118.659 E0.25653
G1 X170.270 Y118.338 E0.01712
G1 X170.251 Y118.311 E0.00105
G1 X170.583 Y118.069 E0.01287
G1 X170.583 Y127.512 E0.29606
G1 X170.775 Y127.651 E0.00745
G1 X171.205 Y126.949 E0.02582
G1 X171.170 Y126.932 E0.00120
G1 X171.337 Y126.605 E0.01150
G1 X171.337 Y118.976 E0.23918
G1 X171.602 Y119.573 E0.02046
G1 X171.788 Y120.089 E0.01722
G1 X171.941 Y120.617 E0.01722
G1 X172.091 Y121.342 E0.02323
G1 X172.091 Y125.176 E0.12021
M204 S1000
G1 F8640
G1 X172.091 Y121.885 E-0.76000
G1 E-0.04000 F2100.00000
G1 Z0.800 F10800.000
G1 X171.087 Y116.410
G1 Z0.200
G1 E0.80000 F2100.00000
M204 S20
G1 F1800
G1 X171.823 Y117.493 E0.04103
G1 X172.139 Y118.027 E0.01948
G1 X172.421 Y118.581 E0.01948
G1 X172.668 Y119.151 E0.01948
G1 X172.878 Y119.736 E0.01950
G1 X173.058 Y120.361 E0.02040
G1 X173.187 Y120.938 E0.01853
G1 X173.284 Y121.551 E0.01948
G1 X173.343 Y122.170 E0.01948
G1 X173.362 Y122.791 E0.01948
G1 X173.343 Y123.411 E0.01948
G1 X173.284 Y124.030 E0.01948
G1 X173.187 Y124.643 E0.01948
G1 X173.051 Y125.249 E0.01948
G1 X172.878 Y125.846 E0.01948
G1 X172.668 Y126.430 E0.01948
G1 X172.421 Y127.000 E0.01948
G1 X172.139 Y127.554 E0.01948
G1 X171.823 Y128.089 E0.01948
G1 X171.087 Y129.171 E0.04103
G1 X169.338 Y127.899 E0.06782
G1 X169.157 Y128.116 E0.00883
G1 X168.806 Y128.467 E0.01559
G1 X168.439 Y128.791 E0.01534
G1 X168.052 Y129.091 E0.01534
G1 X167.647 Y129.366 E0.01534
G1 X167.226 Y129.615 E0.01534
G1 X166.790 Y129.837 E0.01534
G1 X166.341 Y130.031 E0.01534
G1 X165.881 Y130.197 E0.01534
G1 X165.411 Y130.333 E0.01534
G1 X164.934 Y130.440 E0.01534
G1 X164.451 Y130.517 E0.01534
G1 X163.964 Y130.563 E0.01534
G1 X163.475 Y130.578 E0.01534
G1 X162.986 Y130.563 E0.01534
G1 X162.499 Y130.517 E0.01534
G1 X162.015 Y130.440 E0.01534
G1 X161.538 Y130.333 E0.01534
G1 X161.068 Y130.197 E0.01534
G1 X160.608 Y130.031 E0.01534
G1 X160.159 Y129.837 E0.01534
G1 X159.723 Y129.615 E0.01534
G1 X159.302 Y129.366 E0.01534
G1 X158.897 Y129.091 E0.01534
G1 X158.511 Y128.791 E0.01534
G1 X158.144 Y128.467 E0.01534
G1 X157.792 Y128.116 E0.01559
G1 X157.612 Y127.899 E0.00883
G1 X155.862 Y129.171 E0.06782
G1 X155.126 Y128.089 E0.04103
G1 X154.810 Y127.554 E0.01948
G1 X154.528 Y127.000 E0.01948
G1 X154.282 Y126.430 E0.01948
G1 X154.071 Y125.845 E0.01950
G1 X153.891 Y125.220 E0.02040
G1 X153.762 Y124.643 E0.01853
G1 X153.665 Y124.030 E0.01948
G1 X153.607 Y123.411 E0.01948
G1 X153.587 Y122.791 E0.01948
G1 X153.607 Y122.170 E0.01948
G1 X153.665 Y121.550 E0.01950
G1 X153.769 Y120.908 E0.02040
G1 X153.898 Y120.332 E0.01853
G1 X154.071 Y119.735 E0.01948
G1 X154.282 Y119.151 E0.01948
G1 X154.528 Y118.581 E0.01948
G1 X154.810 Y118.027 E0.01948
G1 X155.126 Y117.493 E0.01948
G1 X155.862 Y116.410 E0.04103
G1 X157.612 Y117.682 E0.06782
G1 X157.792 Y117.465 E0.00883
G1 X158.144 Y117.114 E0.01559
G1 X158.511 Y116.790 E0.01534
G1 X158.897 Y116.490 E0.01534
G1 X159.302 Y116.215 E0.01534
G1 X159.723 Y115.966 E0.01534
G1 X160.159 Y115.744 E0.01534
G1 X160.608 Y115.550 E0.01534
G1 X161.068 Y115.384 E0.01534
G1 X161.538 Y115.248 E0.01534
G1 X162.015 Y115.141 E0.01534
G1 X162.499 Y115.065 E0.01534
G1 X162.986 Y115.019 E0.01534
G1 X163.457 Y115.004 E0.01478
G1 X163.963 Y115.018 E0.01587
G1 X164.451 Y115.065 E0.01536
G1 X164.934 Y115.141 E0.01534
G1 X165.411 Y115.248 E0.01534
G1 X165.881 Y115.384 E0.01534
G1 X166.341 Y115.550 E0.01534
G1 X166.790 Y115.744 E0.01534
G1 X167.226 Y115.966 E0.01534
G1 X167.647 Y116.215 E0.01534
G1 X168.052 Y116.490 E0.01534
G1 X168.439 Y116.790 E0.01534
G1 X168.806 Y117.114 E0.01534
G1 X169.157 Y117.465 E0.01559
G1 X169.338 Y117.682 E0.00883
G1 X171.039 Y116.446 E0.06594
M204 S1000
G1 X170.994 Y116.944 F10800.000
M204 S20
G1 F1800
G1 X171.504 Y117.695 E0.02846
G1 X171.808 Y118.209 E0.01873
G1 X172.080 Y118.741 E0.01873
G1 X172.317 Y119.290 E0.01873
G1 X172.519 Y119.852 E0.01874
G1 X172.693 Y120.454 E0.01965
G1 X172.816 Y121.009 E0.01780
G1 X172.910 Y121.599 E0.01873
G1 X172.966 Y122.193 E0.01873
G1 X172.985 Y122.791 E0.01873
G1 X172.966 Y123.388 E0.01873
G1 X172.910 Y123.983 E0.01873
G1 X172.816 Y124.573 E0.01873
G1 X172.686 Y125.156 E0.01873
G1 X172.519 Y125.729 E0.01873
G1 X172.317 Y126.291 E0.01873
G1 X172.080 Y126.840 E0.01873
G1 X171.808 Y127.372 E0.01873
G1 X171.504 Y127.886 E0.01873
G1 X170.994 Y128.637 E0.02846
G1 X169.274 Y127.387 E0.06668
G1 X168.879 Y127.861 E0.01935
G1 X168.547 Y128.192 E0.01469
G1 X168.198 Y128.500 E0.01460
G1 X167.830 Y128.786 E0.01460
G1 X167.445 Y129.047 E0.01460
G1 X167.045 Y129.284 E0.01460
G1 X166.630 Y129.495 E0.01460
G1 X166.203 Y129.680 E0.01460
G1 X165.765 Y129.838 E0.01460
G1 X165.318 Y129.968 E0.01460
G1 X164.863 Y130.069 E0.01460
G1 X164.403 Y130.142 E0.01460
G1 X163.940 Y130.186 E0.01460
G1 X163.475 Y130.201 E0.01460
G1 X163.009 Y130.186 E0.01460
G1 X162.546 Y130.142 E0.01460
G1 X162.086 Y130.069 E0.01460
G1 X161.632 Y129.968 E0.01460
G1 X161.185 Y129.838 E0.01460
G1 X160.747 Y129.680 E0.01460
G1 X160.320 Y129.495 E0.01460
G1 X159.905 Y129.284 E0.01460
G1 X159.504 Y129.047 E0.01460
G1 X159.119 Y128.786 E0.01460
G1 X158.751 Y128.500 E0.01460
G1 X158.402 Y128.192 E0.01460
G1 X158.071 Y127.861 E0.01469
G1 X157.676 Y127.387 E0.01935
G1 X155.955 Y128.637 E0.06668
G1 X155.445 Y127.886 E0.02846
G1 X155.141 Y127.372 E0.01873
G1 X154.870 Y126.840 E0.01873
G1 X154.632 Y126.291 E0.01873
G1 X154.430 Y125.729 E0.01874
G1 X154.257 Y125.127 E0.01965
G1 X154.133 Y124.573 E0.01780
G1 X154.040 Y123.983 E0.01873
G1 X153.983 Y123.388 E0.01873
G1 X153.965 Y122.791 E0.01873
G1 X153.983 Y122.193 E0.01873
G1 X154.040 Y121.598 E0.01874
G1 X154.139 Y120.980 E0.01965
G1 X154.263 Y120.425 E0.01780
G1 X154.430 Y119.852 E0.01873
G1 X154.632 Y119.290 E0.01873
G1 X154.870 Y118.741 E0.01873
G1 X155.141 Y118.209 E0.01873
G1 X155.445 Y117.695 E0.01873
G1 X155.955 Y116.944 E0.02846
G1 X157.676 Y118.194 E0.06668
G1 X158.071 Y117.720 E0.01935
G1 X158.402 Y117.389 E0.01469
G1 X158.751 Y117.081 E0.01460
G1 X159.119 Y116.796 E0.01460
G1 X159.504 Y116.534 E0.01460
G1 X159.905 Y116.297 E0.01460
G1 X160.320 Y116.086 E0.01460
G1 X160.747 Y115.901 E0.01460
G1 X161.185 Y115.743 E0.01460
G1 X161.632 Y115.613 E0.01460
G1 X162.086 Y115.512 E0.01460
G1 X162.546 Y115.439 E0.01460
G1 X163.009 Y115.395 E0.01460
G1 X163.457 Y115.381 E0.01405
G1 X163.940 Y115.395 E0.01513
G1 X164.403 Y115.439 E0.01460
G1 X164.863 Y115.512 E0.01460
G1 X165.318 Y115.613 E0.01460
G1 X165.765 Y115.743 E0.01460
G1 X166.203 Y115.901 E0.01460
G1 X166.630 Y116.086 E0.01460
G1 X167.045 Y116.297 E0.01460
G1 X167.445 Y116.534 E0.01460
G1 X167.830 Y116.796 E0.01460
G1 X168.198 Y117.081 E0.01460
G1 X168.547 Y117.389 E0.01460
G1 X168.879 Y117.720 E0.01469
G1 X169.274 Y118.194 E0.01935
G1 X170.946 Y116.979 E0.06480
M204 S1000
G1 X171.342 Y116.747 F10800.000
G1 F8640
G1 X171.504 Y117.695 E-0.20959
G1 X171.808 Y118.209 E-0.13795
G1 X172.080 Y118.741 E-0.13795
G1 X172.317 Y119.290 E-0.13795
G1 X172.517 Y119.846 E-0.13656
G1 E-0.04000 F2100.00000
G1 Z0.800 F10800.000
G1 X172.796 Y115.544
G1 Z0.200
G1 E0.80000 F2100.00000
M204 S20
G1 F1800
G1 X173.031 Y115.847 E0.01203
G1 X173.448 Y116.461 E0.02327
G1 X173.826 Y117.100 E0.02327
G1 X174.163 Y117.761 E0.02327
G1 X174.458 Y118.442 E0.02327
G1 X174.709 Y119.140 E0.02327
G1 X174.916 Y119.853 E0.02327
G1 X175.078 Y120.577 E0.02327
G1 X175.194 Y121.310 E0.02327
G1 X175.262 Y122.026 E0.02256
G1 X175.287 Y122.791 E0.02399
G1 X175.264 Y123.532 E0.02325
G1 X175.194 Y124.271 E0.02327
G1 X175.078 Y125.004 E0.02327
G1 X174.916 Y125.728 E0.02327
G1 X174.709 Y126.441 E0.02327
G1 X174.458 Y127.139 E0.02327
G1 X174.163 Y127.820 E0.02327
G1 X173.836 Y128.461 E0.02256
G1 X173.448 Y129.121 E0.02399
G1 X173.031 Y129.734 E0.02325
G1 X172.576 Y130.320 E0.02327
G1 X172.086 Y130.877 E0.02327
G1 X171.561 Y131.402 E0.02327
G1 X171.004 Y131.892 E0.02327
G1 X170.418 Y132.347 E0.02327
G1 X169.805 Y132.764 E0.02325
G1 X169.145 Y133.152 E0.02399
G1 X168.504 Y133.479 E0.02256
G1 X167.823 Y133.774 E0.02327
G1 X167.125 Y134.025 E0.02327
G1 X166.412 Y134.232 E0.02327
G1 X165.688 Y134.394 E0.02327
G1 X164.955 Y134.510 E0.02327
G1 X164.216 Y134.580 E0.02327
G1 X163.475 Y134.603 E0.02325
G1 X162.711 Y134.578 E0.02399
G1 X161.994 Y134.510 E0.02256
G1 X161.261 Y134.394 E0.02327
G1 X160.537 Y134.232 E0.02327
G1 X159.824 Y134.025 E0.02327
G1 X159.126 Y133.774 E0.02327
G1 X158.445 Y133.479 E0.02327
G1 X157.784 Y133.142 E0.02327
G1 X157.145 Y132.764 E0.02327
G1 X156.531 Y132.347 E0.02327
G1 X155.945 Y131.892 E0.02327
G1 X155.388 Y131.402 E0.02327
G1 X154.864 Y130.877 E0.02327
G1 X154.373 Y130.320 E0.02327
G1 X153.918 Y129.734 E0.02327
G1 X153.501 Y129.120 E0.02327
