; generated by Slic3r Prusa Edition 1.41.2 on 2019-02-18 at 10:16:39

; 

; external perimeters extrusion width = 0.45mm
; perimeters extrusion width = 0.45mm
; infill extrusion width = 0.45mm
; solid infill extrusion width = 0.45mm
; top infill extrusion width = 0.40mm
; support material extrusion width = 0.35mm
; first layer extrusion width = 0.42mm

M73 P0 R13
M73 Q0 S13
M201 X1000 Y1000 Z1000 E5000 ; sets maximum accelerations, mm/sec^2
M203 X200 Y200 Z12 E120 ; sets maximum feedrates, mm/sec
M204 P1250 R1250 T1250 ; sets acceleration (P, T) and retract acceleration (R), mm/sec^2
M205 X8.00 Y8.00 Z0.40 E1.50 ; sets the jerk limits, mm/sec
M205 S0 T0 ; sets the minimum extruding and travel feed rate, mm/sec
M107
M115 U3.4.0 ; tell printer latest fw version
M83  ; extruder relative mode
M104 S140 ; set extruder to warm-up temp
M140 S80 ; set bed temp
M190 S80 ; wait for bed temp
G28 W ; home all without mesh bed level
G80 ; mesh bed leveling
M104 S250 ; set extruder temp
M109 S250 ; wait for extruder temp
G1 Y-3.0 F1000.0 ; go outside print area
G92 E0.0
G1 X60.0 E9.0  F1000.0 ; intro line
M73 Q0 S13
M73 P0 R13
G1 X100.0 E12.5  F1000.0 ; intro line
G92 E0.0
M221 S95
M900 K45; Filament gcode
G21 ; set units to millimeters
G90 ; use absolute coordinates
M83 ; use relative distances for extrusion
;BEFORE_LAYER_CHANGE
G92 E0.0
;0.2


G1 E-0.80000 F2100.00000
G1 Z0.600 F10800.000
;AFTER_LAYER_CHANGE
;0.2
G1 X118.047 Y98.430
G1 Z0.200
G1 E0.80000 F2100.00000
M204 S20
G1 F1800
G1 X118.946 Y97.594 E0.03849
G1 X120.045 Y96.821 E0.04212
G1 X121.031 Y96.297 E0.03502
G1 X122.301 Y95.827 E0.04244
G1 X123.487 Y95.559 E0.03815
G1 X125.319 Y95.444 E0.05755
G1 X126.786 Y95.603 E0.04624
G1 X128.208 Y95.993 E0.04624
G1 X129.086 Y96.351 E0.02973
G1 X129.975 Y96.832 E0.03171
G1 X131.252 Y97.763 E0.04954
G1 X161.877 Y128.353 E1.35718
G1 X162.684 Y129.304 E0.03912
G1 X163.502 Y130.625 E0.04871
G1 X163.912 Y131.526 E0.03105
G1 X164.261 Y132.604 E0.03552
G1 X164.482 Y133.742 E0.03634
G1 X164.557 Y134.713 E0.03055
G1 X164.487 Y136.223 E0.04740
G1 X164.277 Y137.331 E0.03535
G1 X163.984 Y138.272 E0.03088
G1 X163.355 Y139.657 E0.04773
G1 X162.758 Y140.595 E0.03486
G1 X162.122 Y141.381 E0.03170
G1 X160.941 Y142.494 E0.05086
G1 X160.136 Y143.070 E0.03105
G1 X159.324 Y143.528 E0.02923
G1 X158.122 Y144.040 E0.04095
G1 X156.768 Y144.401 E0.04394
G1 X155.333 Y144.556 E0.04524
G1 X154.396 Y144.547 E0.02940
G1 X153.433 Y144.433 E0.03039
G1 X152.046 Y144.098 E0.04475
G1 X150.726 Y143.554 E0.04476
G1 X149.885 Y143.083 E0.03022
G1 X149.125 Y142.543 E0.02923
G1 X148.131 Y141.656 E0.04178
G1 X118.123 Y111.647 E1.33061
G1 X117.316 Y110.696 E0.03912
G1 X116.624 Y109.619 E0.04014
G1 X116.091 Y108.484 E0.03932
G1 X115.718 Y107.309 E0.03866
G1 X115.486 Y105.959 E0.04294
G1 X115.443 Y104.717 E0.03897
G1 X115.678 Y102.870 E0.05838
G1 X116.075 Y101.559 E0.04294
G1 X116.577 Y100.468 E0.03766
G1 X117.254 Y99.387 E0.03998
G1 X118.009 Y98.476 E0.03710
M204 S1000
G1 X118.299 Y98.716 F10800.000
M204 S20
G1 F1800
G1 X119.182 Y97.888 E0.03796
G1 X120.236 Y97.145 E0.04045
G1 X121.180 Y96.644 E0.03348
G1 X122.398 Y96.192 E0.04076
G1 X123.538 Y95.933 E0.03665
G1 X125.319 Y95.821 E0.05595
G1 X126.717 Y95.973 E0.04408
G1 X128.072 Y96.345 E0.04407
G1 X128.926 Y96.692 E0.02890
G1 X129.785 Y97.158 E0.03064
G1 X131.006 Y98.049 E0.04739
G1 X161.610 Y128.619 E1.35629
G1 X162.373 Y129.518 E0.03697
G1 X163.158 Y130.780 E0.04660
G1 X163.558 Y131.655 E0.03016
G1 X163.895 Y132.695 E0.03428
G1 X164.141 Y134.110 E0.04504
G1 X164.188 Y135.055 E0.02967
G1 X164.114 Y136.166 E0.03492
G1 X163.911 Y137.241 E0.03428
G1 X163.629 Y138.145 E0.02968
G1 X163.032 Y139.462 E0.04534
G1 X162.454 Y140.372 E0.03381
G1 X161.843 Y141.127 E0.03047
G1 X160.731 Y142.180 E0.04803
G1 X159.697 Y142.892 E0.03935
G1 X158.899 Y143.320 E0.02840
G1 X157.997 Y143.684 E0.03048
G1 X156.702 Y144.029 E0.04203
G1 X155.330 Y144.179 E0.04328
G1 X153.488 Y144.060 E0.05787
G1 X152.161 Y143.739 E0.04281
G1 X150.898 Y143.219 E0.04282
G1 X150.081 Y142.761 E0.02937
G1 X149.331 Y142.226 E0.02889
G1 X148.397 Y141.388 E0.03933
G1 X118.390 Y111.381 E1.33057
G1 X117.627 Y110.482 E0.03697
G1 X116.956 Y109.440 E0.03886
G1 X116.446 Y108.355 E0.03761
G1 X116.086 Y107.226 E0.03713
G1 X115.862 Y105.931 E0.04123
G1 X115.820 Y104.737 E0.03745
G1 X116.049 Y102.942 E0.05674
G1 X116.429 Y101.688 E0.04107
G1 X116.910 Y100.645 E0.03602
G1 X117.557 Y99.612 E0.03824
G1 X118.260 Y98.762 E0.03456
M204 S1000
; PURGING FINISHED
G1 F8640
G1 X119.182 Y97.888 E-0.29330
G1 X120.236 Y97.145 E-0.29785
G1 X120.882 Y96.802 E-0.16885
G1 E-0.04000 F2100.00000
G1 Z0.800 F10800.000
G1 X123.039 Y103.161
G1 Z0.200
G1 E0.80000 F2100.00000
M204 S20
G1 F1800
G1 X123.286 Y102.929 E0.01063
G1 X123.559 Y102.730 E0.01059
G1 X123.855 Y102.567 E0.01059
G1 X124.169 Y102.443 E0.01059
G1 X124.484 Y102.362 E0.01018
G1 X124.830 Y102.317 E0.01094
G1 X125.169 Y102.317 E0.01063
G1 X125.504 Y102.359 E0.01059
G1 X125.831 Y102.443 E0.01059
G1 X126.145 Y102.567 E0.01059
G1 X126.441 Y102.730 E0.01059
G1 X126.714 Y102.929 E0.01059
G1 X126.960 Y103.160 E0.01059
G1 X127.175 Y103.420 E0.01059
G1 X127.356 Y103.705 E0.01059
G1 X127.500 Y104.010 E0.01059
G1 X127.604 Y104.331 E0.01059
G1 X127.667 Y104.663 E0.01059
G1 X127.688 Y105.000 E0.01059
G1 X127.667 Y105.337 E0.01059
G1 X127.604 Y105.669 E0.01059
G1 X127.500 Y105.990 E0.01059
G1 X127.356 Y106.295 E0.01059
G1 X127.182 Y106.569 E0.01018
G1 X126.961 Y106.839 E0.01094
G1 X126.714 Y107.071 E0.01063
G1 X126.441 Y107.270 E0.01059
G1 X126.145 Y107.433 E0.01059
G1 X125.831 Y107.557 E0.01059
G1 X125.516 Y107.638 E0.01018
G1 X125.170 Y107.683 E0.01094
G1 X124.831 Y107.683 E0.01063
G1 X124.509 Y107.642 E0.01018
G1 X124.171 Y107.557 E0.01094
G1 X123.855 Y107.433 E0.01063
G1 X123.559 Y107.270 E0.01059
G1 X123.286 Y107.071 E0.01059
G1 X123.040 Y106.840 E0.01059
G1 X122.825 Y106.580 E0.01059
G1 X122.644 Y106.295 E0.01059
G1 X122.500 Y105.990 E0.01059
G1 X122.396 Y105.669 E0.01059
G1 X122.333 Y105.337 E0.01059
G1 X122.312 Y105.000 E0.01059
G1 X122.333 Y104.663 E0.01059
G1 X122.396 Y104.331 E0.01059
G1 X122.500 Y104.010 E0.01059
G1 X122.644 Y103.705 E0.01059
G1 X122.818 Y103.431 E0.01018
G1 X123.001 Y103.207 E0.00906
M204 S1000
G1 X123.293 Y103.446 F10800.000
M204 S20
G1 F1800
G1 X123.527 Y103.220 E0.01021
G1 X123.762 Y103.049 E0.00910
G1 X124.016 Y102.909 E0.00910
G1 X124.286 Y102.802 E0.00910
G1 X124.556 Y102.733 E0.00873
G1 X124.854 Y102.694 E0.00945
G1 X125.145 Y102.694 E0.00912
G1 X125.433 Y102.730 E0.00910
G1 X125.714 Y102.802 E0.00910
G1 X125.984 Y102.909 E0.00910
G1 X126.238 Y103.049 E0.00910
G1 X126.473 Y103.220 E0.00910
G1 X126.684 Y103.418 E0.00910
G1 X126.869 Y103.642 E0.00910
G1 X127.025 Y103.887 E0.00910
G1 X127.148 Y104.149 E0.00910
G1 X127.238 Y104.425 E0.00910
G1 X127.292 Y104.710 E0.00910
G1 X127.311 Y105.000 E0.00910
G1 X127.292 Y105.290 E0.00910
G1 X127.238 Y105.575 E0.00910
G1 X127.148 Y105.851 E0.00910
G1 X127.025 Y106.113 E0.00910
G1 X126.876 Y106.348 E0.00873
G1 X126.685 Y106.581 E0.00945
G1 X126.473 Y106.780 E0.00912
G1 X126.238 Y106.951 E0.00910
G1 X125.984 Y107.091 E0.00910
G1 X125.714 Y107.198 E0.00910
G1 X125.444 Y107.267 E0.00873
G1 X125.146 Y107.306 E0.00945
G1 X124.855 Y107.306 E0.00912
G1 X124.579 Y107.271 E0.00873
G1 X124.286 Y107.198 E0.00945
G1 X124.016 Y107.091 E0.00912
G1 X123.762 Y106.951 E0.00910
G1 X123.527 Y106.780 E0.00910
G1 X123.316 Y106.582 E0.00910
G1 X123.131 Y106.358 E0.00910
G1 X122.975 Y106.113 E0.00910
G1 X122.852 Y105.851 E0.00910
G1 X122.762 Y105.575 E0.00910
G1 X122.708 Y105.290 E0.00910
G1 X122.689 Y105.000 E0.00910
G1 X122.708 Y104.710 E0.00910
G1 X122.762 Y104.425 E0.00910
G1 X122.852 Y104.149 E0.00910
G1 X122.975 Y103.887 E0.00910
G1 X123.124 Y103.652 E0.00873
G1 X123.255 Y103.492 E0.00646
M204 S1000
G1 X123.195 Y103.135 F10800.000
G1 F8640
G1 X123.527 Y103.220 E-0.08899
G1 X123.762 Y103.049 E-0.06700
G1 X124.016 Y102.909 E-0.06700
G1 X124.286 Y102.802 E-0.06700
G1 X124.556 Y102.733 E-0.06426
G1 X124.854 Y102.694 E-0.06959
G1 X125.145 Y102.694 E-0.06713
G1 X125.433 Y102.730 E-0.06700
G1 X125.714 Y102.802 E-0.06700
G1 X125.984 Y102.909 E-0.06700
G1 X126.238 Y103.049 E-0.06700
G1 X126.242 Y103.052 E-0.00102
G1 E-0.04000 F2100.00000
G1 Z0.800 F10800.000
G1 X121.853 Y102.053
G1 Z0.200
G1 E0.80000 F2100.00000
M204 S20
G1 F1800
G1 X122.252 Y101.678 E0.01717
G1 X122.690 Y101.360 E0.01697
G1 X123.164 Y101.099 E0.01698
G1 X123.668 Y100.899 E0.01698
G1 X124.192 Y100.765 E0.01698
G1 X124.729 Y100.697 E0.01698
G1 X125.271 Y100.697 E0.01698
G1 X125.802 Y100.764 E0.01679
G1 X126.333 Y100.900 E0.01717
G1 X126.836 Y101.099 E0.01697
G1 X127.310 Y101.360 E0.01698
G1 X127.748 Y101.678 E0.01698
G1 X128.139 Y102.045 E0.01679
G1 X128.488 Y102.466 E0.01717
G1 X128.778 Y102.923 E0.01697
G1 X129.009 Y103.413 E0.01698
G1 X129.176 Y103.928 E0.01698
G1 X129.278 Y104.460 E0.01698
G1 X129.311 Y104.994 E0.01679
G1 X129.277 Y105.541 E0.01717
G1 X129.176 Y106.072 E0.01697
G1 X129.009 Y106.587 E0.01698
G1 X128.778 Y107.077 E0.01698
G1 X128.488 Y107.534 E0.01698
G1 X128.147 Y107.947 E0.01679
G1 X127.748 Y108.322 E0.01717
G1 X127.310 Y108.640 E0.01697
G1 X126.836 Y108.901 E0.01698
G1 X126.332 Y109.101 E0.01698
G1 X125.808 Y109.235 E0.01698
G1 X125.271 Y109.303 E0.01698
G1 X124.729 Y109.303 E0.01698
G1 X124.192 Y109.235 E0.01698
G1 X123.668 Y109.101 E0.01698
G1 X123.164 Y108.901 E0.01698
G1 X122.690 Y108.640 E0.01698
G1 X122.252 Y108.322 E0.01698
G1 X121.857 Y107.951 E0.01698
G1 X121.512 Y107.534 E0.01698
G1 X121.222 Y107.077 E0.01698
G1 X120.991 Y106.587 E0.01698
G1 X120.824 Y106.072 E0.01698
G1 X120.722 Y105.540 E0.01698
G1 X120.689 Y105.006 E0.01679
G1 X120.723 Y104.459 E0.01717
G1 X120.824 Y103.928 E0.01697
G1 X120.991 Y103.413 E0.01698
G1 X121.222 Y102.923 E0.01698
G1 X121.512 Y102.466 E0.01698
G1 X121.815 Y102.099 E0.01491
M204 S1000
G1 X121.524 Y101.859 F10800.000
M204 S20
G1 F1800
G1 X122.011 Y101.387 E0.02126
G1 X122.487 Y101.041 E0.01846
G1 X123.003 Y100.757 E0.01846
G1 X123.551 Y100.540 E0.01846
G1 X124.121 Y100.394 E0.01846
G1 X124.706 Y100.320 E0.01846
G1 X125.294 Y100.320 E0.01846
G1 X125.873 Y100.393 E0.01827
G1 X126.449 Y100.540 E0.01866
G1 X126.997 Y100.757 E0.01846
G1 X127.513 Y101.041 E0.01846
G1 X127.989 Y101.387 E0.01847
G1 X128.414 Y101.786 E0.01827
G1 X128.794 Y102.244 E0.01866
G1 X129.109 Y102.741 E0.01846
G1 X129.360 Y103.274 E0.01846
G1 X129.542 Y103.834 E0.01846
G1 X129.652 Y104.412 E0.01846
G1 X129.689 Y104.994 E0.01827
G1 X129.652 Y105.588 E0.01866
G1 X129.542 Y106.166 E0.01846
G1 X129.360 Y106.726 E0.01846
G1 X129.109 Y107.259 E0.01846
G1 X128.794 Y107.756 E0.01846
G1 X128.422 Y108.205 E0.01827
G1 X127.989 Y108.613 E0.01866
G1 X127.513 Y108.959 E0.01846
G1 X126.997 Y109.243 E0.01846
G1 X126.449 Y109.460 E0.01846
G1 X125.879 Y109.606 E0.01846
G1 X125.294 Y109.680 E0.01846
G1 X124.706 Y109.680 E0.01846
G1 X124.121 Y109.606 E0.01846
G1 X123.551 Y109.460 E0.01846
G1 X123.003 Y109.243 E0.01846
G1 X122.487 Y108.959 E0.01846
G1 X122.011 Y108.613 E0.01846
G1 X121.582 Y108.210 E0.01846
G1 X121.206 Y107.756 E0.01846
G1 X120.891 Y107.259 E0.01846
G1 X120.640 Y106.726 E0.01846
G1 X120.458 Y106.166 E0.01846
G1 X120.348 Y105.588 E0.01846
G1 X120.311 Y105.006 E0.01827
G1 X120.348 Y104.412 E0.01866
G1 X120.458 Y103.834 E0.01846
G1 X120.640 Y103.274 E0.01846
G1 X120.891 Y102.741 E0.01846
G1 X121.206 Y102.244 E0.01846
G1 X121.486 Y101.905 E0.01377
M204 S1000
G1 X121.915 Y101.945 F10800.000
G1 F8640
G1 X122.011 Y101.387 E-0.17034
G1 X122.487 Y101.041 E-0.13595
G1 X123.003 Y100.757 E-0.13598
G1 X123.551 Y100.540 E-0.13598
G1 X124.121 Y100.394 E-0.13598
G1 X124.318 Y100.369 E-0.04578
G1 E-0.04000 F2100.00000
G1 Z0.800 F10800.000
G1 X121.311 Y107.001
G1 Z0.200
G1 E0.80000 F2100.00000
M204 S20
G1 F1800
G1 X122.982 Y108.672 E0.07528
M204 S1000
G1 X123.894 Y109.042 F10800.000
M204 S20
G1 F1800
G1 X121.216 Y106.364 E0.12064
G1 X121.098 Y106.002 E0.01215
G1 X121.028 Y105.635 E0.01191
G1 X124.562 Y109.168 E0.15920
M204 S1000
G1 F8640
G1 X122.234 Y106.840 E-0.76000
G1 E-0.04000 F2100.00000
G1 Z0.800 F10800.000
G1 X129.146 Y105.624
G1 Z0.200
G1 E0.80000 F2100.00000
M204 S20
G1 F1800
G1 X127.901 Y104.379 E0.05612
G1 X127.948 Y104.628 E0.00807
G1 X127.971 Y104.991 E0.01160
G1 X128.915 Y105.934 E0.04250
G1 X128.788 Y106.350 E0.01384
G1 X127.926 Y105.488 E0.03885
G1 X127.878 Y105.739 E0.00814
G1 X127.819 Y105.922 E0.00614
G1 X128.628 Y106.732 E0.03647
G1 X128.530 Y106.941 E0.00735
G1 X128.439 Y107.084 E0.00542
G1 X127.662 Y106.308 E0.03498
G1 X127.464 Y106.652 E0.01264
G1 X128.223 Y107.411 E0.03419
G1 X127.978 Y107.707 E0.01226
G1 X127.229 Y106.958 E0.03375
G1 X126.958 Y107.230 E0.01221
G1 X127.704 Y107.975 E0.03360
G1 X127.407 Y108.220 E0.01226
G1 X126.652 Y107.465 E0.03401
G1 X126.310 Y107.665 E0.01263
G1 X127.086 Y108.441 E0.03498
G1 X126.736 Y108.633 E0.01271
G1 X125.926 Y107.823 E0.03650
G1 X125.488 Y107.927 E0.01435
G1 X126.350 Y108.789 E0.03887
G1 X125.931 Y108.912 E0.01392
G1 X124.985 Y107.966 E0.04261
G1 X124.813 Y107.966 E0.00548
G1 X124.379 Y107.901 E0.01400
G1 X125.470 Y108.993 E0.04918
G1 X125.253 Y109.020 E0.00698
G1 X124.956 Y109.020 E0.00946
G1 X120.974 Y105.039 E0.17941
G1 X120.972 Y105.006 E0.00105
G1 X121.002 Y104.524 E0.01537
G1 X122.099 Y105.622 E0.04945
G1 X122.052 Y105.372 E0.00808
G1 X122.029 Y105.009 E0.01159
G1 X121.085 Y104.066 E0.04251
G1 X121.098 Y103.998 E0.00220
G1 X121.211 Y103.650 E0.01166
G1 X122.074 Y104.512 E0.03885
G1 X122.122 Y104.261 E0.00815
G1 X122.181 Y104.078 E0.00613
G1 X121.372 Y103.268 E0.03647
G1 X121.561 Y102.916 E0.01275
G1 X122.337 Y103.692 E0.03498
G1 X122.535 Y103.348 E0.01264
G1 X121.776 Y102.590 E0.03419
G1 X122.022 Y102.293 E0.01226
G1 X122.771 Y103.042 E0.03375
G1 X123.041 Y102.771 E0.01221
G1 X122.296 Y102.025 E0.03360
G1 X122.592 Y101.780 E0.01226
G1 X123.347 Y102.535 E0.03401
G1 X123.690 Y102.336 E0.01263
G1 X122.914 Y101.559 E0.03498
G1 X123.263 Y101.367 E0.01271
G1 X124.073 Y102.177 E0.03650
G1 X124.512 Y102.073 E0.01435
G1 X123.649 Y101.211 E0.03887
G1 X124.069 Y101.088 E0.01392
G1 X125.014 Y102.034 E0.04261
G1 X125.187 Y102.034 E0.00549
G1 X125.619 Y102.097 E0.01392
G1 X124.529 Y101.007 E0.04909
G1 X124.747 Y100.980 E0.00699
G1 X125.044 Y100.980 E0.00945
G1 X129.026 Y104.962 E0.17943
G1 X128.996 Y104.495 E0.01490
G1 X128.972 Y104.366 E0.00419
G1 X125.634 Y101.028 E0.15041
G1 X126.245 Y101.169 E0.02000
G1 X126.364 Y101.216 E0.00406
G1 X129.048 Y103.901 E0.12096
M204 S1000
G1 X128.689 Y103.000 F10800.000
M204 S20
G1 F1800
G1 X127.017 Y101.328 E0.07534
M204 S1000
G1 F8640
G1 X128.689 Y103.000 E-0.54598
G1 E-0.25402 F2100.00000
G1 Z0.800 F10800.000
G1 X133.559 Y112.730
G1 Z0.200
G1 E0.80000 F2100.00000
M204 S20
G1 F1800
G1 X133.855 Y112.567 E0.01059
G1 X134.169 Y112.443 E0.01059
G1 X134.484 Y112.362 E0.01018
G1 X134.830 Y112.317 E0.01094
G1 X135.169 Y112.317 E0.01063
G1 X135.504 Y112.359 E0.01059
G1 X135.831 Y112.443 E0.01059
G1 X136.145 Y112.567 E0.01059
G1 X136.441 Y112.730 E0.01059
G1 X136.714 Y112.929 E0.01059
G1 X136.960 Y113.160 E0.01059
G1 X137.175 Y113.420 E0.01059
G1 X137.356 Y113.705 E0.01059
G1 X137.500 Y114.010 E0.01059
G1 X137.604 Y114.331 E0.01059
G1 X137.667 Y114.663 E0.01059
G1 X137.688 Y115.000 E0.01059
G1 X137.667 Y115.337 E0.01059
G1 X137.604 Y115.669 E0.01059
G1 X137.500 Y115.990 E0.01059
G1 X137.356 Y116.295 E0.01059
G1 X137.182 Y116.569 E0.01018
G1 X136.961 Y116.839 E0.01094
G1 X136.714 Y117.071 E0.01063
G1 X136.441 Y117.270 E0.01059
G1 X136.145 Y117.433 E0.01059
G1 X135.831 Y117.557 E0.01059
G1 X135.516 Y117.638 E0.01018
G1 X135.170 Y117.683 E0.01094
G1 X134.831 Y117.683 E0.01063
G1 X134.509 Y117.642 E0.01018
G1 X134.171 Y117.557 E0.01094
G1 X133.855 Y117.433 E0.01063
G1 X133.559 Y117.270 E0.01059
G1 X133.286 Y117.071 E0.01059
G1 X133.040 Y116.840 E0.01059
G1 X132.825 Y116.580 E0.01059
G1 X132.644 Y116.295 E0.01059
G1 X132.500 Y115.990 E0.01059
G1 X132.396 Y115.669 E0.01059
G1 X132.333 Y115.337 E0.01059
G1 X132.312 Y115.000 E0.01059
G1 X132.333 Y114.663 E0.01059
G1 X132.396 Y114.331 E0.01059
G1 X132.500 Y114.010 E0.01059
