; generated by Slic3r Prusa Edition 1.41.0 on 2018-10-27 at 15:21:47

; 

; external perimeters extrusion width = 0.45mm
; perimeters extrusion width = 0.45mm
; infill extrusion width = 0.45mm
; solid infill extrusion width = 0.45mm
; top infill extrusion width = 0.40mm
; support material extrusion width = 0.35mm
; first layer extrusion width = 0.42mm

M201 X1000 Y1000 Z1000 E5000 ; sets maximum accelerations, mm/sec^2
M203 X200 Y200 Z12 E120 ; sets maximum feedrates, mm/sec
M204 P1250 R1250 T1250 ; sets acceleration (P, T) and retract acceleration (R), mm/sec^2
M205 X8.00 Y8.00 Z0.40 E1.50 ; sets the jerk limits, mm/sec
M205 S0 T0 ; sets the minimum extruding and travel feed rate, mm/sec
M107
M115 U3.4.0 ; tell printer latest fw version
M83  ; extruder relative mode
M104 S140 ; set extruder to warm-up temp
M140 S80 ; set bed temp
M190 S80 ; wait for bed temp
G28 W ; home all without mesh bed level
G80 ; mesh bed leveling
M104 S245 ; set extruder temp
M109 S245 ; wait for extruder temp
G1 Y-3.0 F1000.0 ; go outside print area
G92 E0.0
G1 X60.0 E9.0  F1000.0 ; intro line
M73 Q0 S45
M73 P0 R45
G1 X100.0 E12.5  F1000.0 ; intro line
G92 E0.0
M221 S95
M900 K45; Filament gcode
G21 ; set units to millimeters
G90 ; use absolute coordinates
M83 ; use relative distances for extrusion
;BEFORE_LAYER_CHANGE
G92 E0.0
;0.2


G1 E-0.80000 F2100.00000
G1 Z0.600 F10800.000
;AFTER_LAYER_CHANGE
;0.2
G1 X98.256 Y81.039
G1 Z0.200
G1 E0.80000 F2100.00000
M204 S20
G1 F1800
G1 X103.355 Y75.960 E0.22568
G1 X104.211 Y75.401 E0.03204
G1 X108.902 Y73.056 E0.16444
G1 X109.729 Y72.753 E0.02760
G1 X110.856 Y72.606 E0.03566
G1 X139.883 Y72.606 E0.91012
G1 X140.801 Y72.701 E0.02892
G1 X141.685 Y72.979 E0.02908
G1 X147.036 Y75.687 E0.18802
G1 X147.708 Y76.239 E0.02727
G1 X152.364 Y80.984 E0.20845
G1 X153.018 Y81.889 E0.03500
G1 X155.490 Y86.652 E0.16827
G1 X157.927 Y92.039 E0.18537
G1 X158.111 Y93.294 E0.03976
G1 X158.095 Y118.263 E0.78289
G1 X157.964 Y119.027 E0.02430
G1 X157.704 Y119.762 E0.02447
G1 X155.154 Y124.743 E0.17543
G1 X154.636 Y125.421 E0.02677
G1 X150.038 Y130.282 E0.20979
G1 X147.301 Y132.843 E0.11752
G1 X143.749 Y135.512 E0.13931
G1 X138.895 Y137.990 E0.17089
G1 X137.668 Y138.367 E0.04025
G1 X136.958 Y138.423 E0.02232
G1 X112.907 Y138.374 E0.75411
G1 X112.228 Y138.220 E0.02183
G1 X111.576 Y137.962 E0.02199
G1 X102.107 Y133.116 E0.33352
G1 X101.393 Y132.566 E0.02826
G1 X99.055 Y130.355 E0.10088
G1 X98.539 Y129.749 E0.02496
G1 X93.790 Y122.309 E0.27675
G1 X93.409 Y121.469 E0.02892
G1 X93.206 Y120.569 E0.02892
G1 X93.186 Y90.481 E0.94340
G1 X93.316 Y89.706 E0.02463
G1 X93.577 Y88.965 E0.02463
G1 X96.126 Y83.985 E0.17543
G1 X98.220 Y81.088 E0.11208
M204 S1000
G1 X98.525 Y81.308 F10800.000
M204 S20
G1 F1800
G1 X103.593 Y76.252 E0.22447
G1 X104.383 Y75.736 E0.02958
G1 X109.063 Y73.397 E0.16405
G1 X109.832 Y73.116 E0.02564
G1 X110.857 Y72.984 E0.03242
G1 X139.883 Y72.984 E0.91010
G1 X140.737 Y73.072 E0.02690
G1 X141.549 Y73.331 E0.02675
G1 X146.841 Y76.011 E0.18597
G1 X147.449 Y76.512 E0.02469
G1 X152.097 Y81.251 E0.20814
G1 X152.692 Y82.078 E0.03194
G1 X155.157 Y86.828 E0.16781
G1 X157.569 Y92.156 E0.18337
G1 X157.734 Y93.299 E0.03619
G1 X157.719 Y118.231 E0.78174
G1 X157.597 Y118.938 E0.02248
G1 X157.355 Y119.618 E0.02264
G1 X154.828 Y124.552 E0.17380
G1 X154.355 Y125.169 E0.02438
G1 X149.762 Y130.025 E0.20957
G1 X147.067 Y132.547 E0.11573
G1 X143.571 Y135.179 E0.13723
G1 X138.743 Y137.645 E0.16998
G1 X137.601 Y137.996 E0.03744
G1 X136.954 Y138.046 E0.02037
G1 X112.965 Y138.002 E0.75215
G1 X111.734 Y137.620 E0.04042
G1 X102.297 Y132.790 E0.33238
G1 X101.710 Y132.345 E0.02312
G1 X99.386 Y130.151 E0.10020
G1 X98.846 Y129.530 E0.02580
G1 X94.122 Y122.130 E0.27526
G1 X93.769 Y121.354 E0.02675
G1 X93.579 Y120.517 E0.02690
G1 X93.562 Y90.517 E0.94065
G1 X93.682 Y89.799 E0.02280
G1 X93.926 Y89.109 E0.02296
G1 X96.454 Y84.171 E0.17396
G1 X98.489 Y81.356 E0.10889
M204 S1000
; PURGING FINISHED
G1 F8640
G1 X100.817 Y79.029 E-0.76000
G1 E-0.04000 F2100.00000
G1 Z0.800 F10800.000
G1 X97.738 Y90.845
G1 Z0.200
G1 E0.80000 F2100.00000
M204 S20
G1 F1800
G1 X97.738 Y120.015 E0.91462
G1 X98.492 Y120.015 E0.02365
G1 X98.492 Y91.015 E0.90929
G1 X99.246 Y91.015 E0.02365
G1 X99.246 Y120.015 E0.90929
G1 X99.342 Y120.015 E0.00302
G1 X99.342 Y122.322 E0.07234
G1 X100.000 Y122.322 E0.02063
G1 X100.000 Y86.400 E1.12631
G1 X100.754 Y86.400 E0.02365
G1 X100.754 Y122.322 E1.12631
G1 X101.508 Y122.322 E0.02365
G1 X101.508 Y86.400 E1.12631
G1 X101.649 Y86.400 E0.00442
G1 X101.649 Y84.093 E0.07234
G1 X102.262 Y84.093 E0.01923
G1 X102.262 Y127.106 E1.34864
M204 S1000
G1 F8640
G1 X102.262 Y123.815 E-0.76000
G1 E-0.04000 F2100.00000
G1 Z0.800 F10800.000
G1 X110.558 Y119.891
G1 Z0.200
G1 E0.80000 F2100.00000
M204 S20
G1 F1800
G1 X110.558 Y118.689 E0.03768
M204 S1000
G1 F8640
G1 X110.558 Y119.891 E-0.27748
G1 E-0.52252 F2100.00000
G1 Z0.800 F10800.000
G1 X109.050 Y116.311
G1 Z0.200
G1 E0.80000 F2100.00000
M204 S20
G1 F1800
G1 X109.050 Y115.711 E0.01883
M204 S1000
G1 F8640
G1 X109.050 Y116.311 E-0.13868
G1 E-0.66132 F2100.00000
G1 Z0.800 F10800.000
G1 X106.033 Y111.311
G1 Z0.200
G1 E0.80000 F2100.00000
M204 S20
G1 F1800
G1 X106.033 Y109.206 E0.06601
G1 X105.980 Y109.043 E0.00537
G1 X105.961 Y108.859 E0.00581
G1 X105.279 Y108.859 E0.02138
G1 X105.279 Y111.279 E0.07591
M204 S1000
G1 F8640
G1 X105.279 Y108.859 E-0.55899
G1 X105.961 Y108.859 E-0.15744
G1 X105.980 Y109.043 E-0.04277
G1 X105.981 Y109.046 E-0.00080
G1 E-0.04000 F2100.00000
G1 Z0.800 F10800.000
G1 X105.279 Y106.311
G1 Z0.200
G1 E0.80000 F2100.00000
M204 S20
G1 F1800
G1 X105.279 Y103.859 E0.07690
G1 X104.525 Y103.859 E0.02365
G1 X104.525 Y106.311 E0.07690
M204 S1000
G1 F8640
G1 X104.525 Y103.859 E-0.56631
G1 X105.279 Y103.859 E-0.17414
G1 X105.279 Y103.943 E-0.01955
G1 E-0.04000 F2100.00000
G1 Z0.800 F10800.000
G1 X105.279 Y101.311
G1 Z0.200
G1 E0.80000 F2100.00000
M204 S20
G1 F1800
G1 X105.279 Y99.270 E0.06401
G1 X105.413 Y98.859 E0.01355
G1 X106.033 Y98.859 E0.01946
G1 X106.033 Y101.311 E0.07690
M204 S1000
G1 F8640
G1 X106.033 Y98.859 E-0.56631
G1 X105.413 Y98.859 E-0.14329
G1 X105.345 Y99.066 E-0.05039
G1 E-0.04000 F2100.00000
G1 Z0.800 F10800.000
G1 X109.050 Y94.289
G1 Z0.200
G1 E0.80000 F2100.00000
M204 S20
G1 F1800
G1 X109.050 Y93.689 E0.01883
M204 S1000
G1 F8640
G1 X109.050 Y94.289 E-0.13868
G1 E-0.66132 F2100.00000
G1 Z0.800 F10800.000
G1 X110.558 Y91.311
G1 Z0.200
G1 E0.80000 F2100.00000
M204 S20
G1 F1800
G1 X110.558 Y90.109 E0.03768
M204 S1000
G1 F8640
G1 X110.558 Y91.311 E-0.27748
G1 E-0.52252 F2100.00000
G1 Z0.800 F10800.000
G1 X119.608 Y84.988
G1 Z0.200
G1 E0.80000 F2100.00000
M204 S20
G1 F1800
G1 X119.608 Y86.141 E0.03618
G1 X120.362 Y86.141 E0.02365
G1 X120.362 Y85.001 E0.03577
G1 X121.116 Y84.840 E0.02417
G1 X121.116 Y86.229 E0.04353
M204 S1000
G1 F8640
G1 X121.116 Y84.840 E-0.32057
G1 X120.362 Y85.001 E-0.17803
G1 X120.362 Y86.133 E-0.26140
G1 E-0.04000 F2100.00000
G1 Z0.800 F10800.000
G1 X124.133 Y84.304
G1 Z0.200
G1 E0.80000 F2100.00000
M204 S20
G1 F1800
G1 X124.133 Y85.662 E0.04258
G1 X124.887 Y85.662 E0.02365
G1 X124.887 Y84.474 E0.03726
G1 X125.641 Y84.474 E0.02365
G1 X125.641 Y85.832 E0.04258
M204 S1000
G1 F8640
G1 X125.641 Y84.474 E-0.31357
G1 X124.887 Y84.474 E-0.17414
G1 X124.887 Y85.653 E-0.27229
G1 E-0.04000 F2100.00000
G1 Z0.800 F10800.000
G1 X129.412 Y84.779
G1 Z0.200
G1 E0.80000 F2100.00000
M204 S20
G1 F1800
G1 X129.412 Y86.141 E0.04271
G1 X130.166 Y86.141 E0.02365
G1 X130.166 Y85.113 E0.03224
G1 X130.921 Y85.273 E0.02417
G1 X130.921 Y86.311 E0.03254
M204 S1000
G1 F8640
G1 X130.921 Y85.273 E-0.23961
G1 X130.166 Y85.113 E-0.17803
G1 X130.166 Y86.141 E-0.23744
G1 X129.712 Y86.141 E-0.10492
G1 E-0.04000 F2100.00000
G1 Z0.800 F10800.000
G1 X139.216 Y91.311
G1 Z0.200
G1 E0.80000 F2100.00000
M204 S20
G1 F1800
G1 X139.216 Y90.113 E0.03758
G1 X139.970 Y90.950 E0.03534
G1 X139.970 Y91.311 E0.01132
M204 S1000
G1 F8640
G1 X139.970 Y90.950 E-0.08336
G1 X139.216 Y90.113 E-0.26024
G1 X139.216 Y91.311 E-0.27675
G1 E-0.17965 F2100.00000
G1 Z0.800 F10800.000
G1 X144.495 Y98.689
G1 Z0.200
G1 E0.80000 F2100.00000
M204 S20
G1 F1800
G1 X144.495 Y101.311 E0.08222
M204 S1000
G1 F8640
G1 X144.495 Y98.689 E-0.60549
G1 E-0.19451 F2100.00000
G1 Z0.800 F10800.000
G1 X144.495 Y106.311
G1 Z0.200
G1 E0.80000 F2100.00000
M204 S20
G1 F1800
G1 X144.495 Y103.859 E0.07690
G1 X145.250 Y103.859 E0.02365
G1 X145.250 Y106.311 E0.07690
M204 S1000
G1 F8640
G1 X145.250 Y103.859 E-0.56631
G1 X144.495 Y103.859 E-0.17414
G1 X144.495 Y103.943 E-0.01955
G1 E-0.04000 F2100.00000
G1 Z0.800 F10800.000
G1 X144.495 Y108.689
G1 Z0.200
G1 E0.80000 F2100.00000
M204 S20
G1 F1800
G1 X144.495 Y111.311 E0.08222
M204 S1000
G1 F8640
G1 X144.495 Y108.689 E-0.60549
G1 E-0.19451 F2100.00000
G1 Z0.800 F10800.000
G1 X139.970 Y119.303
G1 Z0.200
G1 E0.80000 F2100.00000
M204 S20
G1 F1800
G1 X139.970 Y118.859 E0.01395
G1 X139.216 Y118.859 E0.02365
G1 X139.216 Y120.141 E0.04021
M204 S1000
G1 F8640
G1 X139.216 Y118.859 E-0.29612
G1 X139.970 Y118.859 E-0.17414
G1 X139.970 Y119.303 E-0.10273
G1 E-0.22701 F2100.00000
G1 Z0.800 F10800.000
G1 X130.921 Y124.900
G1 Z0.200
G1 E0.80000 F2100.00000
M204 S20
G1 F1800
G1 X130.921 Y123.859 E0.03266
G1 X130.166 Y123.859 E0.02365
G1 X130.166 Y124.887 E0.03224
G1 X129.412 Y125.047 E0.02417
G1 X129.412 Y123.689 E0.04259
M204 S1000
G1 F8640
G1 X129.412 Y125.047 E-0.31364
G1 X130.166 Y124.887 E-0.17803
G1 X130.166 Y123.859 E-0.23744
G1 X130.300 Y123.859 E-0.03089
G1 E-0.04000 F2100.00000
G1 Z0.800 F10800.000
G1 X125.641 Y125.696
G1 Z0.200
G1 E0.80000 F2100.00000
M204 S20
G1 F1800
G1 X125.641 Y124.338 E0.04258
G1 X124.887 Y124.338 E0.02365
G1 X124.887 Y125.526 E0.03726
G1 X124.133 Y125.526 E0.02365
G1 X124.133 Y124.168 E0.04258
M204 S1000
G1 F8640
G1 X124.133 Y125.526 E-0.31357
G1 X124.887 Y125.526 E-0.17414
G1 X124.887 Y124.347 E-0.27229
G1 E-0.04000 F2100.00000
G1 Z0.800 F10800.000
G1 X121.116 Y125.333
G1 Z0.200
G1 E0.80000 F2100.00000
M204 S20
G1 F1800
G1 X121.116 Y123.945 E0.04353
G1 X120.711 Y123.859 E0.01299
G1 X120.362 Y123.859 E0.01094
G1 X120.362 Y124.999 E0.03577
G1 X119.608 Y124.839 E0.02417
G1 X119.608 Y123.689 E0.03606
M204 S1000
G1 F8640
G1 X119.608 Y124.839 E-0.26556
G1 X120.362 Y124.999 E-0.17803
G1 X120.362 Y123.859 E-0.26339
G1 X120.592 Y123.859 E-0.05303
G1 E-0.04000 F2100.00000
G1 Z0.800 F10800.000
G1 X146.758 Y127.106
G1 Z0.200
G1 E0.80000 F2100.00000
M204 S20
G1 F1800
G1 X146.758 Y110.000 E0.53636
G1 X146.004 Y112.321 E0.07652
G1 X146.004 Y126.936 E0.45826
G1 X145.250 Y126.936 E0.02365
G1 X145.250 Y114.403 E0.39298
M73 Q2 S44
G1 X144.495 Y115.709 E0.04729
M73 P2 R44
G1 X144.492 Y129.243 E0.42436
G1 X143.741 Y129.243 E0.02355
G1 X143.741 Y117.015 E0.38340
G1 X143.102 Y118.122 E0.04008
G1 X142.987 Y118.258 E0.00557
G1 X142.987 Y129.243 E0.34445
G1 X142.233 Y129.243 E0.02365
G1 X142.233 Y119.095 E0.31819
G1 X141.479 Y119.933 E0.03534
G1 X141.479 Y131.551 E0.36427
G1 X140.725 Y131.551 E0.02365
G1 X140.725 Y120.770 E0.33801
G1 X139.970 Y121.606 E0.03530
G1 X139.970 Y131.551 E0.31180
G1 X139.216 Y131.551 E0.02365
G1 X139.216 Y122.159 E0.29447
G1 X138.462 Y122.707 E0.02923
G1 X138.462 Y131.551 E0.27729
G1 X137.708 Y131.551 E0.02365
G1 X137.708 Y123.255 E0.26011
G1 X136.954 Y123.803 E0.02923
G1 X136.954 Y133.858 E0.31526
G1 X136.200 Y133.858 E0.02365
G1 X136.200 Y124.351 E0.29808
G1 X135.445 Y124.692 E0.02595
G1 X135.445 Y133.858 E0.28738
G1 X134.691 Y133.858 E0.02365
G1 X134.691 Y125.028 E0.27686
G1 X133.937 Y125.363 E0.02588
G1 X133.937 Y133.858 E0.26633
G1 X133.183 Y133.858 E0.02365
G1 X133.183 Y125.699 E0.25580
G1 X132.429 Y126.035 E0.02588
G1 X132.429 Y133.858 E0.24527
G1 X131.675 Y133.858 E0.02365
G1 X131.675 Y126.316 E0.23646
G1 X130.921 Y126.476 E0.02417
G1 X130.921 Y133.858 E0.23144
G1 X130.166 Y133.858 E0.02365
G1 X130.166 Y126.637 E0.22641
G1 X129.412 Y126.797 E0.02417
G1 X129.412 Y133.858 E0.22138
G1 X128.658 Y133.858 E0.02365
G1 X128.658 Y126.957 E0.21636
G1 X127.904 Y127.118 E0.02417
G1 X127.904 Y133.858 E0.21133
G1 X127.150 Y133.858 E0.02365
G1 X127.150 Y127.238 E0.20755
G1 X126.396 Y127.238 E0.02365
G1 X126.396 Y133.858 E0.20755
G1 X125.641 Y133.858 E0.02365
G1 X125.641 Y127.238 E0.20755
G1 X124.887 Y127.238 E0.02365
G1 X124.887 Y133.858 E0.20755
G1 X124.133 Y133.858 E0.02365
G1 X124.133 Y127.238 E0.20755
G1 X123.379 Y127.238 E0.02365
G1 X123.379 Y133.858 E0.20755
G1 X122.625 Y133.858 E0.02365
G1 X122.625 Y127.230 E0.20781
G1 X121.871 Y127.070 E0.02417
G1 X121.871 Y133.858 E0.21283
G1 X121.116 Y133.858 E0.02365
G1 X121.116 Y126.909 E0.21786
G1 X120.362 Y126.749 E0.02417
G1 X120.362 Y133.858 E0.22289
G1 X119.608 Y133.858 E0.02365
G1 X119.608 Y126.589 E0.22791
G1 X118.854 Y126.428 E0.02417
G1 X118.854 Y133.858 E0.23294
G1 X118.100 Y133.858 E0.02365
G1 X118.100 Y126.267 E0.23801
G1 X117.346 Y125.935 E0.02584
G1 X117.346 Y133.858 E0.24842
G1 X116.591 Y133.858 E0.02365
G1 X116.591 Y125.599 E0.25895
G1 X115.837 Y125.263 E0.02588
G1 X115.837 Y133.858 E0.26948
G1 X115.083 Y133.858 E0.02365
G1 X115.083 Y124.927 E0.28000
G1 X114.329 Y124.592 E0.02588
G1 X114.329 Y133.858 E0.29053
G1 X113.575 Y133.858 E0.02365
G1 X113.575 Y124.187 E0.30322
G1 X112.821 Y123.639 E0.02923
G1 X112.821 Y131.551 E0.24806
G1 X112.067 Y131.551 E0.02365
G1 X112.067 Y123.091 E0.26524
G1 X111.312 Y122.543 E0.02923
G1 X111.312 Y131.551 E0.28242
G1 X110.558 Y131.551 E0.02365
G1 X110.558 Y121.995 E0.29960
G1 X110.057 Y121.631 E0.01941
G1 X109.804 Y121.357 E0.01170
G1 X109.804 Y131.551 E0.31960
G1 X109.050 Y131.551 E0.02365
G1 X109.050 Y120.520 E0.34586
G1 X108.296 Y119.682 E0.03534
G1 X108.296 Y129.243 E0.29978
G1 X107.542 Y129.243 E0.02365
G1 X107.542 Y118.845 E0.32605
G1 X106.926 Y118.161 E0.02884
G1 X106.787 Y117.931 E0.00843
G1 X106.787 Y129.243 E0.35469
G1 X106.033 Y129.243 E0.02365
G1 X106.033 Y116.625 E0.39565
G1 X105.279 Y115.318 E0.04729
G1 X105.279 Y129.243 E0.43661
G1 X104.525 Y129.243 E0.02365
G1 X104.525 Y113.948 E0.47958
G1 X103.771 Y111.627 E0.07652
G1 X103.771 Y126.936 E0.48002
G1 X103.017 Y126.936 E0.02365
G1 X103.017 Y108.588 E0.57530
G1 X102.642 Y105.024 E0.11236
G1 X103.017 Y101.412 E0.11386
G1 X103.017 Y84.093 E0.54302
G1 X103.771 Y84.093 E0.02365
G1 X103.771 Y98.373 E0.44773
G1 X104.525 Y96.052 E0.07652
G1 X104.525 Y81.786 E0.44729
G1 X105.279 Y81.786 E0.02365
G1 X105.279 Y94.682 E0.40432
G1 X106.033 Y93.375 E0.04729
G1 X106.033 Y81.786 E0.36337
G1 X106.263 Y81.786 E0.00721
G1 X106.263 Y79.479 E0.07234
G1 X106.787 Y79.479 E0.01643
G1 X106.787 Y92.069 E0.39475
G1 X106.926 Y91.839 E0.00842
G1 X107.542 Y91.155 E0.02884
G1 X107.542 Y79.479 E0.36610
G1 X108.296 Y79.479 E0.02365
G1 X108.296 Y90.318 E0.33984
G1 X109.050 Y89.480 E0.03534
G1 X109.050 Y79.479 E0.31357
G1 X109.804 Y79.479 E0.02365
G1 X109.804 Y88.643 E0.28731
G1 X110.057 Y88.369 E0.01170
G1 X110.558 Y88.005 E0.01941
G1 X110.558 Y79.479 E0.26732
G1 X110.878 Y79.479 E0.01001
G1 X110.878 Y77.172 E0.07234
G1 X111.312 Y77.172 E0.01363
G1 X111.312 Y87.457 E0.32247
G1 X112.067 Y86.909 E0.02923
G1 X112.067 Y77.172 E0.30529
M73 Q4 S43
M73 P4 R43
G1 X112.821 Y77.172 E0.02365
G1 X112.821 Y86.361 E0.28811
G1 X113.575 Y85.813 E0.02923
G1 X113.575 Y77.172 E0.27093
G1 X114.329 Y77.172 E0.02365
G1 X114.329 Y85.408 E0.25825
G1 X115.083 Y85.073 E0.02588
G1 X115.083 Y77.172 E0.24772
G1 X115.837 Y77.172 E0.02365
G1 X115.837 Y84.737 E0.23719
G1 X116.591 Y84.401 E0.02588
G1 X116.591 Y77.172 E0.22666
G1 X117.346 Y77.172 E0.02365
G1 X117.346 Y84.065 E0.21614
G1 X118.100 Y83.733 E0.02584
G1 X118.100 Y77.172 E0.20573
G1 X118.854 Y77.172 E0.02365
G1 X118.854 Y83.572 E0.20065
G1 X119.608 Y83.411 E0.02417
G1 X119.608 Y77.172 E0.19563
G1 X120.362 Y77.172 E0.02365
G1 X120.362 Y83.251 E0.19060
G1 X121.116 Y83.091 E0.02417
G1 X121.116 Y77.172 E0.18557
G1 X121.871 Y77.172 E0.02365
G1 X121.871 Y82.930 E0.18055
G1 X122.625 Y82.770 E0.02417
G1 X122.625 Y77.172 E0.17552
G1 X123.379 Y77.172 E0.02365
G1 X123.379 Y82.762 E0.17527
G1 X124.133 Y82.762 E0.02365
G1 X124.133 Y77.172 E0.17527
G1 X124.887 Y77.172 E0.02365
G1 X124.887 Y82.762 E0.17527
G1 X125.641 Y82.762 E0.02365
