; generated by Slic3r Prusa Edition 1.41.0 on 2018-10-26 at 21:24:57

; 

; external perimeters extrusion width = 0.45mm
; perimeters extrusion width = 0.45mm
; infill extrusion width = 0.45mm
; solid infill extrusion width = 0.45mm
; top infill extrusion width = 0.40mm
; first layer extrusion width = 0.42mm

M201 X1000 Y1000 Z1000 E5000 ; sets maximum accelerations, mm/sec^2
M203 X200 Y200 Z12 E120 ; sets maximum feedrates, mm/sec
M204 P1250 R1250 T1250 ; sets acceleration (P, T) and retract acceleration (R), mm/sec^2
M205 X8.00 Y8.00 Z0.40 E1.50 ; sets the jerk limits, mm/sec
M205 S0 T0 ; sets the minimum extruding and travel feed rate, mm/sec
M107
M115 U3.4.0 ; tell printer latest fw version
M83  ; extruder relative mode
M104 S140 ; set extruder to warm-up temp
M140 S80 ; set bed temp
M190 S80 ; wait for bed temp
G28 W ; home all without mesh bed level
G80 ; mesh bed leveling
M104 S245 ; set extruder temp
M109 S245 ; wait for extruder temp
G1 Y-3.0 F1000.0 ; go outside print area
G92 E0.0
G1 X60.0 E9.0  F1000.0 ; intro line
M73 Q0 S47
M73 P0 R46
G1 X100.0 E12.5  F1000.0 ; intro line
G92 E0.0
M221 S95
M900 K45; Filament gcode
G21 ; set units to millimeters
G90 ; use absolute coordinates
M83 ; use relative distances for extrusion
;BEFORE_LAYER_CHANGE
G92 E0.0
;0.3


G1 E-0.80000 F2100.00000
G1 Z0.600 F10800.000
;AFTER_LAYER_CHANGE
;0.3
G1 X104.143 Y89.842
G1 Z0.300
G1 E0.80000 F2100.00000
M204 S20
G1 F1800
G1 X107.743 Y85.844 E0.23862
G1 X112.103 Y82.674 E0.23908
G1 X116.996 Y80.490 E0.23769
G1 X122.267 Y79.362 E0.23908
G1 X127.226 Y79.333 E0.21998
G1 X128.084 Y79.416 E0.03821
G1 X132.509 Y80.356 E0.20066
G1 X133.411 Y80.649 E0.04203
G1 X137.963 Y82.713 E0.22172
G1 X141.934 Y85.578 E0.21721
G1 X142.583 Y86.169 E0.03890
G1 X145.883 Y89.878 E0.22022
G1 X148.585 Y94.584 E0.24070
G1 X150.230 Y99.690 E0.23792
G1 X150.764 Y104.579 E0.21813
G1 X150.763 Y105.429 E0.03774
G1 X150.212 Y110.395 E0.22162
G1 X148.540 Y115.519 E0.23908
G1 X145.857 Y120.158 E0.23769
G1 X142.230 Y124.181 E0.24024
G1 X137.888 Y127.331 E0.23792
G1 X132.969 Y129.521 E0.23885
G1 X127.702 Y130.641 E0.23885
G1 X122.348 Y130.647 E0.23746
G1 X117.039 Y129.523 E0.24071
G1 X112.141 Y127.348 E0.23769
G1 X107.772 Y124.183 E0.23931
G1 X104.415 Y120.496 E0.22115
G1 X103.921 Y119.823 E0.03704
G1 X101.659 Y115.905 E0.20066
G1 X101.276 Y115.044 E0.04180
G1 X99.765 Y110.285 E0.22149
G1 X99.236 Y105.416 E0.21720
G1 X99.237 Y104.571 E0.03751
G1 X99.788 Y99.605 E0.22162
G1 X101.460 Y94.481 E0.23908
G1 X104.113 Y89.894 E0.23502
M204 S1000
G1 X104.419 Y90.071 F10800.000
M204 S20
G1 F1800
G1 X107.983 Y86.106 E0.23647
G1 X112.283 Y82.981 E0.23578
G1 X117.111 Y80.827 E0.23445
G1 X122.309 Y79.715 E0.23578
G1 X127.226 Y79.689 E0.21812
G1 X128.034 Y79.768 E0.03600
G1 X132.787 Y80.795 E0.21568
G1 X137.324 Y82.780 E0.21967
G1 X138.154 Y83.270 E0.04271
G1 X141.736 Y85.873 E0.19641
G1 X142.324 Y86.413 E0.03540
G1 X145.590 Y90.080 E0.21784
G1 X148.256 Y94.719 E0.23734
G1 X149.881 Y99.755 E0.23467
G1 X150.409 Y104.609 E0.21657
G1 X150.409 Y105.395 E0.03489
G1 X149.866 Y110.313 E0.21947
G1 X148.216 Y115.372 E0.23601
G1 X145.567 Y119.952 E0.23467
G1 X141.994 Y123.915 E0.23667
G1 X137.712 Y127.022 E0.23467
G1 X132.861 Y129.182 E0.23556
G1 X127.661 Y130.288 E0.23578
G1 X122.380 Y130.292 E0.23423
G1 X117.150 Y129.186 E0.23712
G1 X112.315 Y127.038 E0.23467
G1 X108.007 Y123.915 E0.23601
G1 X104.683 Y120.263 E0.21902
G1 X104.224 Y119.637 E0.03444
G1 X101.967 Y115.728 E0.20024
G1 X101.614 Y114.934 E0.03852
G1 X100.114 Y110.221 E0.21939
G1 X99.590 Y105.386 E0.21567
G1 X99.591 Y104.600 E0.03489
G1 X100.134 Y99.687 E0.21924
G1 X101.782 Y94.633 E0.23578
G1 X104.389 Y90.123 E0.23108
M204 S1000
; PURGING FINISHED
G1 F8640
G1 X106.584 Y87.670 E-0.76000
G1 E-0.04000 F2100.00000
G1 Z0.900 F10800.000
G1 X126.190 Y124.190
G1 Z0.300
G1 E0.80000 F2100.00000
M204 S20
G1 F1800
G1 X129.810 Y124.190 E0.16056
G1 X129.810 Y124.884 E0.03076
G1 X127.149 Y125.449 E0.12065
G1 X126.190 Y125.449 E0.04255
G1 X126.190 Y124.250 E0.05319
M204 S1000
G1 X126.104 Y123.799 F10800.000
G1 F8640
G1 X129.481 Y124.195 E-0.76000
G1 E-0.04000 F2100.00000
G1 Z0.900 F10800.000
G1 X123.810 Y124.250
G1 Z0.300
G1 E0.80000 F2100.00000
M204 S20
G1 F1800
G1 X123.810 Y125.449 E0.05319
G1 X122.851 Y125.449 E0.04255
G1 X120.190 Y124.884 E0.12065
G1 X120.190 Y124.190 E0.03076
G1 X123.810 Y124.190 E0.16056
M204 S1000
G1 X124.209 Y124.227 F10800.000
G1 F8640
G1 X123.810 Y125.449 E-0.29073
G1 X122.851 Y125.449 E-0.22150
G1 X121.801 Y125.226 E-0.24777
G1 E-0.04000 F2100.00000
G1 Z0.900 F10800.000
G1 X117.810 Y121.810
G1 Z0.300
G1 E0.80000 F2100.00000
M204 S20
G1 F1800
G1 X114.190 Y121.810 E0.16056
G1 X114.190 Y118.190 E0.16056
G1 X117.810 Y118.190 E0.16056
G1 X117.810 Y121.750 E0.15790
M204 S1000
G1 X117.914 Y122.196 F10800.000
G1 F8640
G1 X114.519 Y121.805 E-0.76000
G1 E-0.04000 F2100.00000
G1 Z0.900 F10800.000
G1 X111.810 Y120.912
G1 Z0.300
G1 E0.80000 F2100.00000
M204 S20
G1 F1800
G1 X109.359 Y118.190 E0.16244
G1 X111.810 Y118.190 E0.10869
G1 X111.810 Y120.852 E0.11806
M204 S1000
G1 X111.686 Y121.292 F10800.000
G1 F8640
G1 X109.581 Y118.430 E-0.76000
G1 E-0.04000 F2100.00000
G1 Z0.900 F10800.000
G1 X111.810 Y115.810
G1 Z0.300
G1 E0.80000 F2100.00000
M204 S20
G1 F1800
G1 X108.190 Y115.810 E0.16056
G1 X108.190 Y112.190 E0.16056
G1 X111.810 Y112.190 E0.16056
G1 X111.810 Y115.750 E0.15790
M204 S1000
G1 X111.914 Y116.196 F10800.000
G1 F8640
G1 X108.519 Y115.805 E-0.76000
G1 E-0.04000 F2100.00000
G1 Z0.900 F10800.000
G1 X105.810 Y109.810
G1 Z0.300
G1 E0.80000 F2100.00000
M204 S20
G1 F1800
G1 X105.062 Y109.810 E0.03320
G1 X104.888 Y109.275 E0.02495
G1 X104.563 Y106.190 E0.13759
G1 X105.810 Y106.190 E0.05529
G1 X105.810 Y109.750 E0.15790
M204 S1000
G1 X105.854 Y110.208 F10800.000
G1 F8640
G1 X105.062 Y109.810 E-0.17338
G1 X104.888 Y109.275 E-0.12989
G1 X104.681 Y107.308 E-0.45673
G1 E-0.04000 F2100.00000
G1 Z0.900 F10800.000
G1 X105.810 Y103.810
G1 Z0.300
G1 E0.80000 F2100.00000
M204 S20
G1 F1800
G1 X104.563 Y103.810 E0.05529
G1 X104.888 Y100.725 E0.13759
G1 X105.062 Y100.190 E0.02495
G1 X105.810 Y100.190 E0.03320
G1 X105.810 Y103.750 E0.15790
M204 S1000
G1 X105.837 Y104.209 F10800.000
G1 F8640
G1 X104.563 Y103.810 E-0.28817
G1 X104.777 Y101.778 E-0.47183
G1 E-0.04000 F2100.00000
G1 Z0.900 F10800.000
G1 X108.190 Y97.810
G1 Z0.300
G1 E0.80000 F2100.00000
M204 S20
G1 F1800
G1 X108.190 Y94.190 E0.16056
G1 X111.810 Y94.190 E0.16056
G1 X111.810 Y97.810 E0.16056
G1 X108.250 Y97.810 E0.15790
M204 S1000
G1 X107.804 Y97.914 F10800.000
G1 F8640
G1 X108.195 Y94.519 E-0.76000
G1 E-0.04000 F2100.00000
G1 Z0.900 F10800.000
G1 X109.359 Y91.810
G1 Z0.300
G1 E0.80000 F2100.00000
M204 S20
G1 F1800
G1 X111.810 Y89.088 E0.16244
G1 X111.810 Y91.810 E0.12072
G1 X109.419 Y91.810 E0.10603
M204 S1000
G1 X108.968 Y91.727 F10800.000
G1 F8640
G1 X111.592 Y89.337 E-0.76000
G1 E-0.04000 F2100.00000
G1 Z0.900 F10800.000
G1 X114.190 Y91.810
G1 Z0.300
G1 E0.80000 F2100.00000
M204 S20
G1 F1800
G1 X114.190 Y88.190 E0.16056
G1 X117.810 Y88.190 E0.16056
G1 X117.810 Y91.810 E0.16056
G1 X114.250 Y91.810 E0.15790
M204 S1000
G1 X113.804 Y91.914 F10800.000
G1 F8640
G1 X114.195 Y88.519 E-0.76000
G1 E-0.04000 F2100.00000
G1 Z0.900 F10800.000
G1 X120.190 Y85.810
G1 Z0.300
G1 E0.80000 F2100.00000
M204 S20
G1 F1800
G1 X120.190 Y85.116 E0.03076
G1 X122.851 Y84.551 E0.12065
G1 X123.810 Y84.551 E0.04255
G1 X123.810 Y85.810 E0.05585
G1 X120.250 Y85.810 E0.15790
M204 S1000
G1 X119.792 Y85.855 F10800.000
G1 F8640
G1 X120.190 Y85.116 E-0.16074
G1 X122.729 Y84.577 E-0.59926
G1 E-0.04000 F2100.00000
G1 Z0.900 F10800.000
G1 X119.834 Y117.834
G1 Z0.300
G1 E0.80000 F2100.00000
M204 S20
G1 F1800
G1 X124.166 Y117.834 E0.19211
G1 X124.166 Y122.166 E0.19211
G1 X119.834 Y122.166 E0.19211
G1 X119.834 Y117.894 E0.18945
M204 S1000
G1 X120.190 Y118.190 F10800.000
M204 S20
G1 F1800
G1 X123.810 Y118.190 E0.16056
G1 X123.810 Y121.810 E0.16056
G1 X120.190 Y121.810 E0.16056
G1 X120.190 Y118.250 E0.15790
M204 S1000
G1 X120.086 Y117.804 F10800.000
G1 F8640
G1 X123.481 Y118.195 E-0.76000
G1 E-0.04000 F2100.00000
G1 Z0.900 F10800.000
G1 X119.834 Y111.834
G1 Z0.300
G1 E0.80000 F2100.00000
M204 S20
G1 F1800
G1 X124.166 Y111.834 E0.19211
G1 X124.166 Y116.166 E0.19211
G1 X119.834 Y116.166 E0.19211
G1 X119.834 Y111.894 E0.18945
M204 S1000
G1 X120.190 Y112.190 F10800.000
M204 S20
G1 F1800
G1 X123.810 Y112.190 E0.16056
G1 X123.810 Y115.810 E0.16056
G1 X120.190 Y115.810 E0.16056
G1 X120.190 Y112.250 E0.15790
M204 S1000
G1 X120.086 Y111.804 F10800.000
G1 F8640
G1 X123.481 Y112.195 E-0.76000
G1 E-0.04000 F2100.00000
G1 Z0.900 F10800.000
G1 X119.834 Y105.834
G1 Z0.300
G1 E0.80000 F2100.00000
M204 S20
G1 F1800
G1 X124.166 Y105.834 E0.19211
G1 X124.166 Y110.166 E0.19211
G1 X119.834 Y110.166 E0.19211
G1 X119.834 Y105.894 E0.18945
M204 S1000
G1 X120.190 Y106.190 F10800.000
M204 S20
G1 F1800
G1 X123.810 Y106.190 E0.16056
G1 X123.810 Y109.810 E0.16056
G1 X120.190 Y109.810 E0.16056
G1 X120.190 Y106.250 E0.15790
M204 S1000
G1 X120.086 Y105.804 F10800.000
G1 F8640
G1 X123.481 Y106.195 E-0.76000
G1 E-0.04000 F2100.00000
G1 Z0.900 F10800.000
G1 X119.834 Y99.834
G1 Z0.300
G1 E0.80000 F2100.00000
M204 S20
G1 F1800
G1 X124.166 Y99.834 E0.19211
G1 X124.166 Y104.166 E0.19211
G1 X119.834 Y104.166 E0.19211
G1 X119.834 Y99.894 E0.18945
M204 S1000
G1 X120.190 Y100.190 F10800.000
M204 S20
G1 F1800
G1 X123.810 Y100.190 E0.16056
G1 X123.810 Y103.810 E0.16056
G1 X120.190 Y103.810 E0.16056
G1 X120.190 Y100.250 E0.15790
M204 S1000
G1 X120.086 Y99.804 F10800.000
G1 F8640
G1 X123.481 Y100.195 E-0.76000
G1 E-0.04000 F2100.00000
G1 Z0.900 F10800.000
G1 X119.834 Y93.834
G1 Z0.300
G1 E0.80000 F2100.00000
M204 S20
G1 F1800
G1 X124.166 Y93.834 E0.19211
G1 X124.166 Y98.166 E0.19211
G1 X119.834 Y98.166 E0.19211
G1 X119.834 Y93.894 E0.18945
M204 S1000
G1 X120.190 Y94.190 F10800.000
M204 S20
G1 F1800
G1 X123.810 Y94.190 E0.16056
G1 X123.810 Y97.810 E0.16056
G1 X120.190 Y97.810 E0.16056
G1 X120.190 Y94.250 E0.15790
M204 S1000
G1 X120.086 Y93.804 F10800.000
G1 F8640
G1 X123.481 Y94.195 E-0.76000
G1 E-0.04000 F2100.00000
G1 Z0.900 F10800.000
G1 X119.834 Y87.834
G1 Z0.300
G1 E0.80000 F2100.00000
M204 S20
G1 F1800
G1 X124.166 Y87.834 E0.19211
G1 X124.166 Y92.166 E0.19211
G1 X119.834 Y92.166 E0.19211
G1 X119.834 Y87.894 E0.18945
M204 S1000
G1 X120.190 Y88.190 F10800.000
M204 S20
G1 F1800
G1 X123.810 Y88.190 E0.16056
G1 X123.810 Y91.810 E0.16056
G1 X120.190 Y91.810 E0.16056
G1 X120.190 Y88.250 E0.15790
M204 S1000
G1 X120.086 Y87.804 F10800.000
G1 F8640
G1 X123.481 Y88.195 E-0.76000
G1 E-0.04000 F2100.00000
G1 Z0.900 F10800.000
G1 X125.834 Y87.834
G1 Z0.300
G1 E0.80000 F2100.00000
M204 S20
G1 F1800
G1 X130.166 Y87.834 E0.19211
G1 X130.166 Y92.166 E0.19211
M73 Q2 S45
G1 X125.834 Y92.166 E0.19211
M73 P2 R45
G1 X125.834 Y87.894 E0.18945
M204 S1000
G1 X126.190 Y88.190 F10800.000
M204 S20
G1 F1800
G1 X129.810 Y88.190 E0.16056
G1 X129.810 Y91.810 E0.16056
G1 X126.190 Y91.810 E0.16056
G1 X126.190 Y88.250 E0.15790
M204 S1000
G1 X126.086 Y87.804 F10800.000
G1 F8640
G1 X129.481 Y88.195 E-0.76000
G1 E-0.04000 F2100.00000
G1 Z0.900 F10800.000
G1 X125.834 Y93.834
G1 Z0.300
G1 E0.80000 F2100.00000
M204 S20
G1 F1800
G1 X130.166 Y93.834 E0.19211
G1 X130.166 Y98.166 E0.19211
G1 X125.834 Y98.166 E0.19211
G1 X125.834 Y93.894 E0.18945
M204 S1000
G1 X126.190 Y94.190 F10800.000
M204 S20
G1 F1800
G1 X129.810 Y94.190 E0.16056
G1 X129.810 Y97.810 E0.16056
G1 X126.190 Y97.810 E0.16056
G1 X126.190 Y94.250 E0.15790
M204 S1000
G1 X126.086 Y93.804 F10800.000
G1 F8640
G1 X129.481 Y94.195 E-0.76000
G1 E-0.04000 F2100.00000
G1 Z0.900 F10800.000
G1 X131.834 Y93.834
G1 Z0.300
G1 E0.80000 F2100.00000
M204 S20
G1 F1800
G1 X136.166 Y93.834 E0.19211
G1 X136.166 Y98.166 E0.19211
G1 X131.834 Y98.166 E0.19211
G1 X131.834 Y93.894 E0.18945
M204 S1000
G1 X132.190 Y94.190 F10800.000
M204 S20
G1 F1800
G1 X135.810 Y94.190 E0.16056
G1 X135.810 Y97.810 E0.16056
G1 X132.190 Y97.810 E0.16056
G1 X132.190 Y94.250 E0.15790
M204 S1000
G1 X132.086 Y93.804 F10800.000
G1 F8640
G1 X135.481 Y94.195 E-0.76000
G1 E-0.04000 F2100.00000
G1 Z0.900 F10800.000
G1 X131.834 Y99.834
G1 Z0.300
G1 E0.80000 F2100.00000
M204 S20
G1 F1800
G1 X136.166 Y99.834 E0.19211
G1 X136.166 Y104.166 E0.19211
G1 X131.834 Y104.166 E0.19211
G1 X131.834 Y99.894 E0.18945
M204 S1000
G1 X132.190 Y100.190 F10800.000
M204 S20
G1 F1800
G1 X135.810 Y100.190 E0.16056
G1 X135.810 Y103.810 E0.16056
G1 X132.190 Y103.810 E0.16056
G1 X132.190 Y100.250 E0.15790
M204 S1000
G1 X132.086 Y99.804 F10800.000
G1 F8640
G1 X135.481 Y100.195 E-0.76000
G1 E-0.04000 F2100.00000
G1 Z0.900 F10800.000
G1 X125.834 Y99.834
G1 Z0.300
G1 E0.80000 F2100.00000
M204 S20
G1 F1800
G1 X130.166 Y99.834 E0.19211
G1 X130.166 Y104.166 E0.19211
G1 X125.834 Y104.166 E0.19211
G1 X125.834 Y99.894 E0.18945
M204 S1000
G1 X126.190 Y100.190 F10800.000
M204 S20
G1 F1800
G1 X129.810 Y100.190 E0.16056
G1 X129.810 Y103.810 E0.16056
G1 X126.190 Y103.810 E0.16056
G1 X126.190 Y100.250 E0.15790
M204 S1000
G1 X126.086 Y99.804 F10800.000
G1 F8640
G1 X129.481 Y100.195 E-0.76000
G1 E-0.04000 F2100.00000
G1 Z0.900 F10800.000
G1 X125.834 Y105.834
G1 Z0.300
G1 E0.80000 F2100.00000
M204 S20
G1 F1800
G1 X130.166 Y105.834 E0.19211
G1 X130.166 Y110.166 E0.19211
G1 X125.834 Y110.166 E0.19211
G1 X125.834 Y105.894 E0.18945
M204 S1000
G1 X126.190 Y106.190 F10800.000
M204 S20
G1 F1800
G1 X129.810 Y106.190 E0.16056
G1 X129.810 Y109.810 E0.16056
G1 X126.190 Y109.810 E0.16056
G1 X126.190 Y106.250 E0.15790
M204 S1000
G1 X126.086 Y105.804 F10800.000
G1 F8640
G1 X129.481 Y106.195 E-0.76000
G1 E-0.04000 F2100.00000
G1 Z0.900 F10800.000
G1 X131.834 Y105.834
G1 Z0.300
G1 E0.80000 F2100.00000
M204 S20
G1 F1800
G1 X136.166 Y105.834 E0.19211
G1 X136.166 Y110.166 E0.19211
G1 X131.834 Y110.166 E0.19211
G1 X131.834 Y105.894 E0.18945
M204 S1000
G1 X132.190 Y106.190 F10800.000
M204 S20
G1 F1800
G1 X135.810 Y106.190 E0.16056
G1 X135.810 Y109.810 E0.16056
G1 X132.190 Y109.810 E0.16056
G1 X132.190 Y106.250 E0.15790
M204 S1000
G1 X132.086 Y105.804 F10800.000
G1 F8640
G1 X135.481 Y106.195 E-0.76000
G1 E-0.04000 F2100.00000
G1 Z0.900 F10800.000
G1 X137.834 Y105.834
G1 Z0.300
G1 E0.80000 F2100.00000
M204 S20
G1 F1800
G1 X142.166 Y105.834 E0.19211
G1 X142.166 Y110.166 E0.19211
G1 X137.834 Y110.166 E0.19211
G1 X137.834 Y105.894 E0.18945
M204 S1000
G1 X138.190 Y106.190 F10800.000
M204 S20
G1 F1800
G1 X141.810 Y106.190 E0.16056
G1 X141.810 Y109.810 E0.16056
G1 X138.190 Y109.810 E0.16056
G1 X138.190 Y106.250 E0.15790
M204 S1000
G1 X138.086 Y105.804 F10800.000
G1 F8640
G1 X141.481 Y106.195 E-0.76000
G1 E-0.04000 F2100.00000
G1 Z0.900 F10800.000
G1 X137.834 Y99.834
G1 Z0.300
G1 E0.80000 F2100.00000
M204 S20
G1 F1800
G1 X142.166 Y99.834 E0.19211
G1 X142.166 Y104.166 E0.19211
G1 X137.834 Y104.166 E0.19211
G1 X137.834 Y99.894 E0.18945
M204 S1000
G1 X138.190 Y100.190 F10800.000
M204 S20
G1 F1800
G1 X141.810 Y100.190 E0.16056
G1 X141.810 Y103.810 E0.16056
G1 X138.190 Y103.810 E0.16056
G1 X138.190 Y100.250 E0.15790
M204 S1000
G1 X138.086 Y99.804 F10800.000
G1 F8640
G1 X141.481 Y100.195 E-0.76000
G1 E-0.04000 F2100.00000
G1 Z0.900 F10800.000
G1 X136.166 Y111.834
G1 Z0.300
G1 E0.80000 F2100.00000
M204 S20
G1 F1800
G1 X136.166 Y116.166 E0.19211
G1 X131.834 Y116.166 E0.19211
G1 X131.834 Y111.834 E0.19211
G1 X136.106 Y111.834 E0.18945
M204 S1000
G1 X135.810 Y112.190 F10800.000
M204 S20
G1 F1800
G1 X135.810 Y115.810 E0.16056
G1 X132.190 Y115.810 E0.16056
G1 X132.190 Y112.190 E0.16056
G1 X135.750 Y112.190 E0.15790
M204 S1000
G1 X136.196 Y112.086 F10800.000
G1 F8640
G1 X135.805 Y115.481 E-0.76000
G1 E-0.04000 F2100.00000
G1 Z0.900 F10800.000
G1 X125.834 Y111.834
G1 Z0.300
G1 E0.80000 F2100.00000
M204 S20
G1 F1800
G1 X130.166 Y111.834 E0.19211
G1 X130.166 Y116.166 E0.19211
G1 X125.834 Y116.166 E0.19211
G1 X125.834 Y111.894 E0.18945
M204 S1000
G1 X126.190 Y112.190 F10800.000
M204 S20
G1 F1800
G1 X129.810 Y112.190 E0.16056
G1 X129.810 Y115.810 E0.16056
G1 X126.190 Y115.810 E0.16056
G1 X126.190 Y112.250 E0.15790
M204 S1000
G1 X126.086 Y111.804 F10800.000
G1 F8640
